;FLAVOR:Marlin
;TIME:1102.16
;Filament used:1.33744m
;Material Diameter:1.75
;Material Density:1.24
;Filament Cost:0.079779
;Filament Weight:3.988969
;Filament Length:1.337436
;Layer height:0.2
;MINX:2.542
;MINY:1.943
;MINZ:0.2
;MAXX:122.494
;MAXY:149
;MAXZ:20.401
;OuterWall Time:132.56
;InnerWall Time:110.042
;Skin Time:632.551
;Support Time:0
;SkirtBrim Time:12.1804
;Infill Time:21.4423
;Support Infills Time:0
;Combing Time:72.236
;Retraction Time:121.153
;PrimeTower Time:0

;;;;;;;;;;;;;;;;;;;;;;;;;;;;;;;;;;;;;;;;;;;;;;;;;;;;;;;;;;;;;;;;;;;;;;;;;;;;
;Creality Print GCode Generated by CXEngine
;CRSLICE_GIT_HASH:58ee74d
;Creality Print Version : V4.3.8.6984
;CXEngine Release Time:2023-12-04 18:16:29
;Gcode Generated Time:2024-04-28 19:21:11
;----------Machine Config--------------
;Machine Name:Ender-3 V3 SE
;Machine Height:250
;Machine Width:220
;Machine Depth:220
;Material Type:PLA
;Material Name:CR-PLA_1.75
;Number of Extruders:1
;ExtruderParams[0] Nozzle Diameter:1000
;----------Profile Config---------------
;Wall Thickness:0.8
;Top/Bottom Thickness:0.8
;Out Wall Line Width:0.42
;Inner Wall Line Width:0.45
;Inital Height:200
;Wall Line Count:2
;Infill Line Distance:8
;Infill Pattern:grid
;Infill Sparse Density:10
;Infill Wipe Distance:0
;Print Temperature:195
;Bed Temperature:60
;Support Enable:false
;Support Density:15
;Support Angle:60
;Adhesion Type:lace
;machine is belt:false
;machine belt offset:10
;machine belt offset Y:0
;Raft Base Line Spacing:1.6
;Wait Heatup Sync:true
;Enable Ironing:false
;Material Type:PLA
;Max volumetric speed:20
;Preview Img Type:png
;Screen Size:Sermoon D3
;----------Shell Config----------------
;Outer Wall Wipe Distance:2000
;Outer Inset First:false
;Infill Before Walls:false
;Infill Overlap:0.09
;Fill Gaps Between Walls:everywhere
;Minimum Infill Area:30
;Top Surface Skin Layer:0
;Top Layers:4
;Z Seam Alignment:sharpest_corner
;Seam Corner Preference:z_seam_corner_inner
;Z Seam X:110
;Z Seam Y:220
;Horizontal Expansion:0
;Top/Bottom Pattern:zigzag
;Ironing Pattern:zigzag
;Vase Model:false
;----------Support Config----------------
;Support Type:everywhere
;Support Pattern:zigzag
;Support Infill Layer Thickness:0.2
;Minimum Support Area:1
;Enable Support Roof:true
;Support Roof Thickness:0.8
;Support Roof Pattern:lines
;Connect Support Lines:0
;Connect Support ZigZags:1
;Minimum Support X/Y Distance:0.2
;Support Line Distance:2.67
; ---------PrintSpeed & Travel----------
;Enable Print Cool:true
;Avoid Printed Parts Traveling:true
;Enable Retraction:true
;Retraction Distance:1.2
;Retraction Speed:30
;Retraction Prime Speed:30
;Maximum Retraction Count:100
;Minimum Extrusion Distance Window:0.8
;Z Hop When Retracted:true
;Z Hop Height:0.4
;Retract Before Outer Wall:true

;Outer Wall Speed:60
;Inner Wall Speed:90
;Infill Speed:180
;Top/Bottom Speed:50
;Travel Speed:150
;Initial Layer Speed:20
;Skirt/Brim Speed:25
;Prime Tower Speed:60
;Outer Wall Acceleration:1000
;Inner Wall Acceleration:2000
;Infill Acceleration:2500
;Top/Bottom Acceleration:2500
;Travel Acceleration:2500
;Initial Layer Print Acceleration:500
;Initial Layer Travel Acceleration:500
;Skirt/Brim Acceleration:500
;Combing Mode:off
; --------SpecialModel&Mesh Fixes--------
;Union Overlapping Volum:true
;Remove All Holes:false
;Maximum Travel Resolution:0.25
;Maximum Deviation:0.05
;Maximum Model Angle:0.872665
;IS Mold Print:false
;Make Overhang Printable:false
;Enable Coasting:false
;Coasting Volumes:0.064
;Coasting Speed:0.9
;Raft AirGap:0.25
;Layer0 ZOverLap:0.13
;Adaptive Layers:0
;---------------------End of Head--------------------------
M140 S60
M105
M190 S60
M104 S195
M82 ;absolute extrusion mode
M220 S100 ;Reset Feedrate
M221 S100 ;Reset Flowrate

G28 ;Home

G92 E0 ;Reset Extruder
G1 Z2.0 F3000 ;Move Z Axis up
G1 X-2.1 Y20 Z0.28 F5000.0 ;Move to start position
M109 S195.000000
G1 X-2.1 Y145.0 Z0.28 F1500.0 E15 ;Draw the first line
G1 X-2.4 Y145.0 Z0.28 F5000.0 ;Move to side a little
G1 X-2.4 Y20 Z0.28 F1500.0 E30 ;Draw the second line
G92 E0  ;Reset Extruder
G1 E-1.0000 F1800 ;Retract a bit
G1 Z2.0 F3000 ;Move Z Axis up
G1 E0.0000 F1800 

G92 E0
G92 E0
G1 F1800 E-1.2
;LAYER_COUNT:19

;LAYER:0
M106 S0
M204 S500
;;retract;;
G1 F1800 E0
G1 F1800 E-1.2
G0 F4800 X2.542 Y1.943 Z20.401
G0 X98.121 Y75.023 Z0.6
;TYPE:SKIRT
G1 F600 Z0.2
G1 F1800 E0
G1 F1500 X97.819 Y75.501 E0.02172
G1 X97.613 Y76.021 E0.04321
G1 X97.505 Y76.581 E0.06512
G1 X97.505 Y77.146 E0.08682
G1 X97.612 Y77.706 E0.10872
G1 X97.785 Y78.142 E0.12674
G1 X98.016 Y78.56 E0.14509
G1 X98.313 Y78.918 E0.16296
G1 X98.587 Y79.176 E0.17742
G1 X98.892 Y79.397 E0.19188
G1 X99.305 Y79.625 E0.21001
G1 X99.753 Y79.77 E0.2281
G1 X100.124 Y79.841 E0.24261
G1 X100.405 Y79.858 E0.25342
G1 X99.842 Y79.929 E0.27522
G1 X99.395 Y80.075 E0.29329
G1 X99.054 Y80.235 E0.30776
G1 X98.736 Y80.437 E0.32223
G1 X98.446 Y80.677 E0.33669
G1 X98.121 Y81.023 E0.35492
G1 X97.819 Y81.501 E0.37664
G1 X97.613 Y82.021 E0.39813
G1 X97.505 Y82.581 E0.42004
G1 X97.505 Y83.146 E0.44175
G1 X97.612 Y83.706 E0.46365
G1 X97.785 Y84.142 E0.48167
G1 X98.016 Y84.56 E0.50001
G1 X98.313 Y84.918 E0.51788
G1 X98.587 Y85.176 E0.53234
G1 X98.892 Y85.397 E0.54681
G1 X99.305 Y85.625 E0.56493
G1 X99.753 Y85.77 E0.58302
G1 X100.124 Y85.841 E0.59753
G1 X100.405 Y85.858 E0.60835
G1 X99.842 Y85.929 E0.63015
G1 X99.395 Y86.075 E0.64821
G1 X99.054 Y86.235 E0.66268
G1 X98.736 Y86.437 E0.67715
G1 X98.446 Y86.677 E0.69161
G1 X98.121 Y87.023 E0.70985
G1 X97.819 Y87.501 E0.73157
G1 X97.613 Y88.021 E0.75306
G1 X97.505 Y88.581 E0.77496
G1 X97.505 Y89.146 E0.79667
G1 X97.612 Y89.706 E0.81857
G1 X97.785 Y90.142 E0.83659
G1 X98.016 Y90.56 E0.85494
G1 X98.313 Y90.918 E0.87281
G1 X98.587 Y91.176 E0.88726
G1 X98.892 Y91.397 E0.90173
G1 X99.305 Y91.625 E0.91986
G1 X99.753 Y91.77 E0.93795
G1 X100.124 Y91.841 E0.95246
G1 X100.405 Y91.858 E0.96327
G1 X99.842 Y91.929 E0.98507
G1 X99.395 Y92.075 E1.00313
G1 X99.054 Y92.235 E1.0176
G1 X98.736 Y92.437 E1.03208
G1 X98.446 Y92.677 E1.04654
G1 X98.121 Y93.023 E1.06477
G1 X97.819 Y93.501 E1.08649
G1 X97.613 Y94.021 E1.10798
G1 X97.505 Y94.581 E1.12989
G1 X97.505 Y95.146 E1.15159
G1 X97.612 Y95.706 E1.1735
G1 X97.785 Y96.142 E1.19152
G1 X98.016 Y96.56 E1.20986
G1 X98.313 Y96.918 E1.22773
G1 X98.587 Y97.176 E1.24219
G1 X98.892 Y97.397 E1.25666
G1 X99.305 Y97.625 E1.27478
G1 X99.753 Y97.77 E1.29287
G1 X100.124 Y97.841 E1.30738
G1 X100.405 Y97.858 E1.3182
G1 X99.842 Y97.929 E1.33999
G1 X99.395 Y98.075 E1.35806
G1 X99.054 Y98.235 E1.37253
G1 X98.736 Y98.437 E1.387
G1 X98.446 Y98.677 E1.40146
G1 X98.121 Y99.023 E1.4197
G1 X97.819 Y99.501 E1.44142
G1 X97.613 Y100.021 E1.4629
G1 X97.505 Y100.581 E1.48481
G1 X97.505 Y101.146 E1.50652
G1 X97.612 Y101.706 E1.52842
G1 X97.785 Y102.142 E1.54644
G1 X98.016 Y102.56 E1.56479
G1 X98.313 Y102.918 E1.58266
G1 X98.587 Y103.176 E1.59711
G1 X98.892 Y103.397 E1.61158
G1 X99.305 Y103.625 E1.62971
G1 X99.753 Y103.77 E1.64779
G1 X100.124 Y103.841 E1.66231
G1 X100.405 Y103.858 E1.67312
G1 X99.842 Y103.929 E1.69492
G1 X99.395 Y104.075 E1.71298
G1 X99.054 Y104.235 E1.72745
G1 X98.736 Y104.437 E1.74193
G1 X98.446 Y104.677 E1.75639
G1 X98.121 Y105.023 E1.77462
G1 X97.819 Y105.501 E1.79634
G1 X97.613 Y106.021 E1.81783
G1 X97.505 Y106.581 E1.83974
G1 X97.505 Y107.146 E1.86144
G1 X97.612 Y107.706 E1.88334
G1 X97.785 Y108.142 E1.90136
G1 X98.016 Y108.56 E1.91971
G1 X98.313 Y108.918 E1.93758
G1 X98.587 Y109.176 E1.95204
G1 X98.892 Y109.397 E1.96651
G1 X99.305 Y109.625 E1.98463
G1 X99.753 Y109.77 E2.00272
G1 X100.124 Y109.841 E2.01723
G1 X100.405 Y109.858 E2.02804
G1 X99.842 Y109.929 E2.04984
G1 X99.395 Y110.075 E2.06791
G1 X99.054 Y110.235 E2.08238
G1 X98.736 Y110.437 E2.09685
G1 X98.446 Y110.677 E2.11131
G1 X98.121 Y111.023 E2.12955
G1 X97.819 Y111.501 E2.15127
G1 X97.613 Y112.021 E2.17275
G1 X97.505 Y112.581 E2.19466
G1 X97.505 Y113.146 E2.21637
G1 X97.612 Y113.706 E2.23827
G1 X97.785 Y114.142 E2.25629
G1 X98.016 Y114.56 E2.27464
G1 X98.313 Y114.918 E2.2925
G1 X98.587 Y115.176 E2.30696
G1 X98.892 Y115.397 E2.32143
G1 X99.305 Y115.625 E2.33955
G1 X99.753 Y115.77 E2.35764
G1 X100.124 Y115.841 E2.37215
G1 X100.405 Y115.858 E2.38297
G1 X99.842 Y115.929 E2.40477
G1 X99.395 Y116.075 E2.42283
G1 X99.054 Y116.235 E2.4373
G1 X98.736 Y116.437 E2.45177
G1 X98.446 Y116.677 E2.46624
G1 X98.121 Y117.023 E2.48447
G1 X97.819 Y117.501 E2.50619
G1 X97.613 Y118.021 E2.52768
G1 X97.505 Y118.581 E2.54959
G1 X97.505 Y119.146 E2.57129
G1 X97.612 Y119.706 E2.59319
G1 X97.785 Y120.142 E2.61121
G1 X98.016 Y120.56 E2.62956
G1 X98.313 Y120.918 E2.64743
G1 X98.587 Y121.176 E2.66189
G1 X98.892 Y121.397 E2.67636
G1 X99.305 Y121.625 E2.69448
G1 X99.753 Y121.77 E2.71257
G1 X100.124 Y121.841 E2.72708
G1 X100.405 Y121.858 E2.73789
G1 X99.842 Y121.929 E2.75969
G1 X99.395 Y122.075 E2.77776
G1 X99.054 Y122.235 E2.79223
G1 X98.736 Y122.437 E2.8067
G1 X98.446 Y122.677 E2.82116
G1 X98.121 Y123.023 E2.8394
G1 X97.819 Y123.501 E2.86112
G1 X97.613 Y124.021 E2.8826
G1 X97.505 Y124.581 E2.90451
G1 X97.505 Y125.146 E2.92622
G1 X97.612 Y125.706 E2.94812
G1 X97.785 Y126.142 E2.96614
G1 X98.016 Y126.56 E2.98448
G1 X98.313 Y126.918 E3.00235
G1 X98.587 Y127.176 E3.01681
G1 X98.892 Y127.397 E3.03128
G1 X99.305 Y127.625 E3.0494
G1 X99.753 Y127.77 E3.06749
G1 X100.124 Y127.841 E3.082
G1 X100.405 Y127.858 E3.09282
G1 X99.842 Y127.929 E3.11462
G1 X99.395 Y128.075 E3.13268
G1 X99.054 Y128.235 E3.14715
G1 X98.736 Y128.437 E3.16162
G1 X98.446 Y128.677 E3.17608
G1 X98.121 Y129.023 E3.19432
G1 X97.819 Y129.501 E3.21604
G1 X97.613 Y130.021 E3.23753
G1 X97.505 Y130.581 E3.25944
G1 X97.505 Y131.146 E3.28114
G1 X97.612 Y131.706 E3.30304
G1 X97.785 Y132.142 E3.32106
G1 X98.016 Y132.56 E3.33941
G1 X98.313 Y132.918 E3.35728
G1 X98.587 Y133.176 E3.37174
G1 X98.892 Y133.397 E3.3862
G1 X99.222 Y133.579 E3.40068
G1 X99.662 Y133.753 E3.41886
G1 X100.124 Y133.841 E3.43693
G1 X100.405 Y133.858 E3.44774
G1 X99.842 Y133.929 E3.46954
G1 X99.395 Y134.075 E3.4876
G1 X99.054 Y134.235 E3.50207
G1 X98.736 Y134.437 E3.51655
G1 X98.446 Y134.677 E3.53101
G1 X98.121 Y135.023 E3.54924
G1 X97.819 Y135.501 E3.57096
G1 X97.613 Y136.021 E3.59245
G1 X97.505 Y136.581 E3.61436
G1 X97.505 Y137.146 E3.63606
G1 X97.612 Y137.706 E3.65797
G1 X97.785 Y138.142 E3.67598
G1 X98.016 Y138.56 E3.69433
G1 X98.313 Y138.918 E3.7122
G1 X98.587 Y139.176 E3.72666
G1 X98.892 Y139.397 E3.74113
G1 X99.222 Y139.579 E3.7556
G1 X99.662 Y139.753 E3.77378
G1 X100.124 Y139.841 E3.79185
G1 X100.405 Y139.858 E3.80266
G1 X99.842 Y139.929 E3.82446
G1 X99.395 Y140.075 E3.84253
G1 X99.054 Y140.235 E3.857
G1 X98.736 Y140.437 E3.87147
G1 X98.446 Y140.677 E3.88593
G1 X98.121 Y141.023 E3.90417
G1 X97.819 Y141.501 E3.92589
G1 X97.613 Y142.021 E3.94737
G1 X97.505 Y142.581 E3.96928
G1 X97.505 Y143.146 E3.99099
G1 X97.612 Y143.706 E4.01289
G1 X97.785 Y144.142 E4.03091
G1 X98.016 Y144.56 E4.04925
G1 X98.313 Y144.918 E4.06712
G1 X98.587 Y145.176 E4.08158
G1 X98.892 Y145.397 E4.09605
G1 X99.222 Y145.579 E4.11053
G1 X99.662 Y145.753 E4.1287
G1 X100.124 Y145.841 E4.14677
G1 X100.506 Y145.864 E4.16147
G1 X100.509 Y145.991 E4.16635
G1 X100.857 Y145.996 E4.17972
G1 X100.928 Y146.562 E4.20164
G1 X101.022 Y146.927 E4.21612
G1 X101.16 Y147.277 E4.23057
G1 X101.342 Y147.607 E4.24505
G1 X101.563 Y147.912 E4.25951
G1 X101.821 Y148.186 E4.27397
G1 X102.183 Y148.486 E4.29203
G1 X102.598 Y148.714 E4.31022
G1 X103.032 Y148.886 E4.32816
G1 X103.499 Y148.976 E4.34643
G1 X103.875 Y149 E4.3609
G1 X104.251 Y148.976 E4.37537
G1 X104.718 Y148.886 E4.39364
G1 X105.238 Y148.68 E4.41513
G1 X105.638 Y148.427 E4.43331
G1 X106.002 Y148.126 E4.45146
G1 X106.302 Y147.763 E4.46955
G1 X106.504 Y147.445 E4.48402
G1 X106.664 Y147.104 E4.49849
G1 X106.81 Y146.657 E4.51656
G1 X106.875 Y146.142 E4.5365
G1 X106.928 Y146.562 E4.55276
G1 X107.022 Y146.927 E4.56724
G1 X107.16 Y147.277 E4.58169
G1 X107.342 Y147.607 E4.59617
G1 X107.563 Y147.912 E4.61064
G1 X107.821 Y148.186 E4.62509
G1 X108.183 Y148.486 E4.64316
G1 X108.598 Y148.714 E4.66135
G1 X109.032 Y148.886 E4.67928
G1 X109.499 Y148.976 E4.69755
G1 X109.875 Y149 E4.71202
G1 X110.251 Y148.976 E4.7265
G1 X110.718 Y148.886 E4.74477
G1 X111.238 Y148.68 E4.76625
G1 X111.638 Y148.427 E4.78444
G1 X112.002 Y148.126 E4.80258
G1 X112.302 Y147.763 E4.82067
G1 X112.504 Y147.445 E4.83514
G1 X112.664 Y147.104 E4.84961
G1 X112.81 Y146.657 E4.86768
G1 X112.875 Y146.142 E4.88762
G1 X112.928 Y146.562 E4.90388
G1 X113.022 Y146.927 E4.91836
G1 X113.16 Y147.277 E4.93281
G1 X113.342 Y147.607 E4.94729
G1 X113.563 Y147.912 E4.96176
G1 X113.821 Y148.186 E4.97622
G1 X114.183 Y148.486 E4.99428
G1 X114.598 Y148.714 E5.01247
G1 X115.032 Y148.886 E5.0304
G1 X115.499 Y148.976 E5.04867
G1 X115.875 Y149 E5.06315
G1 X116.251 Y148.976 E5.07762
G1 X116.718 Y148.886 E5.09589
G1 X117.238 Y148.68 E5.11738
G1 X117.638 Y148.427 E5.13556
G1 X118.002 Y148.126 E5.1537
G1 X118.302 Y147.763 E5.17179
G1 X118.504 Y147.445 E5.18627
G1 X118.664 Y147.104 E5.20074
G1 X118.81 Y146.657 E5.2188
G1 X118.892 Y146.003 E5.24412
G1 X119.231 Y146.06 E5.25733
G1 X119.688 Y146.06 E5.27488
G1 X120.157 Y146.001 E5.29304
G1 X120.604 Y145.855 E5.31111
G1 X120.945 Y145.695 E5.32558
G1 X121.263 Y145.493 E5.34005
G1 X121.553 Y145.253 E5.35451
G1 X121.878 Y144.907 E5.37274
G1 X122.18 Y144.429 E5.39447
G1 X122.386 Y143.909 E5.41595
G1 X122.494 Y143.349 E5.43786
G1 X122.494 Y142.783 E5.4596
G1 X122.386 Y142.223 E5.48151
G1 X122.214 Y141.789 E5.49945
G1 X121.986 Y141.374 E5.51764
G1 X121.686 Y141.012 E5.5357
G1 X121.412 Y140.754 E5.55016
G1 X121.107 Y140.533 E5.56463
G1 X120.777 Y140.351 E5.5791
G1 X120.427 Y140.213 E5.59356
G1 X120.062 Y140.119 E5.60803
G1 X119.642 Y140.066 E5.6243
G1 X120.157 Y140.001 E5.64424
G1 X120.604 Y139.855 E5.6623
G1 X120.945 Y139.695 E5.67677
G1 X121.263 Y139.493 E5.69124
G1 X121.553 Y139.253 E5.70571
G1 X121.878 Y138.907 E5.72394
G1 X122.18 Y138.429 E5.74566
G1 X122.386 Y137.909 E5.76715
G1 X122.494 Y137.349 E5.78906
G1 X122.494 Y136.783 E5.8108
G1 X122.386 Y136.223 E5.83271
G1 X122.214 Y135.789 E5.85064
G1 X121.986 Y135.374 E5.86883
G1 X121.686 Y135.012 E5.88689
G1 X121.412 Y134.754 E5.90135
G1 X121.107 Y134.533 E5.91582
G1 X120.777 Y134.351 E5.9303
G1 X120.427 Y134.213 E5.94475
G1 X120.062 Y134.119 E5.95923
G1 X119.642 Y134.066 E5.97549
G1 X120.157 Y134.001 E5.99543
G1 X120.604 Y133.855 E6.0135
G1 X120.945 Y133.695 E6.02797
G1 X121.263 Y133.493 E6.04244
G1 X121.553 Y133.253 E6.0569
G1 X121.878 Y132.907 E6.07514
G1 X122.18 Y132.429 E6.09686
G1 X122.386 Y131.909 E6.11834
G1 X122.494 Y131.349 E6.14025
G1 X122.494 Y130.783 E6.162
G1 X122.386 Y130.223 E6.18391
G1 X122.214 Y129.789 E6.20184
G1 X121.984 Y129.37 E6.2202
G1 X121.686 Y129.012 E6.23809
G1 X121.412 Y128.754 E6.25255
G1 X121.107 Y128.533 E6.26702
G1 X120.777 Y128.351 E6.2815
G1 X120.427 Y128.213 E6.29595
G1 X120.062 Y128.119 E6.31043
G1 X119.642 Y128.066 E6.32669
G1 X120.157 Y128.001 E6.34663
G1 X120.604 Y127.855 E6.3647
G1 X120.945 Y127.695 E6.37917
G1 X121.263 Y127.493 E6.39364
G1 X121.553 Y127.253 E6.4081
G1 X121.878 Y126.907 E6.42634
G1 X122.18 Y126.429 E6.44806
G1 X122.386 Y125.909 E6.46954
G1 X122.494 Y125.349 E6.49145
G1 X122.494 Y124.783 E6.5132
G1 X122.386 Y124.223 E6.53511
G1 X122.214 Y123.789 E6.55304
G1 X121.986 Y123.374 E6.57123
G1 X121.686 Y123.012 E6.58929
G1 X121.412 Y122.754 E6.60375
G1 X121.107 Y122.533 E6.61822
G1 X120.777 Y122.351 E6.6327
G1 X120.427 Y122.213 E6.64715
G1 X120.062 Y122.119 E6.66163
G1 X119.642 Y122.066 E6.67789
G1 X120.157 Y122.001 E6.69783
G1 X120.604 Y121.855 E6.7159
G1 X120.945 Y121.695 E6.73037
G1 X121.263 Y121.493 E6.74484
G1 X121.553 Y121.253 E6.7593
G1 X121.878 Y120.907 E6.77753
G1 X122.18 Y120.429 E6.79925
G1 X122.386 Y119.909 E6.82074
G1 X122.494 Y119.349 E6.84265
G1 X122.494 Y118.783 E6.86439
G1 X122.386 Y118.223 E6.8863
G1 X122.214 Y117.789 E6.90424
G1 X121.986 Y117.374 E6.92243
G1 X121.686 Y117.012 E6.94049
G1 X121.412 Y116.754 E6.95494
G1 X121.107 Y116.533 E6.96941
G1 X120.777 Y116.351 E6.98389
G1 X120.427 Y116.213 E6.99834
G1 X120.062 Y116.119 E7.01282
G1 X119.642 Y116.066 E7.02909
G1 X120.157 Y116.001 E7.04903
