;FLAVOR:Marlin
;TIME:5838.26
;Filament used:7.58482m
;Material Diameter:1.75
;Material Density:1.24
;Filament Cost:0.452442
;Filament Weight:22.622099
;Filament Length:7.584819
;Layer height:0.2
;MINX:2.203
;MINY:2.32
;MINZ:0.2
;MAXX:168.926
;MAXY:168.914
;MAXZ:20.401
;OuterWall Time:639.313
;InnerWall Time:464.98
;Skin Time:4088.49
;Support Time:0
;SkirtBrim Time:24.237
;Infill Time:77.0764
;Support Infills Time:0
;Combing Time:148.596
;Retraction Time:395.569
;PrimeTower Time:0
;;;;;;;;;;;;;;;;;;;;;;;;;;;;;;;;;;;;;;;;;;;;;;;;;;;;;;;;;;;;;;;;;;;;;;;;;
;Creality Print GCode Generated by CXEngine
;CRSLICE_GIT_HASH:58ee74d
;Creality Print Version : V4.3.8.6984
;CXEngine Release Time:2023-12-04 18:16:29
;Gcode Generated Time:2024-11-13 00:39:22
;----------Machine Config--------------
;Machine Name:Ender-3 V3 SE
;Machine Height:250
;Machine Width:220
;Machine Depth:220
;Material Type:PLA
;Material Name:Hyper PLA_1.75
;Number of Extruders:1
;ExtruderParams[0] Nozzle Diameter:1000
;----------Profile Config---------------
;Wall Thickness:0.8
;Top/Bottom Thickness:0.8
;Out Wall Line Width:0.42
;Inner Wall Line Width:0.45
;Inital Height:200
;Wall Line Count:2
;Infill Line Distance:8
;Infill Pattern:grid
;Infill Sparse Density:10
;Infill Wipe Distance:0
;Print Temperature:190
;Bed Temperature:60
;Support Enable:false
;Support Density:15
;Support Angle:60
;Adhesion Type:lace
;machine is belt:false
;machine belt offset:10
;machine belt offset Y:0
;Raft Base Line Spacing:1.6
;Wait Heatup Sync:true
;Enable Ironing:false
;Material Type:PLA
;Max volumetric speed:23
;Preview Img Type:png
;Screen Size:Sermoon D3
;----------Shell Config----------------
;Outer Wall Wipe Distance:2000
;Outer Inset First:false
;Infill Before Walls:false
;Infill Overlap:0.09
;Fill Gaps Between Walls:everywhere
;Minimum Infill Area:30
;Top Surface Skin Layer:0
;Top Layers:5
;Z Seam Alignment:sharpest_corner
;Seam Corner Preference:z_seam_corner_inner
;Z Seam X:110
;Z Seam Y:220
;Horizontal Expansion:0
;Top/Bottom Pattern:zigzag
;Ironing Pattern:zigzag
;Vase Model:false
;----------Support Config----------------
;Support Type:everywhere
;Support Pattern:zigzag
;Support Infill Layer Thickness:0.2
;Minimum Support Area:1
;Enable Support Roof:true
;Support Roof Thickness:0.8
;Support Roof Pattern:lines
;Connect Support Lines:0
;Connect Support ZigZags:1
;Minimum Support X/Y Distance:0.2
;Support Line Distance:2.67
; ---------PrintSpeed & Travel----------
;Enable Print Cool:true
;Avoid Printed Parts Traveling:true
;Enable Retraction:true
;Retraction Distance:1.2
;Retraction Speed:30
;Retraction Prime Speed:30
;Maximum Retraction Count:100
;Minimum Extrusion Distance Window:0.8
;Z Hop When Retracted:true
;Z Hop Height:0.4
;Retract Before Outer Wall:true

;Outer Wall Speed:60
;Inner Wall Speed:90
;Infill Speed:180
;Top/Bottom Speed:50
;Travel Speed:150
;Initial Layer Speed:20
;Skirt/Brim Speed:25
;Prime Tower Speed:60
;Outer Wall Acceleration:1000
;Inner Wall Acceleration:2000
;Infill Acceleration:2500
;Top/Bottom Acceleration:2500
;Travel Acceleration:2500
;Initial Layer Print Acceleration:500
;Initial Layer Travel Acceleration:500
;Skirt/Brim Acceleration:500
;Combing Mode:off
; --------SpecialModel&Mesh Fixes--------
;Union Overlapping Volum:true
;Remove All Holes:false
;Maximum Travel Resolution:0.25
;Maximum Deviation:0.05
;Maximum Model Angle:0.872665
;IS Mold Print:false
;Make Overhang Printable:false
;Enable Coasting:false
;Coasting Volumes:0.064
;Coasting Speed:0.9
;Raft AirGap:0.25
;Layer0 ZOverLap:0.13
;Adaptive Layers:0
;---------------------End of Head--------------------------
M140 S60
M105
M190 S60
M104 S190
M82 ;absolute extrusion mode
M220 S100 ;Reset Feedrate
M221 S100 ;Reset Flowrate

G28 ;Home

G92 E0 ;Reset Extruder
G1 Z2.0 F3000 ;Move Z Axis up
G1 X-2.1 Y20 Z0.28 F5000.0 ;Move to start position
M109 S190.000000
G1 X-2.1 Y145.0 Z0.28 F1500.0 E15 ;Draw the first line
G1 X-2.4 Y145.0 Z0.28 F5000.0 ;Move to side a little
G1 X-2.4 Y20 Z0.28 F1500.0 E30 ;Draw the second line
G92 E0  ;Reset Extruder
G1 E-1.0000 F1800 ;Retract a bit
G1 Z2.0 F3000 ;Move Z Axis up
G1 E0.0000 F1800 

G92 E0
G92 E0
G1 F1800 E-1.2
;LAYER_COUNT:14

;LAYER:0
M106 S0
M204 S500
;;retract;;
G1 F1800 E0
G1 F1800 E-1.2
G0 F4800 X2.203 Y2.32 Z20.401
G0 X66.591 Y70.106 Z0.6
;TYPE:SKIRT
G1 F600 Z0.2
G1 F1800 E0
G1 F1500 X66.333 Y70.381 E0.01449
G1 X66.112 Y70.686 E0.02895
G1 X65.884 Y71.099 E0.04708
G1 X65.739 Y71.547 E0.06517
G1 X65.668 Y71.917 E0.07964
G1 X65.645 Y72.293 E0.09411
G1 X65.668 Y72.669 E0.10858
G1 X65.739 Y73.039 E0.12306
G1 X65.883 Y73.484 E0.14102
G1 X66.158 Y73.984 E0.16294
G1 X66.458 Y74.347 E0.18103
G1 X66.674 Y74.553 E0.1925
G1 X66.531 Y74.735 E0.20139
G1 X66.309 Y74.578 E0.21184
G1 X65.896 Y74.35 E0.22996
G1 X65.448 Y74.205 E0.24805
G1 X65.078 Y74.134 E0.26252
G1 X64.702 Y74.111 E0.27699
G1 X64.326 Y74.134 E0.29147
G1 X63.956 Y74.205 E0.30594
G1 X63.508 Y74.35 E0.32403
G1 X63.094 Y74.578 E0.34218
G1 X62.789 Y74.799 E0.35665
G1 X62.515 Y75.057 E0.37111
G1 X62.215 Y75.419 E0.38917
G1 X61.987 Y75.833 E0.40733
G1 X61.814 Y76.269 E0.42535
G1 X61.725 Y76.735 E0.44357
G1 X61.702 Y77.111 E0.45804
G1 X61.725 Y77.487 E0.47252
G1 X61.815 Y77.954 E0.49079
G1 X61.987 Y78.388 E0.50872
G1 X62.169 Y78.718 E0.5232
G1 X62.39 Y79.023 E0.53767
G1 X62.707 Y79.361 E0.55547
G1 X63.01 Y79.587 E0.56999
G1 X62.804 Y79.906 E0.58458
G1 X62.455 Y79.718 E0.5998
G1 X61.922 Y79.544 E0.62134
G1 X61.453 Y79.485 E0.6395
G1 X61.076 Y79.485 E0.65398
G1 X60.608 Y79.544 E0.67211
G1 X60.071 Y79.719 E0.6938
G1 X59.574 Y79.991 E0.71557
G1 X59.211 Y80.292 E0.73368
G1 X58.953 Y80.567 E0.74817
G1 X58.732 Y80.872 E0.76264
G1 X58.504 Y81.285 E0.78076
G1 X58.359 Y81.733 E0.79885
G1 X58.288 Y82.103 E0.81332
G1 X58.265 Y82.479 E0.82779
G1 X58.288 Y82.855 E0.84226
G1 X58.359 Y83.225 E0.85674
G1 X58.504 Y83.673 E0.87483
G1 X58.778 Y84.171 E0.89666
G1 X59.138 Y84.606 E0.91835
G1 X59.501 Y84.906 E0.93644
G1 X59.865 Y85.131 E0.95288
G1 X59.666 Y85.537 E0.97025
G1 X59.349 Y85.413 E0.98333
G1 X58.984 Y85.319 E0.99781
G1 X58.611 Y85.272 E1.01225
G1 X58.234 Y85.272 E1.02673
G1 X57.86 Y85.319 E1.04121
G1 X57.495 Y85.413 E1.05569
G1 X57.145 Y85.551 E1.07015
G1 X56.815 Y85.733 E1.08462
G1 X56.51 Y85.954 E1.09909
G1 X56.235 Y86.212 E1.11358
G1 X55.995 Y86.503 E1.12807
G1 X55.793 Y86.821 E1.14254
G1 X55.592 Y87.249 E1.1607
G1 X55.475 Y87.704 E1.17875
G1 X55.428 Y88.078 E1.19323
G1 X55.428 Y88.454 E1.20768
G1 X55.475 Y88.828 E1.22216
G1 X55.592 Y89.283 E1.24021
G1 X55.793 Y89.711 E1.25837
G1 X55.995 Y90.029 E1.27284
G1 X56.235 Y90.32 E1.28733
G1 X56.51 Y90.578 E1.30182
G1 X56.894 Y90.856 E1.32003
G1 X57.321 Y91.056 E1.33814
G1 X57.176 Y91.469 E1.35496
G1 X56.824 Y91.379 E1.36892
G1 X56.451 Y91.332 E1.38336
G1 X56.074 Y91.332 E1.39784
G1 X55.7 Y91.379 E1.41232
G1 X55.245 Y91.496 E1.43037
G1 X54.817 Y91.697 E1.44853
G1 X54.499 Y91.899 E1.46301
G1 X54.136 Y92.2 E1.48112
G1 X53.835 Y92.563 E1.49924
G1 X53.633 Y92.881 E1.51371
G1 X53.432 Y93.309 E1.53187
G1 X53.315 Y93.764 E1.54992
G1 X53.268 Y94.138 E1.5644
G1 X53.268 Y94.515 E1.57888
G1 X53.315 Y94.888 E1.59333
G1 X53.433 Y95.345 E1.61146
G1 X53.633 Y95.772 E1.62957
G1 X53.835 Y96.09 E1.64404
G1 X54.075 Y96.38 E1.6585
G1 X54.35 Y96.638 E1.67299
G1 X54.655 Y96.859 E1.68746
G1 X55.068 Y97.087 E1.70558
G1 X55.505 Y97.229 E1.72323
G1 X55.451 Y97.453 E1.73209
G1 X55.053 Y97.401 E1.7475
G1 X54.677 Y97.401 E1.76195
G1 X54.208 Y97.46 E1.78011
G1 X53.761 Y97.606 E1.79817
G1 X53.42 Y97.766 E1.81264
G1 X53.102 Y97.968 E1.82711
G1 X52.738 Y98.268 E1.84523
G1 X52.438 Y98.632 E1.86335
G1 X52.236 Y98.95 E1.87783
G1 X52.076 Y99.291 E1.8923
G1 X51.93 Y99.738 E1.91036
G1 X51.871 Y100.207 E1.92852
G1 X51.871 Y100.583 E1.94296
G1 X51.93 Y101.052 E1.96112
G1 X52.076 Y101.499 E1.97919
G1 X52.236 Y101.84 E1.99366
G1 X52.438 Y102.158 E2.00813
G1 X52.678 Y102.449 E2.02262
G1 X52.953 Y102.707 E2.03711
G1 X53.258 Y102.928 E2.05158
G1 X53.588 Y103.11 E2.06605
G1 X54.027 Y103.283 E2.08418
G1 X54.427 Y103.361 E2.09984
G1 X54.35 Y104.087 E2.12788
G1 X53.724 Y104.125 E2.15197
G1 X53.257 Y104.215 E2.17024
G1 X52.737 Y104.421 E2.19173
G1 X52.259 Y104.723 E2.21345
G1 X51.913 Y105.048 E2.23169
G1 X51.673 Y105.338 E2.24615
G1 X51.471 Y105.656 E2.26062
G1 X51.311 Y105.997 E2.27509
G1 X51.165 Y106.444 E2.29315
G1 X51.106 Y106.913 E2.31131
G1 X51.106 Y107.29 E2.3258
G1 X51.165 Y107.759 E2.34395
G1 X51.311 Y108.206 E2.36202
G1 X51.471 Y108.547 E2.37649
G1 X51.673 Y108.865 E2.39096
G1 X51.913 Y109.155 E2.40542
G1 X52.188 Y109.413 E2.41991
G1 X52.493 Y109.635 E2.4344
G1 X52.823 Y109.816 E2.44886
G1 X53.257 Y109.988 E2.46679
G1 X53.724 Y110.078 E2.48506
G1 X54.009 Y110.098 E2.49604
G1 X54.037 Y110.958 E2.52909
G1 X53.784 Y110.978 E2.53884
G1 X53.324 Y111.065 E2.55683
G1 X52.883 Y111.239 E2.57504
G1 X52.553 Y111.421 E2.58952
G1 X52.248 Y111.642 E2.60399
G1 X51.973 Y111.9 E2.61847
G1 X51.733 Y112.19 E2.63293
G1 X51.531 Y112.509 E2.64744
G1 X51.371 Y112.849 E2.66187
G1 X51.225 Y113.297 E2.67997
G1 X51.166 Y113.765 E2.69809
G1 X51.166 Y114.142 E2.71258
G1 X51.225 Y114.611 E2.73073
G1 X51.371 Y115.058 E2.7488
G1 X51.531 Y115.399 E2.76327
G1 X51.733 Y115.717 E2.77774
G1 X52.034 Y116.08 E2.79586
G1 X52.397 Y116.381 E2.81397
G1 X52.715 Y116.583 E2.82844
G1 X53.056 Y116.743 E2.84291
G1 X53.503 Y116.889 E2.86098
G1 X54.063 Y116.959 E2.88266
G1 X54.459 Y116.937 E2.89789
G1 X54.476 Y117.066 E2.90289
G1 X54.194 Y117.123 E2.91395
G1 X53.835 Y117.239 E2.92844
G1 X53.494 Y117.399 E2.94291
G1 X53.176 Y117.601 E2.95738
G1 X52.886 Y117.841 E2.97184
G1 X52.628 Y118.116 E2.98633
G1 X52.407 Y118.421 E3.0008
G1 X52.179 Y118.834 E3.01892
G1 X52.034 Y119.282 E3.03701
G1 X51.963 Y119.652 E3.05148
G1 X51.94 Y120.028 E3.06595
G1 X51.963 Y120.404 E3.08042
G1 X52.034 Y120.774 E3.0949
G1 X52.179 Y121.222 E3.11299
G1 X52.407 Y121.636 E3.13114
G1 X52.681 Y122.014 E3.14908
G1 X53.027 Y122.34 E3.16734
G1 X53.332 Y122.561 E3.18181
G1 X53.662 Y122.743 E3.19629
G1 X54.098 Y122.916 E3.21431
G1 X54.564 Y123.005 E3.23253
G1 X54.94 Y123.028 E3.247
G1 X55.563 Y122.99 E3.27098
G1 X55.707 Y123.577 E3.2942
G1 X55.403 Y123.678 E3.3065
G1 X55.062 Y123.838 E3.32097
G1 X54.744 Y124.04 E3.33545
G1 X54.454 Y124.28 E3.34991
G1 X54.196 Y124.555 E3.36439
G1 X53.975 Y124.86 E3.37886
G1 X53.747 Y125.273 E3.39698
G1 X53.602 Y125.721 E3.41507
G1 X53.531 Y126.091 E3.42955
G1 X53.508 Y126.467 E3.44402
G1 X53.531 Y126.843 E3.45849
G1 X53.602 Y127.213 E3.47296
G1 X53.747 Y127.66 E3.49101
G1 X53.975 Y128.075 E3.5092
G1 X54.252 Y128.456 E3.5273
G1 X54.595 Y128.779 E3.5454
G1 X54.9 Y129 E3.55987
G1 X55.23 Y129.182 E3.57435
G1 X55.581 Y129.32 E3.58883
G1 X55.946 Y129.414 E3.60331
G1 X56.319 Y129.461 E3.61776
G1 X56.696 Y129.461 E3.63224
G1 X57.07 Y129.414 E3.64672
G1 X57.448 Y129.315 E3.66173
G1 X57.718 Y129.987 E3.68955
G1 X57.326 Y130.174 E3.70624
G1 X56.872 Y130.503 E3.72777
G1 X56.546 Y130.849 E3.74604
G1 X56.325 Y131.154 E3.76051
G1 X56.097 Y131.568 E3.77866
G1 X55.952 Y132.016 E3.79675
G1 X55.881 Y132.386 E3.81122
G1 X55.858 Y132.762 E3.82569
G1 X55.881 Y133.138 E3.84017
G1 X55.952 Y133.508 E3.85464
G1 X56.097 Y133.956 E3.87273
G1 X56.325 Y134.369 E3.89085
G1 X56.546 Y134.674 E3.90532
G1 X56.804 Y134.949 E3.91981
G1 X57.094 Y135.189 E3.93427
G1 X57.412 Y135.391 E3.94874
G1 X57.839 Y135.591 E3.96685
G1 X58.296 Y135.709 E3.98498
G1 X58.669 Y135.756 E3.99943
G1 X59.046 Y135.756 E4.01391
G1 X59.42 Y135.709 E4.02839
G1 X59.785 Y135.615 E4.04287
G1 X60.156 Y135.466 E4.05823
G1 X60.35 Y135.845 E4.07458
G1 X59.965 Y136.09 E4.09211
G1 X59.623 Y136.411 E4.11013
G1 X59.383 Y136.701 E4.12459
G1 X59.181 Y137.02 E4.1391
G1 X59.021 Y137.36 E4.15353
G1 X58.875 Y137.808 E4.17163
G1 X58.816 Y138.276 E4.18976
G1 X58.816 Y138.653 E4.20424
G1 X58.875 Y139.122 E4.2224
G1 X59.021 Y139.569 E4.24046
G1 X59.181 Y139.91 E4.25493
G1 X59.383 Y140.228 E4.2694
G1 X59.684 Y140.591 E4.28752
G1 X60.047 Y140.892 E4.30563
G1 X60.365 Y141.094 E4.32011
G1 X60.706 Y141.254 E4.33458
G1 X61.153 Y141.4 E4.35264
G1 X61.622 Y141.459 E4.3708
G1 X61.999 Y141.459 E4.38528
G1 X62.467 Y141.4 E4.4034
G1 X63.004 Y141.225 E4.4251
G1 X63.408 Y141.004 E4.44279
G1 X63.607 Y141.299 E4.45646
G1 X63.172 Y141.707 E4.47937
G1 X62.932 Y141.997 E4.49383
G1 X62.73 Y142.315 E4.5083
G1 X62.529 Y142.743 E4.52647
G1 X62.412 Y143.198 E4.54452
G1 X62.365 Y143.572 E4.559
G1 X62.365 Y143.949 E4.57348
G1 X62.412 Y144.323 E4.58796
G1 X62.529 Y144.778 E4.60601
G1 X62.73 Y145.206 E4.62417
G1 X62.932 Y145.524 E4.63864
G1 X63.172 Y145.814 E4.65311
G1 X63.518 Y146.139 E4.67134
G1 X63.996 Y146.441 E4.69306
G1 X64.516 Y146.647 E4.71455
G1 X65.076 Y146.755 E4.73646
G1 X65.641 Y146.755 E4.75816
G1 X66.201 Y146.648 E4.78006
G1 X66.637 Y146.475 E4.79808
G1 X66.967 Y146.293 E4.81256
G1 X67.223 Y146.11 E4.82465
G1 X67.474 Y146.401 E4.83941
G1 X67.021 Y146.947 E4.86667
G1 X66.79 Y147.365 E4.88501
G1 X66.617 Y147.801 E4.90303
G1 X66.528 Y148.267 E4.92126
G1 X66.504 Y148.643 E4.93573
G1 X66.528 Y149.019 E4.9502
G1 X66.618 Y149.486 E4.96847
G1 X66.824 Y150.006 E4.98996
G1 X67.126 Y150.484 E5.01168
G1 X67.451 Y150.83 E5.02992
G1 X67.741 Y151.07 E5.04438
G1 X68.059 Y151.272 E5.05885
G1 X68.4 Y151.432 E5.07332
G1 X68.847 Y151.578 E5.09138
G1 X69.316 Y151.637 E5.10954
G1 X69.693 Y151.637 E5.12403
G1 X70.162 Y151.578 E5.14218
G1 X70.609 Y151.432 E5.16025
G1 X70.95 Y151.272 E5.17472
G1 X71.344 Y151.022 E5.19264
G1 X71.634 Y150.753 E5.20784
G1 X71.743 Y150.858 E5.21365
G1 X71.503 Y151.153 E5.22826
G1 X71.277 Y151.563 E5.24625
G1 X71.139 Y151.914 E5.26074
G1 X71.045 Y152.279 E5.27522
G1 X70.998 Y152.652 E5.28966
G1 X70.998 Y153.029 E5.30414
G1 X71.045 Y153.403 E5.31862
G1 X71.139 Y153.768 E5.3331
G1 X71.277 Y154.118 E5.34755
G1 X71.459 Y154.448 E5.36203
G1 X71.68 Y154.753 E5.3765
G1 X71.938 Y155.028 E5.39099
G1 X72.229 Y155.268 E5.40548
G1 X72.547 Y155.47 E5.41995
G1 X72.888 Y155.63 E5.43442
G1 X73.335 Y155.776 E5.45248
G1 X73.804 Y155.835 E5.47064
G1 X74.18 Y155.835 E5.48509
G1 X74.649 Y155.776 E5.50324
G1 X75.096 Y155.63 E5.52131
G1 X75.437 Y155.47 E5.53578
G1 X75.755 Y155.268 E5.55025
G1 X76.046 Y155.028 E5.56474
G1 X76.334 Y154.713 E5.58114
G1 X76.551 Y154.872 E5.59147
G1 X76.312 Y155.249 E5.60862
G1 X76.14 Y155.685 E5.62663
G1 X76.046 Y156.05 E5.6411
G1 X75.999 Y156.424 E5.65558
G1 X75.999 Y156.8 E5.67003
G1 X76.046 Y157.174 E5.68451
G1 X76.14 Y157.539 E5.69899
G1 X76.278 Y157.889 E5.71344
G1 X76.46 Y158.219 E5.72792
G1 X76.737 Y158.601 E5.74605
G1 X77.081 Y158.924 E5.76417
G1 X77.461 Y159.2 E5.78221
G1 X77.889 Y159.401 E5.80038
G1 X78.336 Y159.547 E5.81844
G1 X78.805 Y159.606 E5.8366
G1 X79.181 Y159.606 E5.85105
G1 X79.65 Y159.547 E5.86921
G1 X80.097 Y159.401 E5.88727
G1 X80.522 Y159.202 E5.9053
G1 X80.905 Y158.924 E5.92348
G1 X81.18 Y158.666 E5.93796
G1 X81.558 Y158.208 E5.96078
G1 X81.643 Y158.258 E5.96456
G1 X81.483 Y158.599 E5.97903
G1 X81.337 Y159.048 E5.99717
G1 X81.278 Y159.515 E6.01526
G1 X81.278 Y159.892 E6.02974
G1 X81.337 Y160.361 E6.0479
G1 X81.483 Y160.808 E6.06596
G1 X81.682 Y161.233 E6.08399
G1 X81.96 Y161.616 E6.10217
G1 X82.218 Y161.89 E6.11663
G1 X82.582 Y162.192 E6.1348
G1 X82.995 Y162.418 E6.15288
G1 X83.429 Y162.59 E6.17082
G1 X83.896 Y162.68 E6.18909
G1 X84.272 Y162.704 E6.20356
G1 X84.648 Y162.68 E6.21803
G1 X85.115 Y162.59 E6.2363
G1 X85.549 Y162.418 E6.25424
G1 X85.962 Y162.192 E6.27232
G1 X86.326 Y161.89 E6.29049
G1 X86.584 Y161.616 E6.30495
G1 X86.805 Y161.311 E6.31942
G1 X86.973 Y161.007 E6.33276
G1 X87.054 Y161.043 E6.33617
G1 X86.964 Y161.28 E6.34591
G1 X86.87 Y161.645 E6.36039
G1 X86.823 Y162.018 E6.37483
G1 X86.823 Y162.395 E6.38931
G1 X86.882 Y162.864 E6.40747
G1 X87.028 Y163.311 E6.42553
G1 X87.188 Y163.652 E6.44
G1 X87.39 Y163.97 E6.45448
G1 X87.691 Y164.333 E6.47259
G1 X88.054 Y164.634 E6.49071
G1 X88.372 Y164.836 E6.50518
G1 X88.713 Y164.996 E6.51965
G1 X89.16 Y165.142 E6.53771
G1 X89.629 Y165.201 E6.55587
G1 X90.006 Y165.201 E6.57035
G1 X90.474 Y165.142 E6.58848
G1 X90.922 Y164.996 E6.60658
G1 X91.262 Y164.836 E6.62101
G1 X91.581 Y164.634 E6.63552
G1 X91.871 Y164.394 E6.64998
G1 X92.129 Y164.119 E6.66446
