;FLAVOR:Marlin
;TIME:3576.65
;Filament used:4.35206m
;Material Diameter:1.75
;Material Density:1.24
;Filament Cost:0.259605
;Filament Weight:12.980235
;Filament Length:4.352060
;Layer height:0.2
;MINX:2.305
;MINY:2.219
;MINZ:0.2
;MAXX:154.961
;MAXY:154.86
;MAXZ:20.401
;OuterWall Time:517.36
;InnerWall Time:323.321
;Skin Time:2265.81
;Support Time:0
;SkirtBrim Time:18.279
;Infill Time:43.2091
;Support Infills Time:0
;Combing Time:110.425
;Retraction Time:298.246
;PrimeTower Time:0
;;;;;;;;;;;;;;;;;;;;;;;;;;;;;;;;;;;;;;;;;;;;;;;;;;;;;;;;;;;;;;;;;;;;;;;;;
;Creality Print GCode Generated by CXEngine
;CRSLICE_GIT_HASH:58ee74d
;Creality Print Version : V4.3.8.6984
;CXEngine Release Time:2023-12-04 18:16:29
;Gcode Generated Time:2024-11-13 00:44:26
;----------Machine Config--------------
;Machine Name:Ender-3 V3 SE
;Machine Height:250
;Machine Width:220
;Machine Depth:220
;Material Type:PLA
;Material Name:Hyper PLA_1.75
;Number of Extruders:1
;ExtruderParams[0] Nozzle Diameter:1000
;----------Profile Config---------------
;Wall Thickness:0.8
;Top/Bottom Thickness:0.8
;Out Wall Line Width:0.42
;Inner Wall Line Width:0.45
;Inital Height:200
;Wall Line Count:2
;Infill Line Distance:8
;Infill Pattern:grid
;Infill Sparse Density:10
;Infill Wipe Distance:0
;Print Temperature:190
;Bed Temperature:60
;Support Enable:false
;Support Density:15
;Support Angle:60
;Adhesion Type:lace
;machine is belt:false
;machine belt offset:10
;machine belt offset Y:0
;Raft Base Line Spacing:1.6
;Wait Heatup Sync:true
;Enable Ironing:false
;Material Type:PLA
;Max volumetric speed:23
;Preview Img Type:png
;Screen Size:Sermoon D3
;----------Shell Config----------------
;Outer Wall Wipe Distance:2000
;Outer Inset First:false
;Infill Before Walls:false
;Infill Overlap:0.09
;Fill Gaps Between Walls:everywhere
;Minimum Infill Area:30
;Top Surface Skin Layer:0
;Top Layers:5
;Z Seam Alignment:sharpest_corner
;Seam Corner Preference:z_seam_corner_inner
;Z Seam X:110
;Z Seam Y:220
;Horizontal Expansion:0
;Top/Bottom Pattern:zigzag
;Ironing Pattern:zigzag
;Vase Model:false
;----------Support Config----------------
;Support Type:everywhere
;Support Pattern:zigzag
;Support Infill Layer Thickness:0.2
;Minimum Support Area:1
;Enable Support Roof:true
;Support Roof Thickness:0.8
;Support Roof Pattern:lines
;Connect Support Lines:0
;Connect Support ZigZags:1
;Minimum Support X/Y Distance:0.2
;Support Line Distance:2.67
; ---------PrintSpeed & Travel----------
;Enable Print Cool:true
;Avoid Printed Parts Traveling:true
;Enable Retraction:true
;Retraction Distance:1.2
;Retraction Speed:30
;Retraction Prime Speed:30
;Maximum Retraction Count:100
;Minimum Extrusion Distance Window:0.8
;Z Hop When Retracted:true
;Z Hop Height:0.4
;Retract Before Outer Wall:true

;Outer Wall Speed:60
;Inner Wall Speed:90
;Infill Speed:180
;Top/Bottom Speed:50
;Travel Speed:150
;Initial Layer Speed:20
;Skirt/Brim Speed:25
;Prime Tower Speed:60
;Outer Wall Acceleration:1000
;Inner Wall Acceleration:2000
;Infill Acceleration:2500
;Top/Bottom Acceleration:2500
;Travel Acceleration:2500
;Initial Layer Print Acceleration:500
;Initial Layer Travel Acceleration:500
;Skirt/Brim Acceleration:500
;Combing Mode:off
; --------SpecialModel&Mesh Fixes--------
;Union Overlapping Volum:true
;Remove All Holes:false
;Maximum Travel Resolution:0.25
;Maximum Deviation:0.05
;Maximum Model Angle:0.872665
;IS Mold Print:false
;Make Overhang Printable:false
;Enable Coasting:false
;Coasting Volumes:0.064
;Coasting Speed:0.9
;Raft AirGap:0.25
;Layer0 ZOverLap:0.13
;Adaptive Layers:0
;---------------------End of Head--------------------------
M140 S60
M105
M190 S60
M104 S190
M82 ;absolute extrusion mode
M220 S100 ;Reset Feedrate
M221 S100 ;Reset Flowrate

G28 ;Home

G92 E0 ;Reset Extruder
G1 Z2.0 F3000 ;Move Z Axis up
G1 X-2.1 Y20 Z0.28 F5000.0 ;Move to start position
M109 S190.000000
G1 X-2.1 Y145.0 Z0.28 F1500.0 E15 ;Draw the first line
G1 X-2.4 Y145.0 Z0.28 F5000.0 ;Move to side a little
G1 X-2.4 Y20 Z0.28 F1500.0 E30 ;Draw the second line
G92 E0  ;Reset Extruder
G1 E-1.0000 F1800 ;Retract a bit
G1 Z2.0 F3000 ;Move Z Axis up
G1 E0.0000 F1800 

G92 E0
G92 E0
G1 F1800 E-1.2
;LAYER_COUNT:14

;LAYER:0
M106 S0
M204 S500
;;retract;;
G1 F1800 E0
G1 F1800 E-1.2
G0 F4800 X2.305 Y2.219 Z20.401
G0 X79.717 Y76.755 Z0.6
;TYPE:SKIRT
G1 F600 Z0.2
G1 F1800 E0
G1 F1500 X79.417 Y77.117 E0.01806
G1 X79.189 Y77.532 E0.03625
G1 X79.017 Y77.966 E0.05419
G1 X78.927 Y78.433 E0.07246
G1 X78.903 Y78.809 E0.08693
G1 X78.927 Y79.185 E0.1014
G1 X79.017 Y79.652 E0.11967
G1 X79.223 Y80.172 E0.14116
G1 X79.476 Y80.572 E0.15934
G1 X79.748 Y80.894 E0.17553
G1 X79.67 Y80.973 E0.1798
G1 X79.361 Y80.721 E0.19512
G1 X78.951 Y80.495 E0.2131
G1 X78.601 Y80.357 E0.22755
G1 X78.236 Y80.263 E0.24203
G1 X77.862 Y80.216 E0.25651
G1 X77.485 Y80.216 E0.271
G1 X77.111 Y80.263 E0.28548
G1 X76.746 Y80.357 E0.29995
G1 X76.396 Y80.495 E0.31441
G1 X76.066 Y80.677 E0.32888
G1 X75.761 Y80.898 E0.34335
G1 X75.487 Y81.156 E0.35781
G1 X75.187 Y81.518 E0.37587
G1 X74.959 Y81.933 E0.39406
G1 X74.787 Y82.367 E0.412
G1 X74.697 Y82.834 E0.43027
G1 X74.673 Y83.21 E0.44474
G1 X74.697 Y83.586 E0.45921
G1 X74.787 Y84.053 E0.47748
G1 X74.993 Y84.573 E0.49897
G1 X75.246 Y84.973 E0.51715
G1 X75.545 Y85.334 E0.53516
G1 X75.826 Y85.57 E0.54926
G1 X75.197 Y85.275 E0.57595
G1 X74.742 Y85.158 E0.59399
G1 X74.368 Y85.111 E0.60847
G1 X73.991 Y85.111 E0.62296
G1 X73.617 Y85.158 E0.63744
G1 X73.16 Y85.276 E0.65557
G1 X72.734 Y85.476 E0.67365
G1 X72.416 Y85.678 E0.68812
G1 X72.126 Y85.918 E0.70258
G1 X71.868 Y86.193 E0.71707
G1 X71.647 Y86.498 E0.73153
G1 X71.465 Y86.828 E0.74601
G1 X71.293 Y87.262 E0.76395
G1 X71.203 Y87.729 E0.78222
G1 X71.18 Y88.105 E0.79669
G1 X71.203 Y88.481 E0.81116
G1 X71.292 Y88.947 E0.82938
G1 X71.465 Y89.383 E0.8474
G1 X71.647 Y89.713 E0.86188
G1 X71.921 Y90.091 E0.87981
G1 X72.333 Y90.479 E0.90156
G1 X72.709 Y90.719 E0.91869
G1 X72.272 Y90.547 E0.93673
G1 X71.807 Y90.458 E0.95492
G1 X71.431 Y90.434 E0.96939
G1 X71.055 Y90.458 E0.98387
G1 X70.685 Y90.529 E0.99834
G1 X70.327 Y90.645 E1.0128
G1 X69.986 Y90.805 E1.02727
G1 X69.668 Y91.007 E1.04174
G1 X69.377 Y91.247 E1.05623
G1 X69.119 Y91.522 E1.07072
G1 X68.841 Y91.905 E1.0889
G1 X68.642 Y92.33 E1.10692
G1 X68.496 Y92.777 E1.12499
G1 X68.437 Y93.246 E1.14315
G1 X68.437 Y93.623 E1.15763
G1 X68.496 Y94.09 E1.17571
G1 X68.642 Y94.539 E1.19385
G1 X68.841 Y94.964 E1.21188
G1 X69.119 Y95.347 E1.23006
G1 X69.443 Y95.691 E1.24821
G1 X69.824 Y95.967 E1.26628
G1 X70.266 Y96.211 E1.28568
G1 X69.923 Y96.127 E1.29925
G1 X69.463 Y96.099 E1.31695
G1 X69.087 Y96.122 E1.33142
G1 X68.621 Y96.211 E1.34965
G1 X68.185 Y96.384 E1.36767
G1 X67.771 Y96.612 E1.38582
G1 X67.409 Y96.912 E1.40388
G1 X67.151 Y97.186 E1.41834
G1 X66.93 Y97.491 E1.43281
G1 X66.702 Y97.905 E1.45097
G1 X66.557 Y98.353 E1.46905
G1 X66.486 Y98.723 E1.48353
G1 X66.463 Y99.099 E1.498
G1 X66.486 Y99.475 E1.51247
G1 X66.557 Y99.845 E1.52694
G1 X66.702 Y100.293 E1.54503
G1 X66.93 Y100.706 E1.56316
G1 X67.151 Y101.011 E1.57762
G1 X67.409 Y101.286 E1.59211
G1 X67.699 Y101.526 E1.60657
G1 X68.018 Y101.728 E1.62108
G1 X68.438 Y101.926 E1.63891
G1 X68.789 Y102.02 E1.65287
G1 X68.671 Y102.675 E1.67844
G1 X68.062 Y102.675 E1.70183
G1 X67.593 Y102.734 E1.71999
G1 X67.146 Y102.88 E1.73806
G1 X66.805 Y103.04 E1.75253
G1 X66.487 Y103.242 E1.767
G1 X66.197 Y103.482 E1.78146
G1 X65.939 Y103.757 E1.79595
G1 X65.718 Y104.062 E1.81042
G1 X65.536 Y104.392 E1.82489
G1 X65.364 Y104.826 E1.84283
G1 X65.256 Y105.386 E1.86474
G1 X65.256 Y105.952 E1.88648
G1 X65.364 Y106.512 E1.90839
G1 X65.536 Y106.946 E1.92632
G1 X65.718 Y107.277 E1.94083
G1 X65.995 Y107.658 E1.95893
G1 X66.338 Y107.981 E1.97703
G1 X66.643 Y108.202 E1.9915
G1 X67.051 Y108.427 E2.0094
G1 X67.592 Y108.604 E2.03126
G1 X68.048 Y108.662 E2.04892
G1 X68.04 Y108.878 E2.05722
G1 X67.69 Y108.901 E2.0707
G1 X67.32 Y108.972 E2.08517
G1 X66.962 Y109.088 E2.09963
G1 X66.621 Y109.248 E2.1141
G1 X66.303 Y109.45 E2.12857
G1 X65.94 Y109.751 E2.14669
G1 X65.639 Y110.114 E2.1648
G1 X65.437 Y110.432 E2.17927
G1 X65.236 Y110.86 E2.19744
G1 X65.119 Y111.315 E2.21549
G1 X65.072 Y111.689 E2.22997
G1 X65.072 Y112.066 E2.24445
G1 X65.119 Y112.44 E2.25893
G1 X65.237 Y112.897 E2.27706
G1 X65.437 Y113.323 E2.29514
G1 X65.639 Y113.641 E2.30961
G1 X65.879 Y113.931 E2.32407
G1 X66.154 Y114.189 E2.33856
G1 X66.459 Y114.41 E2.35303
G1 X66.789 Y114.592 E2.36751
G1 X67.223 Y114.764 E2.38544
G1 X67.69 Y114.854 E2.40371
G1 X68.157 Y114.883 E2.42168
G1 X67.662 Y115.043 E2.44167
G1 X67.321 Y115.203 E2.45614
G1 X67.003 Y115.405 E2.47061
G1 X66.64 Y115.706 E2.48873
G1 X66.339 Y116.069 E2.50684
G1 X66.137 Y116.387 E2.52131
G1 X65.936 Y116.815 E2.53948
G1 X65.819 Y117.27 E2.55753
G1 X65.772 Y117.644 E2.57201
G1 X65.772 Y118.021 E2.58649
G1 X65.819 Y118.395 E2.60097
G1 X65.937 Y118.852 E2.6191
G1 X66.137 Y119.278 E2.63718
G1 X66.339 Y119.596 E2.65165
G1 X66.579 Y119.886 E2.66611
G1 X66.854 Y120.144 E2.6806
G1 X67.159 Y120.365 E2.69507
G1 X67.489 Y120.547 E2.70955
G1 X67.923 Y120.719 E2.72748
G1 X68.39 Y120.809 E2.74575
G1 X68.766 Y120.832 E2.76022
G1 X69.142 Y120.809 E2.77469
G1 X69.428 Y120.757 E2.78586
G1 X69.032 Y120.912 E2.8022
G1 X68.702 Y121.094 E2.81667
G1 X68.397 Y121.315 E2.83114
G1 X68.122 Y121.573 E2.84563
G1 X67.882 Y121.863 E2.86009
G1 X67.68 Y122.181 E2.87456
G1 X67.48 Y122.607 E2.89264
G1 X67.362 Y123.064 E2.91077
G1 X67.315 Y123.438 E2.92525
G1 X67.315 Y123.815 E2.93973
G1 X67.362 Y124.189 E2.95421
G1 X67.479 Y124.644 E2.97226
G1 X67.68 Y125.072 E2.99043
G1 X67.882 Y125.39 E3.0049
G1 X68.183 Y125.753 E3.02301
G1 X68.546 Y126.054 E3.04113
G1 X68.864 Y126.256 E3.0556
G1 X69.205 Y126.416 E3.07007
G1 X69.563 Y126.532 E3.08453
G1 X70.027 Y126.621 E3.10268
G1 X70.591 Y126.621 E3.12434
G1 X71.055 Y126.532 E3.14249
G1 X71.375 Y126.43 E3.1554
G1 X70.96 Y126.659 E3.1736
G1 X70.594 Y126.961 E3.19183
G1 X70.336 Y127.236 E3.20632
G1 X70.115 Y127.541 E3.22079
G1 X69.933 Y127.871 E3.23527
G1 X69.795 Y128.221 E3.24972
G1 X69.701 Y128.586 E3.2642
G1 X69.654 Y128.96 E3.27868
G1 X69.654 Y129.337 E3.29316
G1 X69.701 Y129.71 E3.3076
G1 X69.795 Y130.075 E3.32208
G1 X69.933 Y130.426 E3.33657
G1 X70.115 Y130.756 E3.35105
G1 X70.336 Y131.061 E3.36552
G1 X70.659 Y131.404 E3.38362
G1 X71.04 Y131.681 E3.40171
G1 X71.455 Y131.909 E3.4199
G1 X71.902 Y132.054 E3.43795
G1 X72.272 Y132.125 E3.45243
G1 X72.648 Y132.148 E3.4669
G1 X73.024 Y132.125 E3.48137
G1 X73.394 Y132.054 E3.49584
G1 X73.752 Y131.938 E3.5103
G1 X74.11 Y131.767 E3.52554
G1 X74.347 Y132.159 E3.54314
G1 X74.106 Y132.336 E3.55462
G1 X73.831 Y132.594 E3.56911
G1 X73.591 Y132.884 E3.58357
G1 X73.389 Y133.202 E3.59804
G1 X73.189 Y133.629 E3.61616
G1 X73.071 Y134.086 E3.63429
G1 X73.024 Y134.459 E3.64873
G1 X73.024 Y134.836 E3.66321
G1 X73.071 Y135.21 E3.67769
G1 X73.188 Y135.665 E3.69574
G1 X73.389 Y136.093 E3.71391
G1 X73.591 Y136.411 E3.72838
G1 X73.892 Y136.774 E3.74649
G1 X74.255 Y137.075 E3.76461
G1 X74.573 Y137.277 E3.77908
G1 X75.001 Y137.478 E3.79725
G1 X75.456 Y137.595 E3.81529
G1 X75.83 Y137.642 E3.82977
G1 X76.207 Y137.642 E3.84426
G1 X76.58 Y137.595 E3.8587
G1 X77.037 Y137.477 E3.87683
G1 X77.545 Y137.239 E3.89838
G1 X77.865 Y137.01 E3.9135
G1 X77.948 Y137.111 E3.91852
G1 X77.555 Y137.586 E3.9422
G1 X77.353 Y137.904 E3.95668
G1 X77.193 Y138.245 E3.97115
G1 X77.047 Y138.693 E3.98925
G1 X76.988 Y139.161 E4.00737
G1 X76.988 Y139.538 E4.02185
G1 X77.047 Y140.007 E4.04001
G1 X77.193 Y140.454 E4.05807
G1 X77.353 Y140.795 E4.07254
G1 X77.555 Y141.113 E4.08702
G1 X77.858 Y141.48 E4.1053
G1 X78.219 Y141.777 E4.12326
G1 X78.537 Y141.979 E4.13773
G1 X78.965 Y142.18 E4.15589
G1 X79.42 Y142.297 E4.17394
G1 X79.794 Y142.344 E4.18842
G1 X80.17 Y142.344 E4.20287
G1 X80.544 Y142.297 E4.21735
G1 X80.999 Y142.18 E4.23539
G1 X81.427 Y141.979 E4.25356
G1 X81.745 Y141.777 E4.26803
G1 X82.192 Y141.409 E4.29027
G1 X81.901 Y141.808 E4.30924
G1 X81.659 Y142.324 E4.33114
G1 X81.542 Y142.779 E4.34919
G1 X81.495 Y143.153 E4.36367
G1 X81.495 Y143.529 E4.37811
G1 X81.542 Y143.903 E4.39259
G1 X81.659 Y144.358 E4.41064
G1 X81.86 Y144.786 E4.4288
G1 X82.062 Y145.104 E4.44328
G1 X82.359 Y145.465 E4.46123
G1 X82.726 Y145.768 E4.47952
G1 X83.044 Y145.97 E4.49399
G1 X83.385 Y146.13 E4.50846
G1 X83.832 Y146.276 E4.52652
G1 X84.301 Y146.335 E4.54468
G1 X84.678 Y146.335 E4.55916
G1 X85.146 Y146.276 E4.57729
G1 X85.594 Y146.13 E4.59539
G1 X85.935 Y145.97 E4.60986
G1 X86.253 Y145.768 E4.62433
G1 X86.543 Y145.528 E4.63879
G1 X86.955 Y145.089 E4.66192
G1 X87.136 Y145.204 E4.67016
G1 X86.946 Y145.557 E4.68556
G1 X86.802 Y146 E4.70345
G1 X86.731 Y146.37 E4.71792
G1 X86.708 Y146.746 E4.73239
G1 X86.731 Y147.122 E4.74687
G1 X86.802 Y147.492 E4.76134
G1 X86.947 Y147.94 E4.77943
G1 X87.175 Y148.353 E4.79755
G1 X87.396 Y148.658 E4.81202
G1 X87.654 Y148.933 E4.82651
G1 X87.944 Y149.173 E4.84097
G1 X88.263 Y149.375 E4.85547
G1 X88.603 Y149.535 E4.86991
G1 X89.051 Y149.681 E4.88801
G1 X89.519 Y149.74 E4.90613
G1 X89.896 Y149.74 E4.92061
G1 X90.365 Y149.681 E4.93877
G1 X90.812 Y149.535 E4.95683
G1 X91.153 Y149.375 E4.9713
G1 X91.471 Y149.173 E4.98578
G1 X91.838 Y148.869 E5.00408
G1 X92.193 Y148.438 E5.02553
G1 X92.383 Y148.099 E5.04046
G1 X92.476 Y148.141 E5.04438
G1 X92.321 Y148.741 E5.06819
G1 X92.274 Y149.114 E5.08263
G1 X92.274 Y149.491 E5.09711
G1 X92.321 Y149.865 E5.11159
G1 X92.415 Y150.23 E5.12607
G1 X92.553 Y150.58 E5.14053
G1 X92.735 Y150.91 E5.155
G1 X92.956 Y151.215 E5.16947
G1 X93.214 Y151.49 E5.18396
G1 X93.505 Y151.73 E5.19845
G1 X93.823 Y151.932 E5.21292
G1 X94.251 Y152.133 E5.23109
G1 X94.706 Y152.25 E5.24913
G1 X95.08 Y152.297 E5.26361
G1 X95.456 Y152.297 E5.27806
G1 X95.83 Y152.25 E5.29254
G1 X96.285 Y152.133 E5.31059
G1 X96.713 Y151.932 E5.32875
G1 X97.031 Y151.73 E5.34322
G1 X97.392 Y151.433 E5.36118
G1 X97.695 Y151.066 E5.37946
G1 X97.945 Y150.672 E5.39739
G1 X98.112 Y150.254 E5.41468
G1 X98.163 Y150.269 E5.41672
G1 X98.093 Y150.635 E5.43104
G1 X98.07 Y151.011 E5.44551
G1 X98.093 Y151.387 E5.45998
G1 X98.182 Y151.853 E5.47821
G1 X98.355 Y152.289 E5.49622
G1 X98.537 Y152.619 E5.5107
G1 X98.811 Y152.997 E5.52864
G1 X99.157 Y153.323 E5.5469
G1 X99.462 Y153.544 E5.56137
G1 X99.876 Y153.772 E5.57952
G1 X100.324 Y153.917 E5.59761
G1 X100.694 Y153.988 E5.61209
G1 X101.07 Y154.011 E5.62656
G1 X101.446 Y153.988 E5.64103
G1 X101.816 Y153.917 E5.6555
G1 X102.264 Y153.772 E5.67359
G1 X102.677 Y153.544 E5.69171
G1 X102.982 Y153.323 E5.70618
G1 X103.257 Y153.065 E5.72067
G1 X103.497 Y152.775 E5.73513
G1 X103.699 Y152.457 E5.7496
G1 X103.859 Y152.116 E5.76407
G1 X104.021 Y151.615 E5.7843
G1 X104.021 Y152.149 E5.80481
G1 X104.129 Y152.709 E5.82672
G1 X104.335 Y153.229 E5.84821
G1 X104.588 Y153.629 E5.86639
G1 X104.889 Y153.993 E5.88454
G1 X105.252 Y154.293 E5.90263
G1 X105.57 Y154.495 E5.9171
G1 X105.911 Y154.655 E5.93157
G1 X106.358 Y154.801 E5.94963
G1 X106.827 Y154.86 E5.96779
G1 X107.204 Y154.86 E5.98227
G1 X107.673 Y154.801 E6.00043
G1 X108.12 Y154.655 E6.0185
G1 X108.461 Y154.495 E6.03297
G1 X108.779 Y154.293 E6.04744
G1 X109.142 Y153.993 E6.06553
G1 X109.443 Y153.629 E6.08368
G1 X109.696 Y153.229 E6.10186
G1 X109.902 Y152.709 E6.12334
G1 X109.992 Y152.242 E6.14161
G1 X110.013 Y151.973 E6.15198
G1 X110.037 Y152.24 E6.16228
G1 X110.124 Y152.7 E6.18026
G1 X110.298 Y153.141 E6.19847
G1 X110.48 Y153.472 E6.21299
G1 X110.758 Y153.854 E6.23113
G1 X111.101 Y154.176 E6.24921
G1 X111.405 Y154.397 E6.26365
G1 X111.736 Y154.579 E6.27816
G1 X112.086 Y154.717 E6.29261
G1 X112.451 Y154.811 E6.30709
G1 X112.825 Y154.858 E6.32157
G1 X113.201 Y154.858 E6.33601
G1 X113.575 Y154.811 E6.35049
G1 X113.94 Y154.717 E6.36497
G1 X114.29 Y154.579 E6.37943
G1 X114.62 Y154.397 E6.3939
G1 X115.002 Y154.12 E6.41203
G1 X115.325 Y153.776 E6.43016
G1 X115.601 Y153.396 E6.4482
G1 X115.802 Y152.968 E6.46636
G1 X115.948 Y152.521 E6.48443
G1 X116.019 Y151.959 E6.50619
G1 X115.994 Y151.543 E6.5222
G1 X116.098 Y151.935 E6.53778
G1 X116.236 Y152.285 E6.55223
G1 X116.418 Y152.615 E6.56671
G1 X116.639 Y152.92 E6.58118
G1 X116.897 Y153.194 E6.59564
