;FLAVOR:Marlin
;TIME:2455.93
;Filament used:1.60253m
;Material Diameter:1.75
;Material Density:1.24
;Filament Cost:0.095592
;Filament Weight:4.779616
;Filament Length:1.602527
;Layer height:0.1
;MINX:84.055
;MINY:86.545
;MINZ:0.24
;MAXX:135.937
;MAXY:133.451
;MAXZ:11.29
;OuterWall Time:554.832
;InnerWall Time:354.159
;Skin Time:442.101
;Support Time:88.25
;SkirtBrim Time:0
;Infill Time:123.782
;Support Infills Time:0
;Combing Time:141.537
;Retraction Time:295.908
;PrimeTower Time:455.365
;;;;;;;;;;;;;;;;;;;;;;;;;;;;;;;;;;;;;;;;;;;;;;;;;;;;;;;;;;;;;;;;;
;Creality Print GCode Generated by CXEngine
;CRSLICE_GIT_HASH:58ee74d
;Creality Print Version : V4.3.8.6984
;CXEngine Release Time:2023-12-04 18:16:29
;Gcode Generated Time:2024-03-05 23:53:37
;----------Machine Config--------------
;Machine Name:Ender-3 V3 SE
;Machine Height:250
;Machine Width:220
;Machine Depth:220
;Material Type:PLA
;Material Name:CR-PLA_1.75
;Number of Extruders:1
;ExtruderParams[0] Nozzle Diameter:1000
;----------Profile Config---------------
;Wall Thickness:0.8
;Top/Bottom Thickness:0.8
;Out Wall Line Width:0.42
;Inner Wall Line Width:0.45
;Inital Height:100
;Wall Line Count:2
;Infill Line Distance:8
;Infill Pattern:grid
;Infill Sparse Density:10
;Infill Wipe Distance:0
;Print Temperature:195
;Bed Temperature:60
;Support Enable:false
;Support Density:15
;Support Angle:60
;Adhesion Type:raft
;machine is belt:false
;machine belt offset:10
;machine belt offset Y:0
;Raft Base Line Spacing:1.6
;Wait Heatup Sync:true
;Enable Ironing:false
;Material Type:PLA
;Max volumetric speed:20
;Preview Img Type:png
;Screen Size:Sermoon D3
;----------Shell Config----------------
;Outer Wall Wipe Distance:2000
;Outer Inset First:false
;Infill Before Walls:false
;Infill Overlap:0.09
;Fill Gaps Between Walls:everywhere
;Minimum Infill Area:30
;Top Surface Skin Layer:0
;Top Layers:8
;Z Seam Alignment:sharpest_corner
;Seam Corner Preference:z_seam_corner_inner
;Z Seam X:110
;Z Seam Y:220
;Horizontal Expansion:0
;Top/Bottom Pattern:zigzag
;Ironing Pattern:zigzag
;Vase Model:false
;----------Support Config----------------
;Support Type:everywhere
;Support Pattern:zigzag
;Support Infill Layer Thickness:0.2
;Minimum Support Area:1
;Enable Support Roof:true
;Support Roof Thickness:0.8
;Support Roof Pattern:lines
;Connect Support Lines:0
;Connect Support ZigZags:1
;Minimum Support X/Y Distance:0.2
;Support Line Distance:2.67
; ---------PrintSpeed & Travel----------
;Enable Print Cool:true
;Avoid Printed Parts Traveling:true
;Enable Retraction:true
;Retraction Distance:1.2
;Retraction Speed:30
;Retraction Prime Speed:30
;Maximum Retraction Count:100
;Minimum Extrusion Distance Window:0.8
;Z Hop When Retracted:true
;Z Hop Height:0.4
;Retract Before Outer Wall:true

;Outer Wall Speed:60
;Inner Wall Speed:90
;Infill Speed:180
;Top/Bottom Speed:50
;Travel Speed:150
;Initial Layer Speed:20
;Skirt/Brim Speed:25
;Prime Tower Speed:60
;Outer Wall Acceleration:1000
;Inner Wall Acceleration:2000
;Infill Acceleration:2500
;Top/Bottom Acceleration:2500
;Travel Acceleration:2500
;Initial Layer Print Acceleration:500
;Initial Layer Travel Acceleration:500
;Skirt/Brim Acceleration:500
;Combing Mode:off
; --------SpecialModel&Mesh Fixes--------
;Union Overlapping Volum:true
;Remove All Holes:false
;Maximum Travel Resolution:0.25
;Maximum Deviation:0.05
;Maximum Model Angle:0.872665
;IS Mold Print:false
;Make Overhang Printable:false
;Enable Coasting:false
;Coasting Volumes:0.064
;Coasting Speed:0.9
;Raft AirGap:0.25
;Layer0 ZOverLap:0.13
;Adaptive Layers:0
;---------------------End of Head--------------------------
M140 S60
M105
M190 S60
M104 S195
M82 ;absolute extrusion mode
M220 S100 ;Reset Feedrate
M221 S100 ;Reset Flowrate

G28 ;Home

G92 E0 ;Reset Extruder
G1 Z2.0 F3000 ;Move Z Axis up
G1 X-2.1 Y20 Z0.28 F5000.0 ;Move to start position
M109 S195.000000
G1 X-2.1 Y145.0 Z0.28 F1500.0 E15 ;Draw the first line
G1 X-2.4 Y145.0 Z0.28 F5000.0 ;Move to side a little
G1 X-2.4 Y20 Z0.28 F1500.0 E30 ;Draw the second line
G92 E0  ;Reset Extruder
G1 E-1.0000 F1800 ;Retract a bit
G1 Z2.0 F3000 ;Move Z Axis up
G1 E0.0000 F1800 

G92 E0
G92 E0
G1 F1800 E-1.2
;LAYER_COUNT:100

;LAYER:-6
M106 S0
M204 S2500
G0 F9000 X87.881 Y96.615 Z0.24
M204 S3000
;TYPE:SUPPORT-INTERFACE
G1 F1800 E0
G1 F1200 X87.316 Y97.252 E0.06797
G1 X86.807 Y97.943 E0.13648
G1 X86.361 Y98.674 E0.20483
G1 X85.98 Y99.456 E0.27427
G1 X85.634 Y100.35 E0.35079
G1 X85.399 Y101.156 E0.41781
G1 X85.09 Y102.021 E0.49113
G1 X85.001 Y102.215 E0.50817
G1 X84.714 Y102.915 E0.56856
G1 X84.462 Y103.728 E0.6365
G1 X84.287 Y104.54 E0.70281
G1 X84.183 Y105.368 E0.76942
G1 X84.145 Y105.834 E0.80674
G1 X84.113 Y106.579 E0.86626
G1 X84.168 Y107.85 E0.96782
G1 X84.132 Y108.493 E1.01922
G1 X84.092 Y108.942 E1.05521
G1 X84.055 Y110.13 E1.15008
G1 X84.122 Y110.98 E1.21815
G1 X84.265 Y111.832 E1.28711
G1 X84.481 Y112.647 E1.35441
G1 X84.777 Y113.469 E1.42415
G1 X85.139 Y114.245 E1.4925
G1 X85.535 Y114.93 E1.55566
G1 X85.723 Y115.227 E1.58372
G1 X86.143 Y115.841 E1.6431
G1 X86.617 Y116.425 E1.70314
G1 X86.801 Y116.631 E1.72519
G1 X87.263 Y117.228 E1.78545
G1 X87.624 Y117.851 E1.84292
G1 X87.883 Y118.475 E1.89685
G1 X88.062 Y119.134 E1.95137
G1 X88.157 Y119.801 E2.00515
G1 X88.222 Y120.583 E2.06778
G1 X88.308 Y121.375 E2.13138
G1 X88.366 Y121.793 E2.16506
G1 X88.456 Y122.351 E2.21018
G1 X88.548 Y122.855 E2.25108
G1 X88.677 Y123.486 E2.30249
G1 X88.88 Y124.283 E2.36814
G1 X88.973 Y124.609 E2.3952
G1 X89.142 Y125.141 E2.43976
G1 X89.462 Y126.008 E2.51353
G1 X89.596 Y126.329 E2.54129
G1 X89.934 Y127.054 E2.60515
G1 X90.069 Y127.312 E2.62839
G1 X90.504 Y128.07 E2.69815
G1 X90.677 Y128.342 E2.72389
G1 X91.047 Y128.887 E2.77647
G1 X91.697 Y129.69 E2.85893
G1 X92.295 Y130.317 E2.9281
G1 X93.01 Y130.946 E3.00411
G1 X93.237 Y131.128 E3.02734
G1 X93.915 Y131.629 E3.09463
G1 X94.653 Y132.075 E3.16347
G1 X95.4 Y132.441 E3.22987
G1 X95.754 Y132.597 E3.26075
G1 X96.207 Y132.782 E3.29981
G1 X97.124 Y133.082 E3.37682
G1 X97.937 Y133.265 E3.44334
G1 X98.873 Y133.388 E3.5187
G1 X99.163 Y133.413 E3.54194
G1 X99.811 Y133.451 E3.59375
G1 X100.681 Y133.434 E3.66321
G1 X101.462 Y133.347 E3.72594
G1 X101.994 Y133.263 E3.76893
G1 X103.002 Y133.042 E3.85131
G1 X103.308 Y132.96 E3.8766
G1 X104.511 Y132.535 E3.97844
G1 X104.959 Y132.348 E4.01719
G1 X105.444 Y132.121 E4.05994
G1 X106.065 Y131.796 E4.11589
G1 X106.649 Y131.459 E4.16971
G1 X106.97 Y131.259 E4.1999
G1 X107.548 Y130.944 E4.25245
G1 X108.177 Y130.695 E4.30645
G1 X108.845 Y130.524 E4.36149
G1 X109.514 Y130.442 E4.41529
G1 X110.219 Y130.447 E4.47157
G1 X110.874 Y130.531 E4.52428
G1 X111.551 Y130.707 E4.58012
G1 X112.162 Y130.955 E4.63276
G1 X112.757 Y131.286 E4.68711
G1 X113.367 Y131.658 E4.74414
G1 X114.109 Y132.057 E4.81139
G1 X114.369 Y132.184 E4.83449
G1 X115.195 Y132.549 E4.90657
G1 X115.978 Y132.837 E4.97317
G1 X116.358 Y132.956 E5.00495
G1 X117.261 Y133.201 E5.07964
G1 X118.14 Y133.345 E5.15074
G1 X118.391 Y133.377 E5.17094
G1 X119.132 Y133.443 E5.23032
G1 X119.958 Y133.445 E5.29626
G1 X120.386 Y133.43 E5.33044
G1 X120.965 Y133.387 E5.37679
G1 X121.723 Y133.283 E5.43786
G1 X122.56 Y133.096 E5.50632
G1 X123.403 Y132.823 E5.57706
G1 X124.124 Y132.516 E5.63961
G1 X124.602 Y132.288 E5.68188
G1 X125.309 Y131.909 E5.74592
G1 X126.015 Y131.446 E5.81331
G1 X126.742 Y130.868 E5.88745
G1 X127.073 Y130.577 E5.92263
G1 X127.718 Y129.962 E5.99377
G1 X128.315 Y129.269 E6.06679
G1 X128.745 Y128.703 E6.12353
G1 X129.252 Y127.916 E6.19826
G1 X129.405 Y127.655 E6.22241
G1 X129.779 Y126.945 E6.28646
G1 X129.902 Y126.688 E6.30921
G1 X130.233 Y125.919 E6.37604
G1 X130.37 Y125.558 E6.40686
G1 X130.609 Y124.852 E6.46636
G1 X130.752 Y124.368 E6.50664
G1 X130.889 Y123.849 E6.54949
G1 X131.058 Y123.092 E6.6114
G1 X131.13 Y122.719 E6.64173
G1 X131.272 Y121.848 E6.71217
G1 X131.372 Y121.053 E6.77613
G1 X131.462 Y120.104 E6.85223
G1 X131.628 Y119.197 E6.92583
G1 X131.853 Y118.547 E6.98074
G1 X132.161 Y117.926 E7.03607
G1 X132.525 Y117.376 E7.08872
G1 X132.976 Y116.853 E7.14384
G1 X133.273 Y116.549 E7.17777
G1 X133.857 Y115.83 E7.25171
G1 X134.063 Y115.547 E7.27965
G1 X134.573 Y114.787 E7.35271
G1 X134.986 Y114.019 E7.42232
G1 X135.323 Y113.236 E7.49036
G1 X135.59 Y112.412 E7.55951
G1 X135.761 Y111.668 E7.62044
G1 X135.895 Y110.75 E7.6945
G1 X135.937 Y109.885 E7.76363
G1 X135.903 Y109.07 E7.82874
G1 X135.862 Y108.578 E7.86815
G1 X135.834 Y108.119 E7.90486
G1 X135.912 Y106.685 E8.0195
G1 X135.891 Y105.834 E8.08745
G1 X135.799 Y105.041 E8.15117
G1 X135.723 Y104.563 E8.18981
G1 X135.53 Y103.658 E8.26367
G1 X135.267 Y102.834 E8.33272
G1 X134.978 Y102.141 E8.39265
G1 X134.823 Y101.814 E8.42154
G1 X134.831 Y101.796 E8.42311
G1 X134.654 Y101.417 E8.4565
G1 X134.394 Y100.552 E8.5286
G1 X134.157 Y99.847 E8.58797
G1 X133.818 Y99.072 E8.6555
G1 X133.401 Y98.312 E8.72469
G1 X132.933 Y97.613 E8.79184
G1 X132.379 Y96.929 E8.86211
G1 X131.809 Y96.343 E8.92736
G1 X131.494 Y96.044 E8.96203
G1 X131.149 Y95.739 E8.99879
G1 X130.413 Y95.169 E9.0731
G1 X129.867 Y94.823 E9.1247
G1 X129.229 Y94.348 E9.18819
G1 X128.736 Y93.861 E9.24351
G1 X128.321 Y93.41 E9.29243
G1 X127.834 Y92.915 E9.34786
G1 X127.435 Y92.539 E9.39162
G1 X126.975 Y92.138 E9.44033
G1 X126.505 Y91.751 E9.48893
G1 X126.037 Y91.392 E9.53602
G1 X125.591 Y91.072 E9.57983
G1 X125.171 Y90.784 E9.62049
G1 X124.371 Y90.276 E9.69613
G1 X123.873 Y89.981 E9.74234
G1 X123.027 Y89.519 E9.81928
G1 X122.578 Y89.294 E9.85937
G1 X121.727 Y88.896 E9.93436
G1 X120.82 Y88.517 E10.01283
G1 X119.924 Y88.182 E10.08919
G1 X119.324 Y87.98 E10.13972
G1 X118.784 Y87.811 E10.18489
G1 X117.907 Y87.567 E10.25756
G1 X116.971 Y87.34 E10.33444
G1 X116.381 Y87.221 E10.38248
G1 X114.709 Y86.938 E10.51785
G1 X113.605 Y86.792 E10.60674
G1 X112.287 Y86.658 E10.71249
G1 X111.344 Y86.591 E10.78795
G1 X110.962 Y86.572 E10.81849
G1 X110.125 Y86.547 E10.88533
G1 X109.73 Y86.545 E10.91686
G1 X108.784 Y86.561 E10.99238
G1 X107.907 Y86.605 E11.06248
G1 X107.178 Y86.663 E11.12085
G1 X106.214 Y86.764 E11.19823
G1 X105.048 Y86.918 E11.29211
G1 X104.355 Y87.028 E11.34812
G1 X103.269 Y87.221 E11.43617
G1 X102.742 Y87.328 E11.47909
G1 X101.656 Y87.589 E11.56825
G1 X100.793 Y87.834 E11.63986
G1 X100.401 Y87.955 E11.67261
G1 X99.447 Y88.28 E11.75306
G1 X98.905 Y88.484 E11.79929
G1 X98.377 Y88.699 E11.84479
G1 X97.598 Y89.042 E11.91274
G1 X97.149 Y89.255 E11.95241
G1 X96.345 Y89.668 E12.02456
G1 X95.817 Y89.961 E12.07276
G1 X94.981 Y90.461 E12.15052
G1 X94.609 Y90.701 E12.18586
G1 X94.174 Y90.996 E12.22781
G1 X93.619 Y91.393 E12.28228
G1 X93.229 Y91.693 E12.32156
G1 X92.823 Y92.022 E12.36327
G1 X92.361 Y92.422 E12.41205
G1 X91.9 Y92.851 E12.46232
G1 X91.374 Y93.378 E12.52176
G1 X91.098 Y93.674 E12.55406
G1 X90.527 Y94.331 E12.62355
G1 X90.506 Y94.331 E12.62522
G1 X90.053 Y94.821 E12.67849
G1 X89.525 Y95.242 E12.7324
G1 X89.261 Y95.427 E12.75813
G1 X88.923 Y95.685 E12.79207
G1 X88.442 Y96.084 E12.84196
G1 X87.881 Y96.615 E12.90362
G1 X88.014 Y97.065
G1 X123.355 Y132.406 E16.89322
M204 S2500
G0 F9000 X124.889 Y131.678
M204 S3000
G1 F1200 X89.193 Y95.981 E20.92294
M204 S2500
G0 F9000 X90.451 Y94.977
M204 S3000
G1 F1200 X126.234 Y130.759 E24.96238
M204 S2500
G0 F9000 X127.424 Y129.687
M204 S3000
G1 F1200 X91.531 Y93.794 E29.01429
M204 S2500
G0 F9000 X92.676 Y92.676
M204 S3000
G1 F1200 X128.438 Y128.438 E33.05142
M204 S2500
G0 F9000 X129.285 Y127.023
M204 S3000
G1 F1200 X93.927 Y91.664 E37.04299
M204 S2500
G0 F9000 X95.276 Y90.75
M204 S3000
G1 F1200 X129.98 Y125.454 E40.96068
M204 S2500
G0 F9000 X130.507 Y123.718
M204 S3000
G1 F1200 X96.715 Y89.927 E44.77536
M204 S2500
G0 F9000 X98.245 Y89.194
M204 S3000
G1 F1200 X130.871 Y121.82 E48.45846
M204 S2500
;;retract;;
G1 F1800 E47.25846
G0 F9000 X131.111 Y119.798 Z0.64
M204 S3000
G1 F600 Z0.24
G1 F1800 E48.45846
G1 F1200 X99.872 Y88.558 E51.98504
M204 S2500
G0 F9000 X101.597 Y88.021
M204 S3000
G1 F1200 X131.645 Y118.069 E55.37712
M204 S2500
G0 F9000 X132.559 Y116.72
M204 S3000
G1 F1200 X103.436 Y87.597 E58.66478
M204 S2500
G0 F9000 X105.38 Y87.278
M204 S3000
G1 F1200 X133.602 Y115.5 E61.85072
M204 S2500
G0 F9000 X134.479 Y114.115
M204 S3000
G1 F1200 X107.41 Y87.045 E64.90656
M204 S2500
;;retract;;
G1 F1800 E63.70656
G0 F9000 X109.575 Y86.947 Z0.64
M204 S3000
G1 F600 Z0.24
G1 F1800 E64.90656
G1 F1200 X135.137 Y112.509 E67.79222
M204 S2500
G0 F9000 X135.5 Y110.61
M204 S3000
G1 F1200 X111.923 Y87.033 E70.4538
M204 S2500
;;retract;;
G1 F1800 E69.2538
G0 F9000 X114.462 Y87.31 Z0.64
M204 S3000
G1 F600 Z0.24
G1 F1800 E70.4538
G1 F1200 X135.445 Y108.292 E72.82248
M204 S2500
;;retract;;
G1 F1800 E71.62248
G0 F9000 X135.497 Y106.081 Z0.64
M204 S3000
G1 F600 Z0.24
G1 F1800 E72.82248
G1 F1200 X117.231 Y87.815 E74.88451
M204 S2500
;;retract;;
G1 F1800 E73.68451
G0 F9000 X120.505 Y88.826 Z0.64
M204 S3000
G1 F600 Z0.24
G1 F1800 E74.88451
G1 F1200 X135.003 Y103.325 E76.52122
M204 S2500
;;retract;;
G1 F1800 E75.32122
G0 F9000 X133.666 Y99.725 Z0.64
M204 S3000
G1 F600 Z0.24
G1 F1800 E76.52122
G1 F1200 X125.315 Y91.374 E77.46395
M204 S2500
;;retract;;
G1 F1800 E76.26395
G0 F9000 X119.412 Y92.448 Z0.64
G0 X87.029 Y98.343
M204 S3000
G1 F600 Z0.24
G1 F1800 E77.46395
G1 F1200 X121.583 Y132.897 E81.36471
M204 S2500
;;retract;;
G1 F1800 E80.16471
G0 F9000 X119.466 Y133.042 Z0.64
M204 S3000
G1 F600 Z0.24
G1 F1800 E81.36471
G1 F1200 X86.26 Y99.837 E85.11323
M204 S2500
G0 F9000 X85.688 Y101.527
M204 S3000
G1 F1200 X116.828 Y132.667 E88.62858
M204 S2500
;;retract;;
G1 F1800 E87.42858
G0 F9000 X112.688 Y130.79 Z0.64
M204 S3000
G1 F600 Z0.24
G1 F1800 E88.62858
G1 F1200 X85.056 Y103.158 E91.74792
M204 S2500
G0 F9000 X84.632 Y104.996
M204 S3000
G1 F1200 X109.677 Y130.042 E94.57528
M204 S2500
G0 F9000 X107.791 Y130.418
M204 S3000
G1 F1200 X84.538 Y107.165 E97.20028
M204 S2500
;;retract;;
G1 F1800 E96.00028
G0 F9000 X84.478 Y109.368 Z0.64
M204 S3000
G1 F600 Z0.24
G1 F1800 E97.20028
G1 F1200 X106.304 Y131.194 E99.66418
M204 S2500
G0 F9000 X104.817 Y131.97
M204 S3000
G1 F1200 X84.678 Y111.831 E101.93765
M204 S2500
;;retract;;
G1 F1800 E100.73765
G0 F9000 X87.606 Y117.021 Z0.64
M204 S3000
G1 F600 Z0.24
G1 F1800 E101.93765
G1 F1200 X103.167 Y132.583 E103.69436
M204 S2500
G0 F9000 X101.283 Y132.962
M204 S3000
G1 F1200 X88.596 Y120.275 E105.12658
M204 S2500
;;retract;;
G1 F1800 E103.92658
G0 F9000 X88.968 Y122.909 Z0.64
M204 S3000
G1 F600 Z0.24
G1 F1800 E105.12658
G1 F1200 X99.06 Y133.001 E106.26585
M204 S2500
;;retract;;
G1 F1800 E105.06585
G0 F9000 X96.102 Y132.306 Z0.64
M204 S3000
G1 F600 Z0.24
G1 F1800 E106.26585
G1 F1200 X89.962 Y126.166 E106.95899
M204 S2500
;;retract;;
G1 F1800 E105.75899
G0 F9000 X90.774 Y120.222 Z0.64
G0 X94.772 Y90.952
;TIME_ELAPSED:72.692805

;LAYER:-5
G0 X94.772 Y90.952 Z0.87
M204 S3000
;TYPE:SUPPORT
G1 F600 Z0.47
G1 F1800 E106.95899
G1 F1500 X94.343 Y91.242 E106.99365
G1 X93.794 Y91.633 E107.03877
G1 X93.42 Y91.923 E107.07045
G1 X93.007 Y92.259 E107.10608
G1 X92.476 Y92.72 E107.15315
G1 X92.099 Y93.072 E107.18768
G1 X91.59 Y93.582 E107.23591
G1 X91.32 Y93.874 E107.26253
G1 X90.279 Y95.069 E107.36861
G1 X90.252 Y95.042 E107.37117
G1 X89.692 Y95.491 E107.41921
G1 X89.337 Y95.741 E107.44827
G1 X88.767 Y96.196 E107.49709
G1 X88.107 Y96.809 E107.55739
G1 X87.543 Y97.447 E107.61439
G1 X87.05 Y98.115 E107.66996
G1 X86.616 Y98.832 E107.72606
G1 X86.255 Y99.572 E107.78117
G1 X95.061 Y90.766 E108.61476
G1 X95.956 Y90.224 E108.6848
G1 X96.474 Y89.937 E108.72444
G1 X97.359 Y89.486 E108.79092
G1 X97.831 Y89.268 E108.82573
G1 X85.59 Y101.51 E109.98453
G1 X85.362 Y102.145 E110.02969
G1 X85.27 Y102.348 E110.04461
G1 X85.002 Y102.992 E110.0913
G1 X84.833 Y103.54 E110.12968
G1 X99.956 Y88.416 E111.5613
G1 X100.478 Y88.244 E111.59809
G1 X101.463 Y87.952 E111.66686
G1 X101.778 Y87.867 E111.6887
G1 X84.514 Y105.131 E113.32294
G1 X84.48 Y105.397 E113.34089
G1 X84.438 Y105.923 E113.37621
G1 X84.416 Y106.502 E113.41499
G1 X103.42 Y87.498 E115.21395
G1 X104.406 Y87.322 E115.28099
G1 X104.956 Y87.235 E115.31826
G1 X84.474 Y107.716 E117.25708
G1 X84.43 Y108.517 E117.31077
G1 X84.399 Y108.814 E117.33076
G1 X84.39 Y109.074 E117.34818
