;FLAVOR:Marlin
;TIME:536.858
;Filament used:1.06129m
;Material Diameter:1.75
;Material Density:1.24
;Filament Cost:0.063307
;Filament Weight:3.165353
;Filament Length:1.061291
;Layer height:0.2
;MINX:2.253
;MINY:2.271
;MINZ:0.2
;MAXX:146.994
;MAXY:147
;MAXZ:20.401
;OuterWall Time:251.35
;InnerWall Time:222.719
;Skin Time:3.32913
;Support Time:0
;SkirtBrim Time:18.3432
;Infill Time:0
;Support Infills Time:0
;Combing Time:10.3793
;Retraction Time:30.7371
;PrimeTower Time:0

;
;;;;;;;;;;;;;;;;;;;;;;;;;;;;;;;;;;;;;;;;;;;;;;;;;;;;;;;;;;;;;;;;;;;;;;;;;;;;;
;Creality Print GCode Generated by CXEngine
;CRSLICE_GIT_HASH:58ee74d
;Creality Print Version : V4.3.8.6984
;CXEngine Release Time:2023-12-04 18:16:29
;Gcode Generated Time:2025-04-05 21:35:12
;----------Machine Config--------------
;Machine Name:Ender-3 V3 SE
;Machine Height:250
;Machine Width:220
;Machine Depth:220
;Material Type:PLA
;Material Name:CR-PLA_1.75
;Number of Extruders:1
;ExtruderParams[0] Nozzle Diameter:1000
;----------Profile Config---------------
;Wall Thickness:0.8
;Top/Bottom Thickness:0.8
;Out Wall Line Width:0.42
;Inner Wall Line Width:0.45
;Inital Height:200
;Wall Line Count:2
;Infill Line Distance:8
;Infill Pattern:grid
;Infill Sparse Density:10
;Infill Wipe Distance:0
;Print Temperature:190
;Bed Temperature:60
;Support Enable:false
;Support Density:15
;Support Angle:60
;Adhesion Type:lace
;machine is belt:false
;machine belt offset:10
;machine belt offset Y:0
;Raft Base Line Spacing:1.6
;Wait Heatup Sync:true
;Enable Ironing:false
;Material Type:PLA
;Max volumetric speed:20
;Preview Img Type:png
;Screen Size:Sermoon D3
;----------Shell Config----------------
;Outer Wall Wipe Distance:2000
;Outer Inset First:false
;Infill Before Walls:false
;Infill Overlap:0.09
;Fill Gaps Between Walls:everywhere
;Minimum Infill Area:30
;Top Surface Skin Layer:0
;Top Layers:5
;Z Seam Alignment:sharpest_corner
;Seam Corner Preference:z_seam_corner_inner
;Z Seam X:110
;Z Seam Y:220
;Horizontal Expansion:0
;Top/Bottom Pattern:zigzag
;Ironing Pattern:zigzag
;Vase Model:false
;----------Support Config----------------
;Support Type:everywhere
;Support Pattern:zigzag
;Support Infill Layer Thickness:0.2
;Minimum Support Area:1
;Enable Support Roof:true
;Support Roof Thickness:0.8
;Support Roof Pattern:lines
;Connect Support Lines:0
;Connect Support ZigZags:1
;Minimum Support X/Y Distance:0.2
;Support Line Distance:2.67
; ---------PrintSpeed & Travel----------
;Enable Print Cool:true
;Avoid Printed Parts Traveling:true
;Enable Retraction:true
;Retraction Distance:1.2
;Retraction Speed:30
;Retraction Prime Speed:30
;Maximum Retraction Count:100
;Minimum Extrusion Distance Window:0.8
;Z Hop When Retracted:true
;Z Hop Height:0.4
;Retract Before Outer Wall:true

;Outer Wall Speed:60
;Inner Wall Speed:90
;Infill Speed:180
;Top/Bottom Speed:50
;Travel Speed:150
;Initial Layer Speed:20
;Skirt/Brim Speed:25
;Prime Tower Speed:60
;Outer Wall Acceleration:1000
;Inner Wall Acceleration:2000
;Infill Acceleration:2500
;Top/Bottom Acceleration:2500
;Travel Acceleration:2500
;Initial Layer Print Acceleration:500
;Initial Layer Travel Acceleration:500
;Skirt/Brim Acceleration:500
;Combing Mode:off
; --------SpecialModel&Mesh Fixes--------
;Union Overlapping Volum:true
;Remove All Holes:false
;Maximum Travel Resolution:0.25
;Maximum Deviation:0.05
;Maximum Model Angle:0.872665
;IS Mold Print:false
;Make Overhang Printable:false
;Enable Coasting:false
;Coasting Volumes:0.064
;Coasting Speed:0.9
;Raft AirGap:0.25
;Layer0 ZOverLap:0.13
;Adaptive Layers:0
;---------------------End of Head--------------------------
M140 S60
M105
M190 S60
M104 S190
M82 ;absolute extrusion mode
M220 S100 ;Reset Feedrate
M221 S100 ;Reset Flowrate

G28 ;Home

G92 E0 ;Reset Extruder
G1 Z2.0 F3000 ;Move Z Axis up
G1 X-2.1 Y20 Z0.28 F5000.0 ;Move to start position
M109 S190.000000
G1 X-2.1 Y145.0 Z0.28 F1500.0 E15 ;Draw the first line
G1 X-2.4 Y145.0 Z0.28 F5000.0 ;Move to side a little
G1 X-2.4 Y20 Z0.28 F1500.0 E30 ;Draw the second line
G92 E0  ;Reset Extruder
G1 E-1.0000 F1800 ;Retract a bit
G1 Z2.0 F3000 ;Move Z Axis up
G1 E0.0000 F1800 

G92 E0
G92 E0
G1 F1800 E-1.2
;LAYER_COUNT:25

;LAYER:0
M106 S0
M204 S500
;;retract;;
G1 F1800 E0
G1 F1800 E-1.2
G0 F4800 X2.253 Y2.271 Z20.401
G0 X73.815 Y74.417 Z0.6
;TYPE:SKIRT
G1 F600 Z0.2
G1 F1800 E0
G1 F1500 X73.575 Y74.707 E0.01446
G1 X73.373 Y75.025 E0.02893
G1 X73.172 Y75.453 E0.0471
G1 X73.055 Y75.908 E0.06515
G1 X73.008 Y76.282 E0.07963
G1 X73.008 Y76.659 E0.09411
G1 X73.055 Y77.033 E0.10859
G1 X73.173 Y77.49 E0.12672
G1 X73.373 Y77.916 E0.1448
G1 X73.575 Y78.234 E0.15927
G1 X73.815 Y78.524 E0.17373
G1 X74.09 Y78.782 E0.18822
G1 X74.395 Y79.003 E0.20269
G1 X74.725 Y79.185 E0.21716
G1 X75.159 Y79.357 E0.2351
G1 X75.626 Y79.447 E0.25337
G1 X76 Y79.47 E0.26776
G1 X76 Y79.549 E0.2708
G1 X75.437 Y79.62 E0.2926
G1 X75.072 Y79.714 E0.30708
G1 X74.722 Y79.852 E0.32153
G1 X74.392 Y80.034 E0.33601
G1 X74.087 Y80.255 E0.35048
G1 X73.813 Y80.513 E0.36493
G1 X73.513 Y80.875 E0.38299
G1 X73.285 Y81.29 E0.40118
G1 X73.113 Y81.724 E0.41912
G1 X73.005 Y82.284 E0.44103
G1 X73.005 Y82.85 E0.46277
G1 X73.113 Y83.41 E0.48468
G1 X73.319 Y83.93 E0.50617
G1 X73.572 Y84.33 E0.52435
G1 X73.873 Y84.694 E0.54249
G1 X74.236 Y84.994 E0.56058
G1 X74.554 Y85.196 E0.57506
G1 X74.895 Y85.356 E0.58953
G1 X75.342 Y85.502 E0.60759
G1 X75.857 Y85.567 E0.62753
G1 X75.437 Y85.62 E0.64379
G1 X75.072 Y85.714 E0.65827
G1 X74.722 Y85.852 E0.67273
G1 X74.392 Y86.034 E0.6872
G1 X74.087 Y86.255 E0.70167
G1 X73.813 Y86.513 E0.71613
G1 X73.513 Y86.875 E0.73419
G1 X73.285 Y87.29 E0.75238
G1 X73.113 Y87.724 E0.77031
G1 X73.005 Y88.284 E0.79222
G1 X73.005 Y88.85 E0.81397
G1 X73.113 Y89.41 E0.83588
G1 X73.319 Y89.93 E0.85736
G1 X73.572 Y90.33 E0.87554
G1 X73.873 Y90.694 E0.89369
G1 X74.236 Y90.994 E0.91178
G1 X74.554 Y91.196 E0.92625
G1 X74.895 Y91.356 E0.94072
G1 X75.342 Y91.502 E0.95879
G1 X75.857 Y91.567 E0.97873
G1 X75.437 Y91.62 E0.99499
G1 X75.072 Y91.714 E1.00947
G1 X74.722 Y91.852 E1.02392
G1 X74.392 Y92.034 E1.0384
G1 X74.087 Y92.255 E1.05287
G1 X73.813 Y92.513 E1.06733
G1 X73.513 Y92.875 E1.08539
G1 X73.285 Y93.29 E1.10358
G1 X73.113 Y93.724 E1.12151
G1 X73.005 Y94.284 E1.14342
G1 X73.005 Y94.85 E1.16516
G1 X73.113 Y95.41 E1.18707
G1 X73.319 Y95.93 E1.20856
G1 X73.572 Y96.33 E1.22674
G1 X73.873 Y96.694 E1.24489
G1 X74.236 Y96.994 E1.26298
G1 X74.554 Y97.196 E1.27745
G1 X74.895 Y97.356 E1.29192
G1 X75.342 Y97.502 E1.30998
G1 X75.857 Y97.567 E1.32992
G1 X75.437 Y97.62 E1.34619
G1 X75.072 Y97.714 E1.36067
G1 X74.722 Y97.852 E1.37512
G1 X74.392 Y98.034 E1.3896
G1 X74.087 Y98.255 E1.40407
G1 X73.813 Y98.513 E1.41852
G1 X73.513 Y98.875 E1.43658
G1 X73.285 Y99.29 E1.45477
G1 X73.113 Y99.724 E1.47271
G1 X73.005 Y100.284 E1.49462
G1 X73.005 Y100.85 E1.51636
G1 X73.113 Y101.41 E1.53827
G1 X73.319 Y101.93 E1.55976
G1 X73.572 Y102.33 E1.57794
G1 X73.873 Y102.694 E1.59608
G1 X74.236 Y102.994 E1.61417
G1 X74.554 Y103.196 E1.62865
G1 X74.895 Y103.356 E1.64312
G1 X75.342 Y103.502 E1.66118
G1 X75.857 Y103.567 E1.68112
G1 X75.437 Y103.62 E1.69738
G1 X75.072 Y103.714 E1.71186
G1 X74.722 Y103.852 E1.72632
G1 X74.392 Y104.034 E1.74079
G1 X74.087 Y104.255 E1.75526
G1 X73.813 Y104.513 E1.76972
G1 X73.513 Y104.875 E1.78778
G1 X73.285 Y105.29 E1.80597
G1 X73.113 Y105.724 E1.8239
G1 X73.005 Y106.284 E1.84581
G1 X73.005 Y106.85 E1.86756
G1 X73.113 Y107.41 E1.88947
G1 X73.319 Y107.93 E1.91095
G1 X73.572 Y108.33 E1.92913
G1 X73.873 Y108.694 E1.94728
G1 X74.236 Y108.994 E1.96537
G1 X74.554 Y109.196 E1.97984
G1 X74.895 Y109.356 E1.99431
G1 X75.342 Y109.502 E2.01238
G1 X75.857 Y109.567 E2.03232
G1 X75.437 Y109.62 E2.04858
G1 X75.072 Y109.714 E2.06306
G1 X74.722 Y109.852 E2.07751
G1 X74.392 Y110.034 E2.09199
G1 X74.087 Y110.255 E2.10646
G1 X73.813 Y110.513 E2.12092
G1 X73.513 Y110.875 E2.13898
G1 X73.285 Y111.29 E2.15717
G1 X73.113 Y111.724 E2.1751
G1 X73.005 Y112.284 E2.19701
G1 X73.005 Y112.85 E2.21875
G1 X73.113 Y113.41 E2.24066
G1 X73.319 Y113.93 E2.26215
G1 X73.572 Y114.33 E2.28033
G1 X73.873 Y114.694 E2.29848
G1 X74.236 Y114.994 E2.31657
G1 X74.554 Y115.196 E2.33104
G1 X74.895 Y115.356 E2.34551
G1 X75.342 Y115.502 E2.36357
G1 X75.857 Y115.567 E2.38351
G1 X75.437 Y115.62 E2.39978
G1 X75.072 Y115.714 E2.41426
G1 X74.722 Y115.852 E2.42871
G1 X74.392 Y116.034 E2.44319
G1 X74.087 Y116.255 E2.45765
G1 X73.813 Y116.513 E2.47211
G1 X73.513 Y116.875 E2.49017
G1 X73.285 Y117.29 E2.50836
G1 X73.113 Y117.724 E2.5263
G1 X73.005 Y118.284 E2.54821
G1 X73.005 Y118.85 E2.56995
G1 X73.113 Y119.41 E2.59186
G1 X73.319 Y119.93 E2.61335
G1 X73.572 Y120.33 E2.63153
G1 X73.873 Y120.694 E2.64967
G1 X74.236 Y120.994 E2.66776
G1 X74.554 Y121.196 E2.68224
G1 X74.895 Y121.356 E2.69671
G1 X75.342 Y121.502 E2.71477
G1 X75.857 Y121.567 E2.73471
G1 X75.437 Y121.62 E2.75097
G1 X75.072 Y121.714 E2.76545
G1 X74.722 Y121.852 E2.7799
G1 X74.392 Y122.034 E2.79438
G1 X74.087 Y122.255 E2.80885
G1 X73.813 Y122.513 E2.82331
G1 X73.513 Y122.875 E2.84137
G1 X73.285 Y123.29 E2.85956
G1 X73.113 Y123.724 E2.87749
G1 X73.005 Y124.284 E2.8994
G1 X73.005 Y124.85 E2.92115
G1 X73.113 Y125.41 E2.94306
G1 X73.319 Y125.93 E2.96454
G1 X73.572 Y126.33 E2.98272
G1 X73.873 Y126.694 E3.00087
G1 X74.236 Y126.994 E3.01896
G1 X74.554 Y127.196 E3.03343
G1 X74.895 Y127.356 E3.0479
G1 X75.342 Y127.502 E3.06597
G1 X75.857 Y127.567 E3.08591
G1 X75.437 Y127.62 E3.10217
G1 X75.072 Y127.714 E3.11665
G1 X74.722 Y127.852 E3.1311
G1 X74.392 Y128.034 E3.14558
G1 X74.087 Y128.255 E3.16005
G1 X73.813 Y128.513 E3.17451
G1 X73.513 Y128.875 E3.19257
G1 X73.285 Y129.29 E3.21076
G1 X73.113 Y129.724 E3.22869
G1 X73.005 Y130.284 E3.2506
G1 X73.005 Y130.85 E3.27234
G1 X73.113 Y131.41 E3.29425
G1 X73.319 Y131.93 E3.31574
G1 X73.572 Y132.33 E3.33392
G1 X73.873 Y132.694 E3.35207
G1 X74.236 Y132.994 E3.37016
G1 X74.554 Y133.196 E3.38463
G1 X74.895 Y133.356 E3.3991
G1 X75.342 Y133.502 E3.41716
G1 X75.857 Y133.567 E3.4371
G1 X75.437 Y133.62 E3.45337
G1 X75.072 Y133.714 E3.46785
G1 X74.722 Y133.852 E3.4823
G1 X74.392 Y134.034 E3.49678
G1 X74.087 Y134.255 E3.51124
G1 X73.813 Y134.513 E3.5257
G1 X73.513 Y134.875 E3.54376
G1 X73.285 Y135.29 E3.56195
G1 X73.113 Y135.724 E3.57989
G1 X73.005 Y136.284 E3.6018
G1 X73.005 Y136.85 E3.62354
G1 X73.113 Y137.41 E3.64545
G1 X73.319 Y137.93 E3.66693
G1 X73.572 Y138.33 E3.68512
G1 X73.873 Y138.694 E3.70326
G1 X74.236 Y138.994 E3.72135
G1 X74.554 Y139.196 E3.73582
G1 X74.895 Y139.356 E3.75029
G1 X75.342 Y139.502 E3.76836
G1 X75.857 Y139.567 E3.7883
G1 X75.437 Y139.62 E3.80456
G1 X75.072 Y139.714 E3.81904
G1 X74.722 Y139.852 E3.83349
G1 X74.392 Y140.034 E3.84797
G1 X74.087 Y140.255 E3.86244
G1 X73.813 Y140.513 E3.8769
G1 X73.513 Y140.875 E3.89496
G1 X73.285 Y141.29 E3.91315
G1 X73.113 Y141.724 E3.93108
G1 X73.005 Y142.284 E3.95299
G1 X73.005 Y142.85 E3.97474
G1 X73.113 Y143.41 E3.99665
G1 X73.319 Y143.93 E4.01813
G1 X73.572 Y144.33 E4.03631
G1 X73.873 Y144.694 E4.05446
G1 X74.236 Y144.994 E4.07255
G1 X74.554 Y145.196 E4.08702
G1 X74.895 Y145.356 E4.10149
G1 X75.342 Y145.502 E4.11956
G1 X75.811 Y145.561 E4.13771
G1 X76.188 Y145.561 E4.1522
G1 X76.657 Y145.502 E4.17036
G1 X77.104 Y145.356 E4.18842
G1 X77.445 Y145.196 E4.20289
G1 X77.763 Y144.994 E4.21736
G1 X78.126 Y144.694 E4.23545
G1 X78.427 Y144.33 E4.2536
G1 X78.634 Y144 E4.26856
G1 X78.687 Y144 E4.2706
G1 X78.758 Y144.562 E4.29236
G1 X78.852 Y144.927 E4.30684
G1 X78.99 Y145.277 E4.32129
G1 X79.172 Y145.607 E4.33577
G1 X79.393 Y145.912 E4.35024
G1 X79.651 Y146.186 E4.3647
G1 X80.013 Y146.486 E4.38276
G1 X80.428 Y146.714 E4.40095
G1 X80.862 Y146.886 E4.41888
G1 X81.329 Y146.976 E4.43715
G1 X81.705 Y147 E4.45163
G1 X82.081 Y146.976 E4.4661
G1 X82.548 Y146.886 E4.48437
G1 X83.068 Y146.68 E4.50586
G1 X83.468 Y146.427 E4.52404
G1 X83.832 Y146.126 E4.54218
G1 X84.132 Y145.763 E4.56027
G1 X84.334 Y145.445 E4.57475
G1 X84.494 Y145.104 E4.58922
G1 X84.64 Y144.657 E4.60728
G1 X84.705 Y144.142 E4.62722
G1 X84.758 Y144.562 E4.64348
G1 X84.852 Y144.927 E4.65796
G1 X84.99 Y145.277 E4.67241
G1 X85.172 Y145.607 E4.68689
G1 X85.393 Y145.912 E4.70136
G1 X85.651 Y146.186 E4.71582
G1 X86.013 Y146.486 E4.73388
G1 X86.428 Y146.714 E4.75207
G1 X86.862 Y146.886 E4.77
G1 X87.329 Y146.976 E4.78827
G1 X87.705 Y147 E4.80275
G1 X88.081 Y146.976 E4.81722
G1 X88.548 Y146.886 E4.83549
G1 X89.068 Y146.68 E4.85698
G1 X89.468 Y146.427 E4.87516
G1 X89.832 Y146.126 E4.8933
G1 X90.132 Y145.763 E4.9114
G1 X90.334 Y145.445 E4.92587
G1 X90.494 Y145.104 E4.94034
G1 X90.64 Y144.657 E4.9584
G1 X90.705 Y144.142 E4.97834
G1 X90.758 Y144.562 E4.99461
G1 X90.852 Y144.927 E5.00908
G1 X90.99 Y145.277 E5.02354
G1 X91.172 Y145.607 E5.03801
G1 X91.393 Y145.912 E5.05248
G1 X91.651 Y146.186 E5.06694
G1 X92.013 Y146.486 E5.085
G1 X92.428 Y146.714 E5.10319
G1 X92.862 Y146.886 E5.12113
G1 X93.329 Y146.976 E5.1394
G1 X93.705 Y147 E5.15387
G1 X94.081 Y146.976 E5.16834
G1 X94.548 Y146.886 E5.18661
G1 X95.068 Y146.68 E5.2081
G1 X95.468 Y146.427 E5.22628
G1 X95.832 Y146.126 E5.24443
G1 X96.132 Y145.763 E5.26252
G1 X96.334 Y145.445 E5.27699
G1 X96.494 Y145.104 E5.29146
G1 X96.64 Y144.657 E5.30953
G1 X96.705 Y144.142 E5.32947
G1 X96.758 Y144.562 E5.34573
G1 X96.852 Y144.927 E5.36021
G1 X96.99 Y145.277 E5.37466
G1 X97.172 Y145.607 E5.38914
G1 X97.393 Y145.912 E5.40361
G1 X97.651 Y146.186 E5.41806
G1 X98.013 Y146.486 E5.43613
G1 X98.428 Y146.714 E5.45432
G1 X98.862 Y146.886 E5.47225
G1 X99.329 Y146.976 E5.49052
G1 X99.705 Y147 E5.50499
G1 X100.081 Y146.976 E5.51947
G1 X100.548 Y146.886 E5.53774
G1 X101.068 Y146.68 E5.55922
G1 X101.468 Y146.427 E5.57741
G1 X101.832 Y146.126 E5.59555
G1 X102.132 Y145.763 E5.61364
G1 X102.334 Y145.445 E5.62811
G1 X102.494 Y145.104 E5.64258
G1 X102.64 Y144.657 E5.66065
G1 X102.705 Y144.142 E5.68059
G1 X102.758 Y144.562 E5.69685
G1 X102.852 Y144.927 E5.71133
G1 X102.99 Y145.277 E5.72578
G1 X103.172 Y145.607 E5.74026
G1 X103.393 Y145.912 E5.75473
G1 X103.651 Y146.186 E5.76919
G1 X104.013 Y146.486 E5.78725
G1 X104.428 Y146.714 E5.80544
G1 X104.862 Y146.886 E5.82337
G1 X105.329 Y146.976 E5.84164
G1 X105.705 Y147 E5.85612
G1 X106.081 Y146.976 E5.87059
G1 X106.548 Y146.886 E5.88886
G1 X107.068 Y146.68 E5.91035
G1 X107.468 Y146.427 E5.92853
G1 X107.832 Y146.126 E5.94667
G1 X108.132 Y145.763 E5.96476
G1 X108.334 Y145.445 E5.97924
G1 X108.494 Y145.104 E5.99371
G1 X108.64 Y144.657 E6.01177
G1 X108.705 Y144.142 E6.03171
G1 X108.758 Y144.562 E6.04797
G1 X108.852 Y144.927 E6.06245
G1 X108.99 Y145.277 E6.07691
G1 X109.172 Y145.607 E6.09138
G1 X109.393 Y145.912 E6.10585
G1 X109.651 Y146.186 E6.12031
G1 X110.013 Y146.486 E6.13837
G1 X110.428 Y146.714 E6.15656
G1 X110.862 Y146.886 E6.1745
G1 X111.329 Y146.976 E6.19277
G1 X111.705 Y147 E6.20724
G1 X112.081 Y146.976 E6.22171
G1 X112.548 Y146.886 E6.23998
G1 X113.068 Y146.68 E6.26147
G1 X113.468 Y146.427 E6.27965
G1 X113.832 Y146.126 E6.2978
G1 X114.132 Y145.763 E6.31589
G1 X114.334 Y145.445 E6.33036
G1 X114.494 Y145.104 E6.34483
G1 X114.64 Y144.657 E6.36289
G1 X114.705 Y144.142 E6.38283
G1 X114.758 Y144.562 E6.3991
G1 X114.852 Y144.927 E6.41358
G1 X114.99 Y145.277 E6.42803
G1 X115.172 Y145.607 E6.44251
G1 X115.393 Y145.912 E6.45698
G1 X115.651 Y146.186 E6.47143
G1 X116.013 Y146.486 E6.48949
G1 X116.428 Y146.714 E6.50768
G1 X116.862 Y146.886 E6.52562
G1 X117.329 Y146.976 E6.54389
G1 X117.705 Y147 E6.55836
G1 X118.081 Y146.976 E6.57284
G1 X118.548 Y146.886 E6.59111
G1 X119.068 Y146.68 E6.61259
G1 X119.468 Y146.427 E6.63077
G1 X119.832 Y146.126 E6.64892
G1 X120.132 Y145.763 E6.66701
G1 X120.334 Y145.445 E6.68148
G1 X120.494 Y145.104 E6.69595
G1 X120.64 Y144.657 E6.71402
G1 X120.705 Y144.142 E6.73396
G1 X120.758 Y144.562 E6.75022
G1 X120.852 Y144.927 E6.7647
G1 X120.99 Y145.277 E6.77915
G1 X121.172 Y145.607 E6.79363
G1 X121.393 Y145.912 E6.8081
G1 X121.651 Y146.186 E6.82256
G1 X122.013 Y146.486 E6.84062
G1 X122.428 Y146.714 E6.85881
G1 X122.862 Y146.886 E6.87674
G1 X123.329 Y146.976 E6.89501
G1 X123.705 Y147 E6.90948
G1 X124.081 Y146.976 E6.92396
G1 X124.548 Y146.886 E6.94223
G1 X125.068 Y146.68 E6.96371
