;FLAVOR:Marlin
;TIME:2462.77
;Filament used:3.50079m
;Material Diameter:1.75
;Material Density:1.24
;Filament Cost:0.208826
;Filament Weight:10.441279
;Filament Length:3.500790
;Layer height:0.2
;MINX:2.255
;MINY:2.27
;MINZ:0.2
;MAXX:140.494
;MAXY:138
;MAXZ:20.401
;OuterWall Time:401.908
;InnerWall Time:266.662
;Skin Time:1208.94
;Support Time:0
;SkirtBrim Time:14.1016
;Infill Time:154.442
;Support Infills Time:0
;Combing Time:103.6
;Retraction Time:313.122
;PrimeTower Time:0

;;;;;;;;;;;;;;;;;;;;;;;;;;;;;;;;;;;;;;;;;;;;;;;;;;;;;;;;;;;;;;;;;;;;;;;;;;;;
;Creality Print GCode Generated by CXEngine
;CRSLICE_GIT_HASH:58ee74d
;Creality Print Version : V4.3.8.6984
;CXEngine Release Time:2023-12-04 18:16:29
;Gcode Generated Time:2024-05-20 22:58:53
;----------Machine Config--------------
;Machine Name:Ender-3 V3 SE
;Machine Height:250
;Machine Width:220
;Machine Depth:220
;Material Type:PLA
;Material Name:CR-PLA_1.75
;Number of Extruders:1
;ExtruderParams[0] Nozzle Diameter:1000
;----------Profile Config---------------
;Wall Thickness:0.8
;Top/Bottom Thickness:0.8
;Out Wall Line Width:0.42
;Inner Wall Line Width:0.45
;Inital Height:200
;Wall Line Count:2
;Infill Line Distance:8
;Infill Pattern:grid
;Infill Sparse Density:10
;Infill Wipe Distance:0
;Print Temperature:195
;Bed Temperature:60
;Support Enable:false
;Support Density:15
;Support Angle:60
;Adhesion Type:lace
;machine is belt:false
;machine belt offset:10
;machine belt offset Y:0
;Raft Base Line Spacing:1.6
;Wait Heatup Sync:true
;Enable Ironing:false
;Material Type:PLA
;Max volumetric speed:20
;Preview Img Type:png
;Screen Size:Sermoon D3
;----------Shell Config----------------
;Outer Wall Wipe Distance:2000
;Outer Inset First:false
;Infill Before Walls:false
;Infill Overlap:0.09
;Fill Gaps Between Walls:everywhere
;Minimum Infill Area:30
;Top Surface Skin Layer:0
;Top Layers:4
;Z Seam Alignment:sharpest_corner
;Seam Corner Preference:z_seam_corner_inner
;Z Seam X:110
;Z Seam Y:220
;Horizontal Expansion:0
;Top/Bottom Pattern:zigzag
;Ironing Pattern:zigzag
;Vase Model:false
;----------Support Config----------------
;Support Type:everywhere
;Support Pattern:zigzag
;Support Infill Layer Thickness:0.2
;Minimum Support Area:1
;Enable Support Roof:true
;Support Roof Thickness:0.8
;Support Roof Pattern:lines
;Connect Support Lines:0
;Connect Support ZigZags:1
;Minimum Support X/Y Distance:0.2
;Support Line Distance:2.67
; ---------PrintSpeed & Travel----------
;Enable Print Cool:true
;Avoid Printed Parts Traveling:true
;Enable Retraction:true
;Retraction Distance:1.2
;Retraction Speed:30
;Retraction Prime Speed:30
;Maximum Retraction Count:100
;Minimum Extrusion Distance Window:0.8
;Z Hop When Retracted:true
;Z Hop Height:0.4
;Retract Before Outer Wall:true

;Outer Wall Speed:60
;Inner Wall Speed:90
;Infill Speed:180
;Top/Bottom Speed:50
;Travel Speed:150
;Initial Layer Speed:20
;Skirt/Brim Speed:25
;Prime Tower Speed:60
;Outer Wall Acceleration:1000
;Inner Wall Acceleration:2000
;Infill Acceleration:2500
;Top/Bottom Acceleration:2500
;Travel Acceleration:2500
;Initial Layer Print Acceleration:500
;Initial Layer Travel Acceleration:500
;Skirt/Brim Acceleration:500
;Combing Mode:off
; --------SpecialModel&Mesh Fixes--------
;Union Overlapping Volum:true
;Remove All Holes:false
;Maximum Travel Resolution:0.25
;Maximum Deviation:0.05
;Maximum Model Angle:0.872665
;IS Mold Print:false
;Make Overhang Printable:false
;Enable Coasting:false
;Coasting Volumes:0.064
;Coasting Speed:0.9
;Raft AirGap:0.25
;Layer0 ZOverLap:0.13
;Adaptive Layers:0
;---------------------End of Head--------------------------
M140 S60
M105
M190 S60
M104 S195
M82 ;absolute extrusion mode
M220 S100 ;Reset Feedrate
M221 S100 ;Reset Flowrate

G28 ;Home

G92 E0 ;Reset Extruder
G1 Z2.0 F3000 ;Move Z Axis up
G1 X-2.1 Y20 Z0.28 F5000.0 ;Move to start position
M109 S195.000000
G1 X-2.1 Y145.0 Z0.28 F1500.0 E15 ;Draw the first line
G1 X-2.4 Y145.0 Z0.28 F5000.0 ;Move to side a little
G1 X-2.4 Y20 Z0.28 F1500.0 E30 ;Draw the second line
G92 E0  ;Reset Extruder
G1 E-1.0000 F1800 ;Retract a bit
G1 Z2.0 F3000 ;Move Z Axis up
G1 E0.0000 F1800 

G92 E0
G92 E0
G1 F1800 E-1.2
;LAYER_COUNT:50

;LAYER:0
M106 S0
M204 S500
;;retract;;
G1 F1800 E0
G1 F1800 E-1.2
G0 F4800 X2.255 Y2.27 Z20.401
G0 X82.274 Y82.813 Z0.6
;TYPE:SKIRT
G1 F600 Z0.2
G1 F1800 E0
G1 F1500 X82.016 Y83.087 E0.01446
G1 X81.795 Y83.392 E0.02893
G1 X81.613 Y83.722 E0.0434
G1 X81.475 Y84.072 E0.05786
G1 X81.381 Y84.437 E0.07234
G1 X81.334 Y84.811 E0.08682
G1 X81.334 Y85.188 E0.1013
G1 X81.381 Y85.562 E0.11578
G1 X81.475 Y85.927 E0.13026
G1 X81.613 Y86.277 E0.14471
G1 X81.795 Y86.607 E0.15919
G1 X82.016 Y86.912 E0.17366
G1 X82.274 Y87.186 E0.18812
G1 X82.5 Y87.378 E0.19951
G1 X82.124 Y87.401 E0.21398
G1 X81.662 Y87.489 E0.23205
G1 X81.222 Y87.663 E0.25022
G1 X80.892 Y87.845 E0.2647
G1 X80.587 Y88.066 E0.27917
G1 X80.313 Y88.324 E0.29363
G1 X80.016 Y88.682 E0.3115
G1 X79.785 Y89.1 E0.32984
G1 X79.612 Y89.536 E0.34786
G1 X79.505 Y90.096 E0.36976
G1 X79.505 Y90.661 E0.39147
G1 X79.613 Y91.221 E0.41338
G1 X79.819 Y91.741 E0.43486
G1 X80.121 Y92.219 E0.45658
G1 X80.446 Y92.565 E0.47482
G1 X80.736 Y92.805 E0.48928
G1 X81.054 Y93.007 E0.50375
G1 X81.395 Y93.167 E0.51822
G1 X81.842 Y93.313 E0.53629
G1 X82.405 Y93.384 E0.55809
G1 X82.124 Y93.401 E0.5689
G1 X81.662 Y93.489 E0.58697
G1 X81.222 Y93.663 E0.60515
G1 X80.892 Y93.845 E0.61962
G1 X80.587 Y94.066 E0.63409
G1 X80.313 Y94.324 E0.64855
G1 X80.016 Y94.682 E0.66642
G1 X79.785 Y95.1 E0.68477
G1 X79.612 Y95.536 E0.70278
G1 X79.505 Y96.096 E0.72469
G1 X79.505 Y96.661 E0.74639
G1 X79.613 Y97.221 E0.7683
G1 X79.819 Y97.741 E0.78979
G1 X80.121 Y98.219 E0.81151
G1 X80.446 Y98.565 E0.82974
G1 X80.736 Y98.805 E0.8442
G1 X81.054 Y99.007 E0.85868
G1 X81.395 Y99.167 E0.87315
G1 X81.842 Y99.313 E0.89121
G1 X82.405 Y99.384 E0.91301
G1 X82.124 Y99.401 E0.92382
G1 X81.662 Y99.489 E0.94189
G1 X81.222 Y99.663 E0.96007
G1 X80.892 Y99.845 E0.97454
G1 X80.587 Y100.066 E0.98901
G1 X80.313 Y100.324 E1.00347
G1 X80.016 Y100.682 E1.02134
G1 X79.785 Y101.1 E1.03969
G1 X79.612 Y101.536 E1.05771
G1 X79.505 Y102.096 E1.07961
G1 X79.505 Y102.661 E1.10131
G1 X79.613 Y103.221 E1.12322
G1 X79.819 Y103.741 E1.14471
G1 X80.121 Y104.219 E1.16643
G1 X80.446 Y104.565 E1.18467
G1 X80.736 Y104.805 E1.19913
G1 X81.054 Y105.007 E1.2136
G1 X81.395 Y105.167 E1.22807
G1 X81.842 Y105.313 E1.24613
G1 X82.405 Y105.384 E1.26793
G1 X82.124 Y105.401 E1.27875
G1 X81.662 Y105.489 E1.29681
G1 X81.222 Y105.663 E1.31499
G1 X80.892 Y105.845 E1.32947
G1 X80.587 Y106.066 E1.34394
G1 X80.313 Y106.324 E1.35839
G1 X80.016 Y106.682 E1.37626
G1 X79.785 Y107.1 E1.39461
G1 X79.612 Y107.536 E1.41263
G1 X79.505 Y108.096 E1.43453
G1 X79.505 Y108.661 E1.45624
G1 X79.613 Y109.221 E1.47815
G1 X79.819 Y109.741 E1.49963
G1 X80.121 Y110.219 E1.52135
G1 X80.446 Y110.565 E1.53959
G1 X80.736 Y110.805 E1.55405
G1 X81.054 Y111.007 E1.56852
G1 X81.395 Y111.167 E1.58299
G1 X81.842 Y111.313 E1.60106
G1 X82.405 Y111.384 E1.62286
G1 X82.124 Y111.401 E1.63367
G1 X81.662 Y111.489 E1.65174
G1 X81.222 Y111.663 E1.66991
G1 X80.892 Y111.845 E1.68439
G1 X80.587 Y112.066 E1.69886
G1 X80.313 Y112.324 E1.71332
G1 X80.016 Y112.682 E1.73119
G1 X79.785 Y113.1 E1.74953
G1 X79.612 Y113.536 E1.76755
G1 X79.505 Y114.096 E1.78945
G1 X79.505 Y114.661 E1.81116
G1 X79.613 Y115.221 E1.83307
G1 X79.819 Y115.741 E1.85455
G1 X80.121 Y116.219 E1.87628
G1 X80.446 Y116.565 E1.89451
G1 X80.736 Y116.805 E1.90897
G1 X81.054 Y117.007 E1.92344
G1 X81.395 Y117.167 E1.93791
G1 X81.842 Y117.313 E1.95598
G1 X82.405 Y117.384 E1.97778
G1 X82.124 Y117.401 E1.98859
G1 X81.662 Y117.489 E2.00666
G1 X81.222 Y117.663 E2.02484
G1 X80.892 Y117.845 E2.03931
G1 X80.587 Y118.066 E2.05378
G1 X80.313 Y118.324 E2.06824
G1 X80.016 Y118.682 E2.08611
G1 X79.785 Y119.1 E2.10446
G1 X79.612 Y119.536 E2.12248
G1 X79.505 Y120.096 E2.14438
G1 X79.505 Y120.661 E2.16608
G1 X79.613 Y121.221 E2.18799
G1 X79.819 Y121.741 E2.20948
G1 X80.121 Y122.219 E2.2312
G1 X80.446 Y122.565 E2.24943
G1 X80.736 Y122.805 E2.26389
G1 X81.054 Y123.007 E2.27837
G1 X81.395 Y123.167 E2.29284
G1 X81.842 Y123.313 E2.3109
G1 X82.405 Y123.384 E2.3327
G1 X82.124 Y123.401 E2.34351
G1 X81.662 Y123.489 E2.36158
G1 X81.222 Y123.663 E2.37976
G1 X80.892 Y123.845 E2.39424
G1 X80.587 Y124.066 E2.4087
G1 X80.313 Y124.324 E2.42316
G1 X80.016 Y124.682 E2.44103
G1 X79.785 Y125.1 E2.45938
G1 X79.612 Y125.536 E2.4774
G1 X79.505 Y126.096 E2.4993
G1 X79.505 Y126.661 E2.521
G1 X79.613 Y127.221 E2.54291
G1 X79.819 Y127.741 E2.5644
G1 X80.121 Y128.219 E2.58612
G1 X80.446 Y128.565 E2.60436
G1 X80.736 Y128.805 E2.61882
G1 X81.054 Y129.007 E2.63329
G1 X81.395 Y129.167 E2.64776
G1 X81.842 Y129.313 E2.66582
G1 X82.405 Y129.384 E2.68762
G1 X82.124 Y129.401 E2.69844
G1 X81.753 Y129.472 E2.71295
G1 X81.305 Y129.617 E2.73104
G1 X80.892 Y129.845 E2.74916
G1 X80.587 Y130.066 E2.76363
G1 X80.313 Y130.324 E2.77809
G1 X80.016 Y130.682 E2.79596
G1 X79.785 Y131.1 E2.8143
G1 X79.612 Y131.536 E2.83232
G1 X79.505 Y132.096 E2.85422
G1 X79.505 Y132.661 E2.87593
G1 X79.613 Y133.221 E2.89784
G1 X79.819 Y133.741 E2.91932
G1 X80.121 Y134.219 E2.94104
G1 X80.446 Y134.565 E2.95928
G1 X80.736 Y134.805 E2.97374
G1 X81.054 Y135.007 E2.98821
G1 X81.395 Y135.167 E3.00268
G1 X81.842 Y135.313 E3.02075
G1 X82.311 Y135.372 E3.03891
G1 X82.688 Y135.372 E3.05339
G1 X83.062 Y135.325 E3.06787
G1 X83.427 Y135.231 E3.08235
G1 X83.777 Y135.092 E3.09682
G1 X83.957 Y135 E3.10458
G1 X84.187 Y135 E3.11342
G1 X84.258 Y135.562 E3.13518
G1 X84.352 Y135.927 E3.14966
G1 X84.49 Y136.277 E3.16411
G1 X84.672 Y136.607 E3.17859
G1 X84.893 Y136.912 E3.19306
G1 X85.151 Y137.186 E3.20751
G1 X85.513 Y137.486 E3.22558
G1 X85.928 Y137.714 E3.24377
G1 X86.362 Y137.886 E3.2617
G1 X86.829 Y137.976 E3.27997
G1 X87.205 Y138 E3.29444
G1 X87.581 Y137.976 E3.30892
G1 X88.048 Y137.886 E3.32719
G1 X88.568 Y137.68 E3.34867
G1 X88.968 Y137.427 E3.36686
G1 X89.332 Y137.126 E3.385
G1 X89.632 Y136.763 E3.40309
G1 X89.834 Y136.445 E3.41756
G1 X89.994 Y136.104 E3.43203
G1 X90.14 Y135.657 E3.4501
G1 X90.205 Y135.142 E3.47004
G1 X90.258 Y135.562 E3.4863
G1 X90.352 Y135.927 E3.50078
G1 X90.49 Y136.277 E3.51523
G1 X90.672 Y136.607 E3.52971
G1 X90.893 Y136.912 E3.54418
G1 X91.151 Y137.186 E3.55864
G1 X91.513 Y137.486 E3.5767
G1 X91.928 Y137.714 E3.59489
G1 X92.362 Y137.886 E3.61282
G1 X92.829 Y137.976 E3.63109
G1 X93.205 Y138 E3.64557
G1 X93.581 Y137.976 E3.66004
G1 X94.048 Y137.886 E3.67831
G1 X94.568 Y137.68 E3.6998
G1 X94.968 Y137.427 E3.71798
G1 X95.332 Y137.126 E3.73612
G1 X95.632 Y136.763 E3.75421
G1 X95.834 Y136.445 E3.76869
G1 X95.994 Y136.104 E3.78316
G1 X96.14 Y135.657 E3.80122
G1 X96.205 Y135.142 E3.82116
G1 X96.258 Y135.562 E3.83742
G1 X96.352 Y135.927 E3.8519
G1 X96.49 Y136.277 E3.86636
G1 X96.672 Y136.607 E3.88083
G1 X96.893 Y136.912 E3.8953
G1 X97.151 Y137.186 E3.90976
G1 X97.513 Y137.486 E3.92782
G1 X97.928 Y137.714 E3.94601
G1 X98.362 Y137.886 E3.96395
G1 X98.829 Y137.976 E3.98222
G1 X99.205 Y138 E3.99669
G1 X99.581 Y137.976 E4.01116
G1 X100.048 Y137.886 E4.02943
G1 X100.568 Y137.68 E4.05092
G1 X100.968 Y137.427 E4.0691
G1 X101.332 Y137.126 E4.08725
G1 X101.632 Y136.763 E4.10534
G1 X101.834 Y136.445 E4.11981
G1 X101.994 Y136.104 E4.13428
G1 X102.14 Y135.657 E4.15234
G1 X102.205 Y135.142 E4.17228
G1 X102.258 Y135.562 E4.18855
G1 X102.352 Y135.927 E4.20303
G1 X102.49 Y136.277 E4.21748
G1 X102.672 Y136.607 E4.23196
G1 X102.893 Y136.912 E4.24643
G1 X103.151 Y137.186 E4.26088
G1 X103.513 Y137.486 E4.27894
G1 X103.928 Y137.714 E4.29713
G1 X104.362 Y137.886 E4.31507
G1 X104.829 Y137.976 E4.33334
G1 X105.205 Y138 E4.34781
G1 X105.581 Y137.976 E4.36229
G1 X106.048 Y137.886 E4.38056
G1 X106.568 Y137.68 E4.40204
G1 X106.968 Y137.427 E4.42022
G1 X107.332 Y137.126 E4.43837
G1 X107.632 Y136.763 E4.45646
G1 X107.834 Y136.445 E4.47093
G1 X107.994 Y136.104 E4.4854
G1 X108.14 Y135.657 E4.50347
G1 X108.205 Y135.142 E4.52341
G1 X108.258 Y135.562 E4.53967
G1 X108.352 Y135.927 E4.55415
G1 X108.49 Y136.277 E4.5686
G1 X108.672 Y136.607 E4.58308
G1 X108.893 Y136.912 E4.59755
G1 X109.151 Y137.186 E4.61201
G1 X109.513 Y137.486 E4.63007
G1 X109.928 Y137.714 E4.64826
G1 X110.362 Y137.886 E4.66619
G1 X110.829 Y137.976 E4.68446
G1 X111.205 Y138 E4.69893
G1 X111.581 Y137.976 E4.71341
G1 X112.048 Y137.886 E4.73168
G1 X112.568 Y137.68 E4.75316
G1 X112.968 Y137.427 E4.77135
G1 X113.332 Y137.126 E4.78949
G1 X113.632 Y136.763 E4.80758
G1 X113.834 Y136.445 E4.82205
G1 X113.994 Y136.104 E4.83652
G1 X114.14 Y135.657 E4.85459
G1 X114.205 Y135.142 E4.87453
G1 X114.258 Y135.562 E4.89079
G1 X114.352 Y135.927 E4.90527
G1 X114.49 Y136.277 E4.91972
G1 X114.672 Y136.607 E4.9342
G1 X114.893 Y136.912 E4.94867
G1 X115.151 Y137.186 E4.96313
G1 X115.513 Y137.486 E4.98119
G1 X115.928 Y137.714 E4.99938
G1 X116.362 Y137.886 E5.01731
G1 X116.829 Y137.976 E5.03558
G1 X117.205 Y138 E5.05006
G1 X117.581 Y137.976 E5.06453
G1 X118.048 Y137.886 E5.0828
G1 X118.568 Y137.68 E5.10429
G1 X118.968 Y137.427 E5.12247
G1 X119.332 Y137.126 E5.14061
G1 X119.632 Y136.763 E5.1587
G1 X119.834 Y136.445 E5.17318
G1 X119.994 Y136.104 E5.18765
G1 X120.14 Y135.657 E5.20571
G1 X120.205 Y135.142 E5.22565
G1 X120.258 Y135.562 E5.24191
G1 X120.352 Y135.927 E5.25639
G1 X120.49 Y136.277 E5.27085
G1 X120.672 Y136.607 E5.28532
G1 X120.893 Y136.912 E5.29979
G1 X121.151 Y137.186 E5.31425
G1 X121.513 Y137.486 E5.33231
G1 X121.928 Y137.714 E5.3505
G1 X122.362 Y137.886 E5.36844
G1 X122.829 Y137.976 E5.38671
G1 X123.205 Y138 E5.40118
G1 X123.581 Y137.976 E5.41565
G1 X124.048 Y137.886 E5.43392
G1 X124.568 Y137.68 E5.45541
G1 X124.968 Y137.427 E5.47359
G1 X125.332 Y137.126 E5.49174
G1 X125.632 Y136.763 E5.50983
G1 X125.834 Y136.445 E5.5243
G1 X125.994 Y136.104 E5.53877
G1 X126.14 Y135.657 E5.55683
G1 X126.205 Y135.142 E5.57678
G1 X126.258 Y135.562 E5.59304
G1 X126.352 Y135.927 E5.60752
G1 X126.49 Y136.277 E5.62197
G1 X126.672 Y136.607 E5.63645
G1 X126.893 Y136.912 E5.65092
G1 X127.151 Y137.186 E5.66537
G1 X127.513 Y137.486 E5.68343
G1 X127.928 Y137.714 E5.70162
G1 X128.362 Y137.886 E5.71956
G1 X128.829 Y137.976 E5.73783
G1 X129.205 Y138 E5.7523
G1 X129.581 Y137.976 E5.76678
G1 X130.048 Y137.886 E5.78505
G1 X130.568 Y137.68 E5.80653
G1 X130.968 Y137.427 E5.82471
G1 X131.332 Y137.126 E5.84286
G1 X131.632 Y136.763 E5.86095
G1 X131.834 Y136.445 E5.87542
G1 X131.994 Y136.104 E5.88989
G1 X132.14 Y135.657 E5.90796
G1 X132.205 Y135.142 E5.9279
G1 X132.258 Y135.562 E5.94416
G1 X132.352 Y135.927 E5.95864
G1 X132.49 Y136.277 E5.97309
G1 X132.672 Y136.607 E5.98757
G1 X132.893 Y136.912 E6.00204
G1 X133.151 Y137.186 E6.0165
G1 X133.513 Y137.486 E6.03456
G1 X133.928 Y137.714 E6.05275
G1 X134.362 Y137.886 E6.07068
G1 X134.829 Y137.976 E6.08895
G1 X135.205 Y138 E6.10343
G1 X135.581 Y137.976 E6.1179
G1 X136.048 Y137.886 E6.13617
G1 X136.568 Y137.68 E6.15766
G1 X136.968 Y137.427 E6.17584
G1 X137.332 Y137.126 E6.19398
G1 X137.632 Y136.763 E6.21207
G1 X137.834 Y136.445 E6.22655
G1 X137.994 Y136.104 E6.24102
G1 X138.14 Y135.657 E6.25908
G1 X138.199 Y135.188 E6.27724
G1 X138.199 Y134.811 E6.29172
G1 X138.14 Y134.342 E6.30988
G1 X137.994 Y133.895 E6.32794
G1 X137.834 Y133.554 E6.34241
G1 X137.524 Y133.065 E6.36466
G1 X137.876 Y133.043 E6.3782
G1 X138.343 Y132.953 E6.39648
G1 X138.777 Y132.781 E6.41441
G1 X139.191 Y132.554 E6.43255
G1 X139.553 Y132.253 E6.45063
G1 X139.877 Y131.909 E6.46879
G1 X140.18 Y131.43 E6.49056
G1 X140.386 Y130.91 E6.51205
G1 X140.494 Y130.35 E6.53396
G1 X140.494 Y129.878 E6.55209
G1 X140.446 Y129.504 E6.56657
G1 X140.353 Y129.139 E6.58104
G1 X140.18 Y128.703 E6.59906
G1 X139.927 Y128.303 E6.61724
G1 X139.686 Y128.013 E6.63173
G1 X139.342 Y127.689 E6.64988
G1 X138.863 Y127.386 E6.67166
G1 X138.343 Y127.18 E6.69314
G1 X137.876 Y127.09 E6.71141
G1 X137.5 Y127.067 E6.72588
G1 X137.876 Y127.043 E6.74036
G1 X138.343 Y126.953 E6.75863
G1 X138.777 Y126.781 E6.77656
G1 X139.191 Y126.554 E6.7947
G1 X139.553 Y126.253 E6.81278
G1 X139.877 Y125.909 E6.83094
G1 X140.18 Y125.43 E6.85271
G1 X140.386 Y124.91 E6.8742
G1 X140.494 Y124.35 E6.89611
