;FLAVOR:Marlin
;TIME:5044.46
;Filament used:8.69123m
;Material Diameter:1.75
;Material Density:1.24
;Filament Cost:0.518440
;Filament Weight:25.922018
;Filament Length:8.691228
;Layer height:0.2
;MINX:2.057
;MINY:2.451
;MINZ:0.2
;MAXX:158.794
;MAXY:145.2
;MAXZ:40.4
;OuterWall Time:1678.91
;InnerWall Time:1011.49
;Skin Time:2057.24
;Support Time:0
;SkirtBrim Time:20.6314
;Infill Time:0
;Support Infills Time:0
;Combing Time:54.8092
;Retraction Time:221.384
;PrimeTower Time:0

;
;;;;;;;;;;;;;;;;;;;;;;;;;;;;;;;;;;;;;;;;;;;;;;;;;;;;;;;;;;;;;;;;;;;;;;;;;;;;
;Creality Print GCode Generated by CXEngine
;CRSLICE_GIT_HASH:58ee74d
;Creality Print Version : V4.3.8.6984
;CXEngine Release Time:2023-12-04 18:16:29
;Gcode Generated Time:2025-01-14 23:38:31
;----------Machine Config--------------
;Machine Name:Ender-3 V3 SE
;Machine Height:250
;Machine Width:220
;Machine Depth:220
;Material Type:PLA
;Material Name:Hyper PLA_1.75
;Number of Extruders:1
;ExtruderParams[0] Nozzle Diameter:1000
;----------Profile Config---------------
;Wall Thickness:0.8
;Top/Bottom Thickness:0.8
;Out Wall Line Width:0.42
;Inner Wall Line Width:0.45
;Inital Height:200
;Wall Line Count:2
;Infill Line Distance:8
;Infill Pattern:grid
;Infill Sparse Density:10
;Infill Wipe Distance:0
;Print Temperature:190
;Bed Temperature:60
;Support Enable:false
;Support Density:15
;Support Angle:60
;Adhesion Type:lace
;machine is belt:false
;machine belt offset:10
;machine belt offset Y:0
;Raft Base Line Spacing:1.6
;Wait Heatup Sync:true
;Enable Ironing:false
;Material Type:PLA
;Max volumetric speed:23
;Preview Img Type:png
;Screen Size:Sermoon D3
;----------Shell Config----------------
;Outer Wall Wipe Distance:2000
;Outer Inset First:false
;Infill Before Walls:false
;Infill Overlap:0.09
;Fill Gaps Between Walls:everywhere
;Minimum Infill Area:30
;Top Surface Skin Layer:0
;Top Layers:5
;Z Seam Alignment:sharpest_corner
;Seam Corner Preference:z_seam_corner_inner
;Z Seam X:110
;Z Seam Y:220
;Horizontal Expansion:0
;Top/Bottom Pattern:zigzag
;Ironing Pattern:zigzag
;Vase Model:false
;----------Support Config----------------
;Support Type:everywhere
;Support Pattern:zigzag
;Support Infill Layer Thickness:0.2
;Minimum Support Area:1
;Enable Support Roof:true
;Support Roof Thickness:0.8
;Support Roof Pattern:lines
;Connect Support Lines:0
;Connect Support ZigZags:1
;Minimum Support X/Y Distance:0.2
;Support Line Distance:2.67
; ---------PrintSpeed & Travel----------
;Enable Print Cool:true
;Avoid Printed Parts Traveling:true
;Enable Retraction:true
;Retraction Distance:1.2
;Retraction Speed:30
;Retraction Prime Speed:30
;Maximum Retraction Count:100
;Minimum Extrusion Distance Window:0.8
;Z Hop When Retracted:true
;Z Hop Height:0.4
;Retract Before Outer Wall:true

;Outer Wall Speed:60
;Inner Wall Speed:90
;Infill Speed:180
;Top/Bottom Speed:50
;Travel Speed:150
;Initial Layer Speed:20
;Skirt/Brim Speed:25
;Prime Tower Speed:60
;Outer Wall Acceleration:1000
;Inner Wall Acceleration:2000
;Infill Acceleration:2500
;Top/Bottom Acceleration:2500
;Travel Acceleration:2500
;Initial Layer Print Acceleration:500
;Initial Layer Travel Acceleration:500
;Skirt/Brim Acceleration:500
;Combing Mode:off
; --------SpecialModel&Mesh Fixes--------
;Union Overlapping Volum:true
;Remove All Holes:false
;Maximum Travel Resolution:0.25
;Maximum Deviation:0.05
;Maximum Model Angle:0.872665
;IS Mold Print:false
;Make Overhang Printable:false
;Enable Coasting:false
;Coasting Volumes:0.064
;Coasting Speed:0.9
;Raft AirGap:0.25
;Layer0 ZOverLap:0.13
;Adaptive Layers:0
;---------------------End of Head--------------------------
M140 S60
M105
M190 S60
M104 S190
M82 ;absolute extrusion mode
M220 S100 ;Reset Feedrate
M221 S100 ;Reset Flowrate

G28 ;Home

G92 E0 ;Reset Extruder
G1 Z2.0 F3000 ;Move Z Axis up
G1 X-2.1 Y20 Z0.28 F5000.0 ;Move to start position
M109 S190.000000
G1 X-2.1 Y145.0 Z0.28 F1500.0 E15 ;Draw the first line
G1 X-2.4 Y145.0 Z0.28 F5000.0 ;Move to side a little
G1 X-2.4 Y20 Z0.28 F1500.0 E30 ;Draw the second line
G92 E0  ;Reset Extruder
G1 E-1.0000 F1800 ;Retract a bit
G1 Z2.0 F3000 ;Move Z Axis up
G1 E0.0000 F1800 

G92 E0
G92 E0
G1 F1800 E-1.2
;LAYER_COUNT:200

;LAYER:0
M106 S0
M204 S500
;;retract;;
G1 F1800 E0
G1 F1800 E-1.2
G0 F4800 X2.057 Y2.451 Z20.401
G0 X63.68 Y75.881 Z0.6
;TYPE:SKIRT
G1 F600 Z0.2
G1 F1800 E0
G1 F1500 X63.379 Y76.245 E0.01814
G1 X63.126 Y76.645 E0.03633
G1 X62.92 Y77.165 E0.05781
G1 X62.812 Y77.725 E0.07972
G1 X62.812 Y78.291 E0.10147
G1 X62.92 Y78.851 E0.12337
G1 X63.092 Y79.285 E0.14131
G1 X63.32 Y79.7 E0.1595
G1 X63.62 Y80.062 E0.17756
G1 X63.894 Y80.32 E0.19202
G1 X64.199 Y80.541 E0.20649
G1 X64.529 Y80.723 E0.22096
G1 X64.879 Y80.861 E0.23542
G1 X65.244 Y80.955 E0.2499
G1 X65.8 Y81.025 E0.27142
G1 X65.8 Y81.214 E0.27868
G1 X65.424 Y81.237 E0.29315
G1 X65.053 Y81.308 E0.30767
G1 X64.605 Y81.453 E0.32575
G1 X64.192 Y81.681 E0.34388
G1 X63.887 Y81.902 E0.35835
G1 X63.613 Y82.16 E0.3728
G1 X63.316 Y82.518 E0.39067
G1 X63.085 Y82.936 E0.40902
G1 X62.912 Y83.372 E0.42704
G1 X62.805 Y83.932 E0.44894
G1 X62.805 Y84.497 E0.47065
G1 X62.913 Y85.057 E0.49256
G1 X63.119 Y85.577 E0.51404
G1 X63.421 Y86.055 E0.53576
G1 X63.746 Y86.401 E0.554
G1 X64.036 Y86.641 E0.56846
G1 X64.354 Y86.843 E0.58293
G1 X64.695 Y87.003 E0.5974
G1 X65.142 Y87.149 E0.61547
G1 X65.705 Y87.22 E0.63726
G1 X65.424 Y87.237 E0.64808
G1 X65.053 Y87.308 E0.66259
G1 X64.605 Y87.453 E0.68068
G1 X64.192 Y87.681 E0.6988
G1 X63.887 Y87.902 E0.71327
G1 X63.613 Y88.16 E0.72773
G1 X63.316 Y88.518 E0.7456
G1 X63.085 Y88.936 E0.76394
G1 X62.912 Y89.372 E0.78196
G1 X62.805 Y89.932 E0.80387
G1 X62.805 Y90.497 E0.82557
G1 X62.913 Y91.057 E0.84748
G1 X63.119 Y91.577 E0.86897
G1 X63.421 Y92.055 E0.89069
G1 X63.746 Y92.401 E0.90892
G1 X64.036 Y92.641 E0.92338
G1 X64.354 Y92.843 E0.93786
G1 X64.695 Y93.003 E0.95233
G1 X65.142 Y93.149 E0.97039
G1 X65.705 Y93.22 E0.99219
G1 X65.424 Y93.237 E1.003
G1 X65.053 Y93.308 E1.01751
G1 X64.605 Y93.453 E1.0356
G1 X64.192 Y93.681 E1.05373
G1 X63.887 Y93.902 E1.0682
G1 X63.613 Y94.16 E1.08265
G1 X63.316 Y94.518 E1.10052
G1 X63.085 Y94.936 E1.11887
G1 X62.912 Y95.372 E1.13689
G1 X62.805 Y95.932 E1.15879
G1 X62.805 Y96.497 E1.1805
G1 X62.913 Y97.057 E1.2024
G1 X63.119 Y97.577 E1.22389
G1 X63.421 Y98.055 E1.24561
G1 X63.746 Y98.401 E1.26385
G1 X64.036 Y98.641 E1.27831
G1 X64.354 Y98.843 E1.29278
G1 X64.695 Y99.003 E1.30725
G1 X65.142 Y99.149 E1.32531
G1 X65.705 Y99.22 E1.34711
G1 X65.424 Y99.237 E1.35793
G1 X65.053 Y99.308 E1.37244
G1 X64.605 Y99.453 E1.39053
G1 X64.192 Y99.681 E1.40865
G1 X63.887 Y99.902 E1.42312
G1 X63.613 Y100.16 E1.43758
G1 X63.316 Y100.518 E1.45545
G1 X63.085 Y100.936 E1.47379
G1 X62.912 Y101.372 E1.49181
G1 X62.805 Y101.932 E1.51371
G1 X62.805 Y102.497 E1.53542
G1 X62.913 Y103.057 E1.55733
G1 X63.119 Y103.577 E1.57882
G1 X63.421 Y104.055 E1.60054
G1 X63.746 Y104.401 E1.61877
G1 X64.036 Y104.641 E1.63323
G1 X64.354 Y104.843 E1.6477
G1 X64.695 Y105.003 E1.66217
G1 X65.142 Y105.149 E1.68024
G1 X65.783 Y105.23 E1.70506
G1 X65.775 Y105.627 E1.72031
G1 X65.419 Y105.633 E1.73399
G1 X64.867 Y105.738 E1.75558
G1 X64.433 Y105.911 E1.77352
G1 X64.103 Y106.092 E1.78798
G1 X63.798 Y106.314 E1.80248
G1 X63.523 Y106.572 E1.81696
G1 X63.283 Y106.862 E1.83142
G1 X63.081 Y107.18 E1.84589
G1 X62.88 Y107.608 E1.86406
G1 X62.763 Y108.063 E1.88211
G1 X62.716 Y108.437 E1.89659
G1 X62.716 Y108.814 E1.91107
G1 X62.763 Y109.188 E1.92555
G1 X62.881 Y109.645 E1.94368
G1 X63.081 Y110.071 E1.96176
G1 X63.283 Y110.389 E1.97623
G1 X63.523 Y110.679 E1.99069
G1 X63.798 Y110.937 E2.00518
G1 X64.103 Y111.158 E2.01965
G1 X64.433 Y111.34 E2.03413
G1 X64.867 Y111.512 E2.05206
G1 X65.538 Y111.641 E2.07831
G1 X65.518 Y111.879 E2.08748
G1 X65.148 Y111.86 E2.10172
G1 X64.685 Y111.918 E2.11964
G1 X64.23 Y112.035 E2.13769
G1 X63.802 Y112.236 E2.15585
G1 X63.484 Y112.438 E2.17033
G1 X63.121 Y112.739 E2.18844
G1 X62.82 Y113.102 E2.20656
G1 X62.618 Y113.42 E2.22103
G1 X62.458 Y113.761 E2.2355
G1 X62.312 Y114.208 E2.25356
G1 X62.253 Y114.677 E2.27172
G1 X62.253 Y115.054 E2.2862
G1 X62.312 Y115.522 E2.30433
G1 X62.458 Y115.97 E2.32243
G1 X62.618 Y116.311 E2.3369
G1 X62.82 Y116.629 E2.35137
G1 X63.06 Y116.919 E2.36583
G1 X63.335 Y117.177 E2.38032
G1 X63.64 Y117.398 E2.39478
G1 X64.053 Y117.626 E2.41291
G1 X64.501 Y117.771 E2.431
G1 X64.889 Y117.844 E2.44616
G1 X64.77 Y118.681 E2.47864
G1 X64.486 Y118.648 E2.48962
G1 X64.109 Y118.648 E2.50411
G1 X63.641 Y118.707 E2.52223
G1 X63.101 Y118.883 E2.54405
G1 X62.607 Y119.155 E2.56571
G1 X62.244 Y119.455 E2.5838
G1 X61.986 Y119.73 E2.59829
G1 X61.765 Y120.034 E2.61272
G1 X61.583 Y120.365 E2.62723
G1 X61.409 Y120.805 E2.64541
G1 X61.321 Y121.266 E2.66344
G1 X61.298 Y121.642 E2.67791
G1 X61.321 Y122.018 E2.69238
G1 X61.409 Y122.479 E2.71041
G1 X61.583 Y122.919 E2.72859
G1 X61.765 Y123.249 E2.74307
G1 X61.986 Y123.554 E2.75753
G1 X62.244 Y123.829 E2.77202
G1 X62.534 Y124.069 E2.78648
G1 X62.853 Y124.271 E2.80099
G1 X63.193 Y124.431 E2.81542
G1 X63.552 Y124.548 E2.82993
G1 X63.922 Y124.618 E2.84439
G1 X64.2 Y124.639 E2.8551
G1 X64.2 Y124.664 E2.85606
G1 X63.823 Y124.688 E2.87057
G1 X63.356 Y124.778 E2.88884
G1 X62.922 Y124.95 E2.90678
G1 X62.508 Y125.177 E2.92492
G1 X62.146 Y125.478 E2.943
G1 X61.822 Y125.822 E2.96116
G1 X61.519 Y126.301 E2.98293
G1 X61.313 Y126.821 E3.00442
G1 X61.205 Y127.381 E3.02632
G1 X61.205 Y127.946 E3.04803
G1 X61.294 Y128.411 E3.06622
G1 X61.41 Y128.769 E3.08067
G1 X61.571 Y129.11 E3.09516
G1 X61.772 Y129.428 E3.10961
G1 X62.013 Y129.718 E3.1241
G1 X62.287 Y129.976 E3.13855
G1 X62.592 Y130.197 E3.15302
G1 X62.922 Y130.379 E3.1675
G1 X63.356 Y130.551 E3.18543
G1 X63.823 Y130.641 E3.20371
G1 X64.199 Y130.664 E3.21818
G1 X64.2 Y131.078 E3.23408
G1 X63.771 Y131.163 E3.25088
G1 X63.339 Y131.334 E3.26873
G1 X63.008 Y131.516 E3.28324
G1 X62.627 Y131.793 E3.30134
G1 X62.304 Y132.136 E3.31944
G1 X62.083 Y132.441 E3.3339
G1 X61.901 Y132.771 E3.34838
G1 X61.763 Y133.122 E3.36287
G1 X61.669 Y133.487 E3.37735
G1 X61.622 Y133.86 E3.39179
G1 X61.622 Y134.237 E3.40627
G1 X61.669 Y134.611 E3.42075
G1 X61.763 Y134.976 E3.43523
G1 X61.901 Y135.326 E3.44969
G1 X62.083 Y135.656 E3.46416
G1 X62.304 Y135.961 E3.47863
G1 X62.562 Y136.236 E3.49312
G1 X62.853 Y136.476 E3.50761
G1 X63.171 Y136.678 E3.52208
G1 X63.599 Y136.879 E3.54025
G1 X64.054 Y136.996 E3.55829
G1 X64.523 Y137.055 E3.57645
G1 X65.207 Y137.011 E3.60278
G1 X65.329 Y137.662 E3.62823
G1 X64.786 Y137.878 E3.65068
G1 X64.371 Y138.106 E3.66887
G1 X64.009 Y138.406 E3.68693
G1 X63.751 Y138.68 E3.70139
G1 X63.53 Y138.985 E3.71585
G1 X63.348 Y139.315 E3.73033
G1 X63.21 Y139.665 E3.74478
G1 X63.116 Y140.03 E3.75926
G1 X63.069 Y140.404 E3.77374
G1 X63.069 Y140.781 E3.78823
G1 X63.116 Y141.155 E3.80271
G1 X63.21 Y141.52 E3.81719
G1 X63.348 Y141.87 E3.83164
G1 X63.53 Y142.2 E3.84612
G1 X63.751 Y142.505 E3.86059
G1 X64.009 Y142.779 E3.87504
G1 X64.372 Y143.081 E3.89318
G1 X64.873 Y143.354 E3.9151
G1 X65.317 Y143.498 E3.93303
G1 X65.687 Y143.569 E3.94751
G1 X66.063 Y143.593 E3.96198
G1 X66.439 Y143.569 E3.97645
G1 X66.906 Y143.479 E3.99472
G1 X67.34 Y143.307 E4.01266
G1 X67.753 Y143.081 E4.03074
G1 X68.19 Y142.719 E4.05254
G1 X68.49 Y142.356 E4.07063
G1 X68.692 Y142.038 E4.0851
G1 X68.852 Y141.697 E4.09957
G1 X68.998 Y141.25 E4.11764
G1 X69.068 Y140.69 E4.13932
G1 X69.086 Y140.976 E4.15033
G1 X69.176 Y141.443 E4.1686
G1 X69.348 Y141.877 E4.18653
G1 X69.53 Y142.207 E4.20101
G1 X69.804 Y142.585 E4.21894
G1 X70.15 Y142.911 E4.23721
G1 X70.455 Y143.133 E4.2517
G1 X70.869 Y143.36 E4.26984
G1 X71.316 Y143.505 E4.28789
G1 X71.687 Y143.576 E4.3024
G1 X72.063 Y143.6 E4.31687
G1 X72.439 Y143.576 E4.33135
G1 X72.906 Y143.486 E4.34962
G1 X73.34 Y143.314 E4.36755
G1 X73.754 Y143.087 E4.38569
G1 X74.116 Y142.786 E4.40377
G1 X74.374 Y142.512 E4.41823
G1 X74.596 Y142.207 E4.43272
G1 X74.777 Y141.877 E4.44718
G1 X74.949 Y141.443 E4.46512
G1 X75.039 Y140.976 E4.48339
G1 X75.063 Y140.6 E4.49786
G1 X75.086 Y140.976 E4.51233
G1 X75.176 Y141.443 E4.5306
G1 X75.348 Y141.877 E4.54853
G1 X75.53 Y142.207 E4.56301
G1 X75.804 Y142.585 E4.58095
G1 X76.15 Y142.911 E4.59921
G1 X76.455 Y143.133 E4.6137
G1 X76.869 Y143.36 E4.63184
G1 X77.316 Y143.505 E4.64989
G1 X77.687 Y143.576 E4.6644
G1 X78.063 Y143.6 E4.67888
G1 X78.439 Y143.576 E4.69335
G1 X78.906 Y143.486 E4.71162
G1 X79.34 Y143.314 E4.72955
G1 X79.754 Y143.087 E4.74769
G1 X80.116 Y142.786 E4.76578
G1 X80.374 Y142.512 E4.78023
G1 X80.596 Y142.207 E4.79473
G1 X80.777 Y141.877 E4.80918
G1 X80.949 Y141.443 E4.82712
G1 X81.039 Y140.976 E4.84539
G1 X81.063 Y140.6 E4.85986
G1 X81.086 Y140.976 E4.87433
G1 X81.176 Y141.443 E4.8926
G1 X81.348 Y141.877 E4.91054
G1 X81.53 Y142.207 E4.92501
G1 X81.804 Y142.585 E4.94295
G1 X82.15 Y142.911 E4.96121
G1 X82.455 Y143.133 E4.9757
G1 X82.869 Y143.36 E4.99384
G1 X83.316 Y143.505 E5.01189
G1 X83.687 Y143.576 E5.0264
G1 X84.063 Y143.6 E5.04088
G1 X84.439 Y143.576 E5.05535
G1 X84.906 Y143.486 E5.07362
G1 X85.34 Y143.314 E5.09156
G1 X85.754 Y143.087 E5.10969
G1 X86.116 Y142.786 E5.12778
G1 X86.374 Y142.512 E5.14224
G1 X86.596 Y142.207 E5.15673
G1 X86.777 Y141.877 E5.17119
G1 X86.949 Y141.443 E5.18912
G1 X87.039 Y140.976 E5.20739
G1 X87.063 Y140.613 E5.22137
G1 X87.069 Y140.865 E5.23105
G1 X87.116 Y141.239 E5.24553
G1 X87.21 Y141.604 E5.26001
G1 X87.348 Y141.954 E5.27446
G1 X87.53 Y142.284 E5.28894
G1 X87.751 Y142.589 E5.30341
G1 X88.009 Y142.864 E5.31789
G1 X88.3 Y143.104 E5.33239
G1 X88.618 Y143.306 E5.34686
G1 X89.046 Y143.507 E5.36502
G1 X89.501 Y143.624 E5.38307
G1 X89.875 Y143.671 E5.39755
G1 X90.251 Y143.671 E5.41199
G1 X90.625 Y143.624 E5.42647
G1 X91.08 Y143.507 E5.44452
G1 X91.508 Y143.306 E5.46269
G1 X91.826 Y143.104 E5.47716
G1 X92.187 Y142.807 E5.49512
G1 X92.49 Y142.44 E5.5134
G1 X92.692 Y142.122 E5.52787
G1 X92.852 Y141.781 E5.54234
G1 X92.969 Y141.423 E5.55681
G1 X93.047 Y141.01 E5.57296
G1 X93.074 Y141.443 E5.58962
G1 X93.145 Y141.813 E5.6041
G1 X93.29 Y142.261 E5.62219
G1 X93.518 Y142.674 E5.64031
G1 X93.739 Y142.979 E5.65478
G1 X93.997 Y143.254 E5.66926
G1 X94.287 Y143.494 E5.68372
G1 X94.605 Y143.696 E5.6982
G1 X95.032 Y143.896 E5.71631
G1 X95.489 Y144.014 E5.73444
G1 X95.862 Y144.061 E5.74888
G1 X96.239 Y144.061 E5.76337
G1 X96.613 Y144.014 E5.77785
G1 X97.068 Y143.897 E5.79589
G1 X97.496 Y143.696 E5.81406
G1 X97.814 Y143.494 E5.82853
G1 X98.177 Y143.193 E5.84665
G1 X98.478 Y142.83 E5.86476
G1 X98.68 Y142.512 E5.87923
G1 X98.881 Y142.084 E5.8974
G1 X99.009 Y141.586 E5.91715
G1 X99.009 Y142.008 E5.93336
G1 X99.056 Y142.382 E5.94784
G1 X99.173 Y142.837 E5.96589
G1 X99.374 Y143.265 E5.98406
G1 X99.576 Y143.583 E5.99853
G1 X99.816 Y143.874 E6.01302
G1 X100.091 Y144.132 E6.0275
G1 X100.396 Y144.353 E6.04197
G1 X100.726 Y144.535 E6.05645
G1 X101.076 Y144.673 E6.0709
G1 X101.441 Y144.767 E6.08538
G1 X101.815 Y144.814 E6.09986
G1 X102.192 Y144.814 E6.11435
G1 X102.565 Y144.767 E6.12879
G1 X102.93 Y144.673 E6.14327
G1 X103.281 Y144.535 E6.15776
G1 X103.611 Y144.353 E6.17223
G1 X103.916 Y144.132 E6.1867
G1 X104.259 Y143.809 E6.2048
G1 X104.536 Y143.428 E6.2229
G1 X104.764 Y143.013 E6.24109
G1 X104.909 Y142.566 E6.25914
G1 X104.971 Y142.243 E6.27177
G1 X105.048 Y142.857 E6.29555
G1 X105.194 Y143.304 E6.31361
G1 X105.354 Y143.645 E6.32808
G1 X105.556 Y143.963 E6.34255
G1 X105.856 Y144.326 E6.36064
G1 X106.22 Y144.627 E6.37879
G1 X106.62 Y144.88 E6.39697
G1 X107.14 Y145.086 E6.41846
G1 X107.607 Y145.176 E6.43673
G1 X107.983 Y145.2 E6.4512
G1 X108.359 Y145.176 E6.46567
G1 X108.826 Y145.086 E6.48394
G1 X109.26 Y144.914 E6.50188
G1 X109.675 Y144.686 E6.52007
G1 X110.037 Y144.386 E6.53813
G1 X110.295 Y144.112 E6.55259
G1 X110.516 Y143.807 E6.56706
G1 X110.698 Y143.477 E6.58153
G1 X110.836 Y143.127 E6.59599
G1 X110.93 Y142.762 E6.61047
G1 X110.989 Y142.294 E6.62859
G1 X111.006 Y142.572 E6.63929
G1 X111.095 Y143.038 E6.65751
G1 X111.268 Y143.474 E6.67553
G1 X111.45 Y143.804 E6.69001
G1 X111.724 Y144.182 E6.70794
G1 X112.07 Y144.508 E6.7262
G1 X112.375 Y144.729 E6.74067
G1 X112.789 Y144.957 E6.75883
G1 X113.237 Y145.102 E6.77692
