;FLAVOR:Marlin
;TIME:3064.38
;Filament used:4.59208m
;Material Diameter:1.75
;Material Density:1.24
;Filament Cost:0.273922
;Filament Weight:13.696115
;Filament Length:4.592083
;Layer height:0.2
;MINX:1.819
;MINY:2.632
;MINZ:0.2
;MAXX:162.998
;MAXY:137.999
;MAXZ:20.401
;OuterWall Time:209.02
;InnerWall Time:144.725
;Skin Time:2322.57
;Support Time:0
;SkirtBrim Time:20.0527
;Infill Time:147.141
;Support Infills Time:0
;Combing Time:57.5015
;Retraction Time:163.364
;PrimeTower Time:0
;;;;;;;;;;;;;;;;;;;;;;;;;;;;;;;;;;;;;;;;;;;;;;;;;;;;;;;;;;;;;;;;;;;;;;;
;Creality Print GCode Generated by CXEngine
;CRSLICE_GIT_HASH:58ee74d
;Creality Print Version : V4.3.8.6984
;CXEngine Release Time:2023-12-04 18:16:29
;Gcode Generated Time:2024-05-14 19:48:22
;----------Machine Config--------------
;Machine Name:Ender-3 V3 SE
;Machine Height:250
;Machine Width:220
;Machine Depth:220
;Material Type:PLA
;Material Name:CR-PLA_1.75
;Number of Extruders:1
;ExtruderParams[0] Nozzle Diameter:1000
;----------Profile Config---------------
;Wall Thickness:0.8
;Top/Bottom Thickness:0.8
;Out Wall Line Width:0.42
;Inner Wall Line Width:0.45
;Inital Height:200
;Wall Line Count:2
;Infill Line Distance:8
;Infill Pattern:grid
;Infill Sparse Density:10
;Infill Wipe Distance:0
;Print Temperature:195
;Bed Temperature:60
;Support Enable:false
;Support Density:15
;Support Angle:60
;Adhesion Type:lace
;machine is belt:false
;machine belt offset:10
;machine belt offset Y:0
;Raft Base Line Spacing:1.6
;Wait Heatup Sync:true
;Enable Ironing:false
;Material Type:PLA
;Max volumetric speed:20
;Preview Img Type:png
;Screen Size:Sermoon D3
;----------Shell Config----------------
;Outer Wall Wipe Distance:2000
;Outer Inset First:false
;Infill Before Walls:false
;Infill Overlap:0.09
;Fill Gaps Between Walls:everywhere
;Minimum Infill Area:30
;Top Surface Skin Layer:0
;Top Layers:4
;Z Seam Alignment:sharpest_corner
;Seam Corner Preference:z_seam_corner_inner
;Z Seam X:110
;Z Seam Y:220
;Horizontal Expansion:0
;Top/Bottom Pattern:zigzag
;Ironing Pattern:zigzag
;Vase Model:false
;----------Support Config----------------
;Support Type:everywhere
;Support Pattern:zigzag
;Support Infill Layer Thickness:0.2
;Minimum Support Area:1
;Enable Support Roof:true
;Support Roof Thickness:0.8
;Support Roof Pattern:lines
;Connect Support Lines:0
;Connect Support ZigZags:1
;Minimum Support X/Y Distance:0.2
;Support Line Distance:2.67
; ---------PrintSpeed & Travel----------
;Enable Print Cool:true
;Avoid Printed Parts Traveling:true
;Enable Retraction:true
;Retraction Distance:1.2
;Retraction Speed:30
;Retraction Prime Speed:30
;Maximum Retraction Count:100
;Minimum Extrusion Distance Window:0.8
;Z Hop When Retracted:true
;Z Hop Height:0.4
;Retract Before Outer Wall:true

;Outer Wall Speed:60
;Inner Wall Speed:90
;Infill Speed:180
;Top/Bottom Speed:50
;Travel Speed:150
;Initial Layer Speed:20
;Skirt/Brim Speed:25
;Prime Tower Speed:60
;Outer Wall Acceleration:1000
;Inner Wall Acceleration:2000
;Infill Acceleration:2500
;Top/Bottom Acceleration:2500
;Travel Acceleration:2500
;Initial Layer Print Acceleration:500
;Initial Layer Travel Acceleration:500
;Skirt/Brim Acceleration:500
;Combing Mode:off
; --------SpecialModel&Mesh Fixes--------
;Union Overlapping Volum:true
;Remove All Holes:false
;Maximum Travel Resolution:0.25
;Maximum Deviation:0.05
;Maximum Model Angle:0.872665
;IS Mold Print:false
;Make Overhang Printable:false
;Enable Coasting:false
;Coasting Volumes:0.064
;Coasting Speed:0.9
;Raft AirGap:0.25
;Layer0 ZOverLap:0.13
;Adaptive Layers:0
;---------------------End of Head--------------------------
M140 S60
M105
M190 S60
M104 S195
M82 ;absolute extrusion mode
M220 S100 ;Reset Feedrate
M221 S100 ;Reset Flowrate

G28 ;Home

G92 E0 ;Reset Extruder
G1 Z2.0 F3000 ;Move Z Axis up
G1 X-2.1 Y20 Z0.28 F5000.0 ;Move to start position
M109 S195.000000
G1 X-2.1 Y145.0 Z0.28 F1500.0 E15 ;Draw the first line
G1 X-2.4 Y145.0 Z0.28 F5000.0 ;Move to side a little
G1 X-2.4 Y20 Z0.28 F1500.0 E30 ;Draw the second line
G92 E0  ;Reset Extruder
G1 E-1.0000 F1800 ;Retract a bit
G1 Z2.0 F3000 ;Move Z Axis up
G1 E0.0000 F1800 

G92 E0
G92 E0
G1 F1800 E-1.2
;LAYER_COUNT:25

;LAYER:0
M106 S0
M204 S500
;;retract;;
G1 F1800 E0
G1 F1800 E-1.2
G0 F4800 X1.819 Y2.632 Z20.401
G0 X58.52 Y84.651 Z0.6
;TYPE:SKIRT
G1 F600 Z0.2
G1 F1800 E0
G1 F1500 X58.215 Y84.872 E0.01447
G1 X57.94 Y85.13 E0.02895
G1 X57.7 Y85.42 E0.04342
G1 X57.498 Y85.738 E0.05789
G1 X57.338 Y86.079 E0.07236
G1 X57.192 Y86.526 E0.09042
G1 X57.133 Y86.995 E0.10858
G1 X57.133 Y87.372 E0.12306
G1 X57.192 Y87.841 E0.14122
G1 X57.338 Y88.288 E0.15929
G1 X57.498 Y88.629 E0.17376
G1 X57.7 Y88.947 E0.18823
G1 X57.94 Y89.237 E0.20269
G1 X58.215 Y89.495 E0.21718
G1 X58.52 Y89.717 E0.23167
G1 X58.85 Y89.898 E0.24613
G1 X59.284 Y90.07 E0.26406
G1 X59.751 Y90.16 E0.28233
G1 X60.001 Y90.18 E0.29197
G1 X60.001 Y90.266 E0.29527
G1 X59.438 Y90.338 E0.31707
G1 X59.073 Y90.431 E0.33154
G1 X58.637 Y90.604 E0.34956
G1 X58.237 Y90.857 E0.36774
G1 X57.947 Y91.098 E0.38223
G1 X57.623 Y91.442 E0.40038
G1 X57.32 Y91.921 E0.42216
G1 X57.114 Y92.441 E0.44364
G1 X57.006 Y93.001 E0.46555
G1 X57.006 Y93.473 E0.48368
G1 X57.054 Y93.847 E0.49817
G1 X57.147 Y94.212 E0.51264
G1 X57.32 Y94.648 E0.53066
G1 X57.573 Y95.048 E0.54884
G1 X57.814 Y95.338 E0.56333
G1 X58.158 Y95.662 E0.58148
G1 X58.637 Y95.965 E0.60325
G1 X59.157 Y96.172 E0.62475
G1 X59.625 Y96.261 E0.64305
G1 X59.905 Y96.278 E0.65383
G1 X59.438 Y96.338 E0.67192
G1 X59.073 Y96.431 E0.68639
G1 X58.637 Y96.604 E0.70441
G1 X58.237 Y96.857 E0.72259
G1 X57.947 Y97.098 E0.73707
G1 X57.623 Y97.442 E0.75523
G1 X57.32 Y97.921 E0.777
G1 X57.114 Y98.441 E0.79849
G1 X57.006 Y99.001 E0.8204
G1 X57.006 Y99.473 E0.83853
G1 X57.054 Y99.847 E0.85301
G1 X57.147 Y100.212 E0.86748
G1 X57.32 Y100.648 E0.8855
G1 X57.573 Y101.048 E0.90368
G1 X57.814 Y101.338 E0.91817
G1 X58.158 Y101.662 E0.93632
G1 X58.637 Y101.965 E0.9581
G1 X59.157 Y102.172 E0.9796
G1 X59.625 Y102.261 E0.9979
G1 X59.905 Y102.278 E1.00867
G1 X59.438 Y102.338 E1.02676
G1 X59.073 Y102.431 E1.04123
G1 X58.637 Y102.604 E1.05925
G1 X58.237 Y102.857 E1.07743
G1 X57.947 Y103.098 E1.09192
G1 X57.623 Y103.442 E1.11007
G1 X57.32 Y103.921 E1.13184
G1 X57.114 Y104.441 E1.15333
G1 X57.006 Y105.001 E1.17524
G1 X57.006 Y105.473 E1.19337
G1 X57.054 Y105.847 E1.20786
G1 X57.147 Y106.212 E1.22233
G1 X57.32 Y106.648 E1.24035
G1 X57.573 Y107.048 E1.25853
G1 X57.814 Y107.338 E1.27301
G1 X58.158 Y107.662 E1.29117
G1 X58.637 Y107.965 E1.31294
G1 X59.157 Y108.172 E1.33444
G1 X59.625 Y108.261 E1.35274
G1 X59.905 Y108.278 E1.36352
G1 X59.438 Y108.338 E1.38161
G1 X59.073 Y108.431 E1.39608
G1 X58.637 Y108.604 E1.41409
G1 X58.237 Y108.857 E1.43228
G1 X57.947 Y109.098 E1.44676
G1 X57.623 Y109.442 E1.46492
G1 X57.32 Y109.921 E1.48669
G1 X57.114 Y110.441 E1.50818
G1 X57.006 Y111.001 E1.53008
G1 X57.006 Y111.473 E1.54822
G1 X57.054 Y111.847 E1.5627
G1 X57.147 Y112.212 E1.57717
G1 X57.32 Y112.648 E1.59519
G1 X57.573 Y113.048 E1.61337
G1 X57.814 Y113.338 E1.62786
G1 X58.158 Y113.662 E1.64601
G1 X58.637 Y113.965 E1.66779
G1 X59.157 Y114.172 E1.68929
G1 X59.625 Y114.261 E1.70759
G1 X59.905 Y114.278 E1.71836
G1 X59.438 Y114.338 E1.73645
G1 X59.073 Y114.431 E1.75092
G1 X58.637 Y114.604 E1.76894
G1 X58.237 Y114.857 E1.78712
G1 X57.947 Y115.098 E1.80161
G1 X57.623 Y115.442 E1.81976
G1 X57.32 Y115.921 E1.84153
G1 X57.114 Y116.441 E1.86302
G1 X57.006 Y117.001 E1.88493
G1 X57.006 Y117.473 E1.90306
G1 X57.054 Y117.847 E1.91755
G1 X57.147 Y118.212 E1.93202
G1 X57.32 Y118.648 E1.95004
G1 X57.573 Y119.048 E1.96822
G1 X57.814 Y119.338 E1.9827
G1 X58.158 Y119.662 E2.00086
G1 X58.637 Y119.965 E2.02263
G1 X59.157 Y120.172 E2.04413
G1 X59.625 Y120.261 E2.06243
G1 X59.905 Y120.278 E2.07321
G1 X59.438 Y120.338 E2.09129
G1 X59.073 Y120.431 E2.10576
G1 X58.637 Y120.604 E2.12378
G1 X58.237 Y120.857 E2.14197
G1 X57.947 Y121.098 E2.15645
G1 X57.623 Y121.442 E2.1746
G1 X57.32 Y121.921 E2.19638
G1 X57.114 Y122.441 E2.21786
G1 X57.006 Y123.001 E2.23977
G1 X57.006 Y123.473 E2.25791
G1 X57.054 Y123.847 E2.27239
G1 X57.147 Y124.212 E2.28686
G1 X57.32 Y124.648 E2.30488
G1 X57.573 Y125.048 E2.32306
G1 X57.814 Y125.338 E2.33755
G1 X58.158 Y125.662 E2.3557
G1 X58.637 Y125.965 E2.37747
G1 X59.157 Y126.172 E2.39897
G1 X59.625 Y126.261 E2.41727
G1 X59.905 Y126.278 E2.42805
G1 X59.438 Y126.338 E2.44614
G1 X59.073 Y126.431 E2.46061
G1 X58.637 Y126.604 E2.47863
G1 X58.237 Y126.857 E2.49681
G1 X57.947 Y127.098 E2.51129
G1 X57.623 Y127.442 E2.52945
G1 X57.32 Y127.921 E2.55122
G1 X57.114 Y128.441 E2.57271
G1 X57.006 Y129.001 E2.59462
G1 X57.006 Y129.473 E2.61275
G1 X57.054 Y129.847 E2.62723
G1 X57.147 Y130.212 E2.6417
G1 X57.32 Y130.648 E2.65972
G1 X57.573 Y131.048 E2.67791
G1 X57.814 Y131.338 E2.69239
G1 X58.158 Y131.662 E2.71054
G1 X58.637 Y131.965 E2.73232
G1 X59.157 Y132.172 E2.75382
G1 X59.625 Y132.261 E2.77212
G1 X60.021 Y132.283 E2.78736
G1 X60.1 Y132.808 E2.80775
G1 X59.872 Y133.058 E2.82075
G1 X59.624 Y133.448 E2.8385
G1 X59.464 Y133.789 E2.85297
G1 X59.318 Y134.236 E2.87104
G1 X59.259 Y134.705 E2.8892
G1 X59.259 Y135.082 E2.90368
G1 X59.318 Y135.551 E2.92184
G1 X59.464 Y135.998 E2.9399
G1 X59.624 Y136.339 E2.95437
G1 X59.826 Y136.657 E2.96884
G1 X60.066 Y136.947 E2.98331
G1 X60.341 Y137.205 E2.99779
G1 X60.646 Y137.427 E3.01228
G1 X60.976 Y137.608 E3.02674
G1 X61.41 Y137.78 E3.04468
G1 X61.97 Y137.888 E3.06658
G1 X62.535 Y137.888 E3.08829
G1 X63.095 Y137.781 E3.11019
G1 X63.531 Y137.608 E3.12821
G1 X63.945 Y137.381 E3.14635
G1 X64.307 Y137.08 E3.16443
G1 X64.565 Y136.806 E3.17889
G1 X64.786 Y136.501 E3.19336
G1 X65.014 Y136.088 E3.21148
G1 X65.159 Y135.64 E3.22957
G1 X65.253 Y135.15 E3.24874
G1 X65.305 Y135.561 E3.26465
G1 X65.399 Y135.926 E3.27913
G1 X65.537 Y136.277 E3.29362
G1 X65.719 Y136.607 E3.3081
G1 X65.94 Y136.912 E3.32257
G1 X66.263 Y137.255 E3.34067
G1 X66.644 Y137.532 E3.35876
G1 X67.061 Y137.761 E3.37704
G1 X67.506 Y137.905 E3.39501
G1 X67.876 Y137.976 E3.40948
G1 X68.252 Y137.999 E3.42395
G1 X68.628 Y137.976 E3.43842
G1 X68.998 Y137.905 E3.4529
G1 X69.446 Y137.76 E3.47098
G1 X69.859 Y137.532 E3.48911
G1 X70.164 Y137.311 E3.50358
G1 X70.439 Y137.053 E3.51806
G1 X70.679 Y136.763 E3.53252
G1 X70.881 Y136.445 E3.547
G1 X71.041 Y136.104 E3.56147
G1 X71.187 Y135.656 E3.57957
G1 X71.252 Y135.141 E3.59951
G1 X71.305 Y135.561 E3.61577
G1 X71.399 Y135.926 E3.63025
G1 X71.537 Y136.276 E3.6447
G1 X71.719 Y136.607 E3.65921
G1 X71.997 Y136.989 E3.67736
G1 X72.34 Y137.311 E3.69543
G1 X72.644 Y137.532 E3.70987
G1 X73.055 Y137.758 E3.72789
G1 X73.595 Y137.934 E3.74971
G1 X74.063 Y137.993 E3.76783
G1 X74.44 Y137.993 E3.78231
G1 X74.814 Y137.946 E3.79679
G1 X75.179 Y137.852 E3.81127
G1 X75.529 Y137.714 E3.82573
G1 X75.859 Y137.532 E3.8402
G1 X76.164 Y137.311 E3.85467
G1 X76.439 Y137.053 E3.86916
G1 X76.679 Y136.762 E3.88365
G1 X76.881 Y136.444 E3.89812
G1 X77.041 Y136.103 E3.91259
G1 X77.187 Y135.656 E3.93065
G1 X77.252 Y135.141 E3.9506
G1 X77.305 Y135.561 E3.96686
G1 X77.399 Y135.926 E3.98134
G1 X77.537 Y136.276 E3.99579
G1 X77.719 Y136.606 E4.01027
G1 X77.94 Y136.911 E4.02474
G1 X78.198 Y137.186 E4.03922
G1 X78.489 Y137.426 E4.05371
G1 X78.807 Y137.628 E4.06818
G1 X79.147 Y137.788 E4.08262
G1 X79.595 Y137.934 E4.10072
G1 X80.063 Y137.993 E4.11884
G1 X80.44 Y137.993 E4.13332
G1 X80.909 Y137.934 E4.15148
G1 X81.356 Y137.788 E4.16955
G1 X81.697 Y137.628 E4.18402
G1 X82.015 Y137.426 E4.19849
G1 X82.376 Y137.129 E4.21645
G1 X82.679 Y136.762 E4.23473
G1 X82.881 Y136.444 E4.2492
G1 X83.041 Y136.103 E4.26367
G1 X83.187 Y135.656 E4.28174
G1 X83.252 Y135.141 E4.30168
G1 X83.305 Y135.561 E4.31794
G1 X83.399 Y135.926 E4.33242
G1 X83.537 Y136.276 E4.34687
G1 X83.719 Y136.606 E4.36135
G1 X83.94 Y136.911 E4.37582
G1 X84.198 Y137.185 E4.39028
G1 X84.565 Y137.489 E4.40858
G1 X85.062 Y137.76 E4.43033
G1 X85.506 Y137.904 E4.44826
G1 X85.876 Y137.975 E4.46273
G1 X86.252 Y137.999 E4.47721
G1 X86.628 Y137.975 E4.49168
G1 X87.095 Y137.885 E4.50995
G1 X87.529 Y137.713 E4.52789
G1 X87.942 Y137.487 E4.54597
G1 X88.379 Y137.125 E4.56777
G1 X88.679 Y136.762 E4.58586
G1 X88.881 Y136.444 E4.60033
G1 X89.041 Y136.103 E4.6148
G1 X89.187 Y135.656 E4.63287
G1 X89.252 Y135.141 E4.65281
G1 X89.305 Y135.56 E4.66903
G1 X89.399 Y135.925 E4.68351
G1 X89.537 Y136.276 E4.698
G1 X89.719 Y136.606 E4.71248
G1 X89.94 Y136.911 E4.72695
G1 X90.263 Y137.254 E4.74505
G1 X90.644 Y137.531 E4.76314
G1 X91.061 Y137.76 E4.78142
G1 X91.506 Y137.904 E4.79939
G1 X91.876 Y137.975 E4.81386
G1 X92.252 Y137.998 E4.82833
G1 X92.628 Y137.975 E4.8428
G1 X92.998 Y137.904 E4.85727
G1 X93.446 Y137.759 E4.87536
G1 X93.859 Y137.531 E4.89349
G1 X94.164 Y137.31 E4.90796
G1 X94.439 Y137.052 E4.92244
G1 X94.679 Y136.762 E4.9369
G1 X94.881 Y136.444 E4.95137
G1 X95.041 Y136.103 E4.96584
G1 X95.187 Y135.655 E4.98395
G1 X95.252 Y135.14 E5.00389
G1 X95.305 Y135.56 E5.02015
G1 X95.399 Y135.925 E5.03463
G1 X95.537 Y136.275 E5.04908
G1 X95.719 Y136.605 E5.06356
G1 X95.996 Y136.987 E5.08169
G1 X96.34 Y137.31 E5.09981
G1 X96.719 Y137.586 E5.11782
G1 X97.147 Y137.787 E5.13599
G1 X97.595 Y137.933 E5.15409
G1 X98.063 Y137.992 E5.17221
G1 X98.44 Y137.992 E5.18669
G1 X98.909 Y137.933 E5.20485
G1 X99.356 Y137.787 E5.22292
G1 X99.781 Y137.588 E5.24094
G1 X100.164 Y137.31 E5.25912
G1 X100.439 Y137.052 E5.27361
G1 X100.679 Y136.761 E5.2881
G1 X100.881 Y136.443 E5.30257
G1 X101.041 Y136.102 E5.31704
G1 X101.187 Y135.655 E5.33511
G1 X101.252 Y135.14 E5.35505
G1 X101.305 Y135.56 E5.37131
G1 X101.399 Y135.925 E5.38579
G1 X101.537 Y136.275 E5.40024
G1 X101.719 Y136.605 E5.41472
G1 X101.94 Y136.91 E5.42919
G1 X102.198 Y137.185 E5.44367
G1 X102.489 Y137.425 E5.45816
G1 X102.807 Y137.627 E5.47264
G1 X103.232 Y137.827 E5.49068
G1 X103.69 Y137.945 E5.50885
G1 X104.063 Y137.992 E5.52329
G1 X104.44 Y137.992 E5.53777
G1 X104.814 Y137.945 E5.55226
G1 X105.269 Y137.828 E5.5703
G1 X105.697 Y137.627 E5.58847
G1 X106.015 Y137.425 E5.60294
G1 X106.376 Y137.128 E5.6209
G1 X106.679 Y136.761 E5.63918
G1 X106.881 Y136.443 E5.65365
G1 X107.041 Y136.102 E5.66812
G1 X107.187 Y135.655 E5.68619
G1 X107.252 Y135.14 E5.70613
G1 X107.305 Y135.56 E5.72239
G1 X107.399 Y135.925 E5.73687
G1 X107.537 Y136.275 E5.75132
G1 X107.719 Y136.605 E5.7658
G1 X107.94 Y136.91 E5.78027
G1 X108.198 Y137.184 E5.79473
G1 X108.56 Y137.484 E5.81279
G1 X109.061 Y137.759 E5.83474
G1 X109.506 Y137.903 E5.85271
G1 X109.97 Y137.992 E5.87086
G1 X110.535 Y137.992 E5.89256
G1 X111.095 Y137.884 E5.91447
G1 X111.615 Y137.678 E5.93596
G1 X112.015 Y137.425 E5.95414
G1 X112.379 Y137.124 E5.97229
G1 X112.679 Y136.761 E5.99038
G1 X112.881 Y136.443 E6.00485
G1 X113.041 Y136.102 E6.01932
G1 X113.187 Y135.655 E6.03738
G1 X113.252 Y135.14 E6.05733
G1 X113.305 Y135.559 E6.07355
G1 X113.399 Y135.924 E6.08803
G1 X113.537 Y136.275 E6.10252
G1 X113.719 Y136.605 E6.11699
G1 X113.94 Y136.91 E6.13146
G1 X114.263 Y137.253 E6.14956
G1 X114.644 Y137.53 E6.16766
G1 X115.061 Y137.759 E6.18593
G1 X115.506 Y137.903 E6.2039
G1 X115.876 Y137.974 E6.21838
G1 X116.252 Y137.997 E6.23285
G1 X116.628 Y137.974 E6.24732
G1 X116.998 Y137.903 E6.26179
G1 X117.446 Y137.758 E6.27988
G1 X117.859 Y137.53 E6.298
G1 X118.164 Y137.309 E6.31247
G1 X118.439 Y137.051 E6.32696
G1 X118.679 Y136.761 E6.34142
G1 X118.881 Y136.443 E6.35589
G1 X119.041 Y136.102 E6.37036
G1 X119.187 Y135.654 E6.38846
G1 X119.252 Y135.139 E6.4084
G1 X119.305 Y135.559 E6.42467
G1 X119.399 Y135.924 E6.43914
G1 X119.537 Y136.274 E6.4536
G1 X119.719 Y136.604 E6.46807
G1 X119.996 Y136.986 E6.4862
G1 X120.34 Y137.309 E6.50433
G1 X120.719 Y137.585 E6.52234
G1 X121.147 Y137.786 E6.5405
G1 X121.595 Y137.932 E6.55861
G1 X122.063 Y137.991 E6.57673
G1 X122.44 Y137.991 E6.59121
G1 X122.909 Y137.932 E6.60937
G1 X123.356 Y137.786 E6.62743
G1 X123.781 Y137.587 E6.64546
G1 X124.164 Y137.309 E6.66364
G1 X124.439 Y137.051 E6.67813
G1 X124.679 Y136.76 E6.69262
G1 X124.881 Y136.442 E6.70709
G1 X125.041 Y136.101 E6.72156
G1 X125.187 Y135.654 E6.73962
G1 X125.252 Y135.139 E6.75956
G1 X125.305 Y135.559 E6.77583
G1 X125.399 Y135.924 E6.79031
