;FLAVOR:Marlin
;TIME:4615.78
;Filament used:7.82777m
;Material Diameter:1.75
;Material Density:1.24
;Filament Cost:0.466934
;Filament Weight:23.346704
;Filament Length:7.827767
;Layer height:0.2
;MINX:2.069
;MINY:2.44
;MINZ:0.2
;MAXX:178.778
;MAXY:172.293
;MAXZ:20.401
;OuterWall Time:755.872
;InnerWall Time:467.353
;Skin Time:1501.01
;Support Time:0
;SkirtBrim Time:16.0231
;Infill Time:741.781
;Support Infills Time:0
;Combing Time:348.857
;Retraction Time:784.881
;PrimeTower Time:0
;;;;;;;;;;;;;;;;;;;;;;;;;;;;;;;;;;;;;;;;;;;;;;;;;;;;;;;;;;;;;;;;;;;;;;;
;Creality Print GCode Generated by CXEngine
;CRSLICE_GIT_HASH:58ee74d
;Creality Print Version : V4.3.8.6984
;CXEngine Release Time:2023-12-04 18:16:29
;Gcode Generated Time:2024-04-07 16:58:47
;----------Machine Config--------------
;Machine Name:Ender-3 V3 SE
;Machine Height:250
;Machine Width:220
;Machine Depth:220
;Material Type:PLA
;Material Name:CR-PLA_1.75
;Number of Extruders:1
;ExtruderParams[0] Nozzle Diameter:1000
;----------Profile Config---------------
;Wall Thickness:0.8
;Top/Bottom Thickness:0.8
;Out Wall Line Width:0.42
;Inner Wall Line Width:0.45
;Inital Height:200
;Wall Line Count:2
;Infill Line Distance:8.44
;Infill Pattern:triangles
;Infill Sparse Density:16
;Infill Wipe Distance:0
;Print Temperature:195
;Bed Temperature:60
;Support Enable:false
;Support Density:15
;Support Angle:60
;Adhesion Type:lace
;machine is belt:false
;machine belt offset:10
;machine belt offset Y:0
;Raft Base Line Spacing:1.6
;Wait Heatup Sync:true
;Enable Ironing:false
;Material Type:PLA
;Max volumetric speed:20
;Preview Img Type:png
;Screen Size:Sermoon D3
;----------Shell Config----------------
;Outer Wall Wipe Distance:2000
;Outer Inset First:false
;Infill Before Walls:false
;Infill Overlap:0.14
;Fill Gaps Between Walls:everywhere
;Minimum Infill Area:30
;Top Surface Skin Layer:0
;Top Layers:4
;Z Seam Alignment:sharpest_corner
;Seam Corner Preference:z_seam_corner_inner
;Z Seam X:110
;Z Seam Y:220
;Horizontal Expansion:0
;Top/Bottom Pattern:zigzag
;Ironing Pattern:zigzag
;Vase Model:false
;----------Support Config----------------
;Support Type:everywhere
;Support Pattern:zigzag
;Support Infill Layer Thickness:0.2
;Minimum Support Area:1
;Enable Support Roof:true
;Support Roof Thickness:0.8
;Support Roof Pattern:lines
;Connect Support Lines:0
;Connect Support ZigZags:1
;Minimum Support X/Y Distance:0.2
;Support Line Distance:2.67
; ---------PrintSpeed & Travel----------
;Enable Print Cool:true
;Avoid Printed Parts Traveling:true
;Enable Retraction:true
;Retraction Distance:1.2
;Retraction Speed:30
;Retraction Prime Speed:30
;Maximum Retraction Count:100
;Minimum Extrusion Distance Window:0.8
;Z Hop When Retracted:true
;Z Hop Height:0.4
;Retract Before Outer Wall:true

;Outer Wall Speed:60
;Inner Wall Speed:90
;Infill Speed:180
;Top/Bottom Speed:50
;Travel Speed:150
;Initial Layer Speed:20
;Skirt/Brim Speed:25
;Prime Tower Speed:60
;Outer Wall Acceleration:1000
;Inner Wall Acceleration:2000
;Infill Acceleration:2500
;Top/Bottom Acceleration:2500
;Travel Acceleration:2500
;Initial Layer Print Acceleration:500
;Initial Layer Travel Acceleration:500
;Skirt/Brim Acceleration:500
;Combing Mode:off
; --------SpecialModel&Mesh Fixes--------
;Union Overlapping Volum:true
;Remove All Holes:false
;Maximum Travel Resolution:0.25
;Maximum Deviation:0.05
;Maximum Model Angle:0.872665
;IS Mold Print:false
;Make Overhang Printable:false
;Enable Coasting:false
;Coasting Volumes:0.064
;Coasting Speed:0.9
;Raft AirGap:0.25
;Layer0 ZOverLap:0.13
;Adaptive Layers:0
;---------------------End of Head--------------------------
M140 S60
M105
M190 S60
M104 S195
M82 ;absolute extrusion mode
M220 S100 ;Reset Feedrate
M221 S100 ;Reset Flowrate

G28 ;Home

G92 E0 ;Reset Extruder
G1 Z2.0 F3000 ;Move Z Axis up
G1 X-2.1 Y20 Z0.28 F5000.0 ;Move to start position
M109 S195.000000
G1 X-2.1 Y145.0 Z0.28 F1500.0 E15 ;Draw the first line
G1 X-2.4 Y145.0 Z0.28 F5000.0 ;Move to side a little
G1 X-2.4 Y20 Z0.28 F1500.0 E30 ;Draw the second line
G92 E0  ;Reset Extruder
G1 E-1.0000 F1800 ;Retract a bit
G1 Z2.0 F3000 ;Move Z Axis up
G1 E0.0000 F1800 

G92 E0
G92 E0
G1 F1800 E-1.2
;LAYER_COUNT:100

;LAYER:0
M106 S0
M204 S500
;;retract;;
G1 F1800 E0
G1 F1800 E-1.2
G0 F4800 X2.069 Y2.44 Z20.401
G0 X96.533 Y113.806 Z0.6
;TYPE:SKIRT
G1 F600 Z0.2
G1 F1800 E0
G1 F1500 X96.208 Y114.152 E0.01824
G1 X95.906 Y114.63 E0.03996
G1 X95.7 Y115.15 E0.06144
G1 X95.592 Y115.71 E0.08335
G1 X95.592 Y116.275 E0.10506
G1 X95.681 Y116.739 E0.12321
G1 X95.797 Y117.098 E0.1377
G1 X95.958 Y117.439 E0.15219
G1 X96.159 Y117.757 E0.16664
G1 X96.4 Y118.047 E0.18112
G1 X96.674 Y118.305 E0.19558
G1 X96.979 Y118.526 E0.21005
G1 X97.392 Y118.754 E0.22817
G1 X97.84 Y118.899 E0.24626
G1 X98.211 Y118.97 E0.26077
G1 X98.492 Y118.987 E0.27159
G1 X98.024 Y119.046 E0.28971
G1 X97.569 Y119.163 E0.30776
G1 X97.141 Y119.364 E0.32592
G1 X96.823 Y119.566 E0.34039
G1 X96.533 Y119.806 E0.35485
G1 X96.208 Y120.152 E0.37309
G1 X95.906 Y120.63 E0.39481
G1 X95.7 Y121.15 E0.4163
G1 X95.592 Y121.71 E0.4382
G1 X95.592 Y122.275 E0.45991
G1 X95.681 Y122.739 E0.47806
G1 X95.797 Y123.098 E0.49255
G1 X95.958 Y123.439 E0.50704
G1 X96.159 Y123.757 E0.52149
G1 X96.4 Y124.047 E0.53598
G1 X96.674 Y124.305 E0.55043
G1 X96.979 Y124.526 E0.5649
G1 X97.392 Y124.754 E0.58303
G1 X97.84 Y124.899 E0.60111
G1 X98.211 Y124.97 E0.61563
G1 X98.492 Y124.987 E0.62644
G1 X98.024 Y125.046 E0.64456
G1 X97.569 Y125.163 E0.66261
G1 X97.141 Y125.364 E0.68077
G1 X96.823 Y125.566 E0.69525
G1 X96.533 Y125.806 E0.70971
G1 X96.208 Y126.152 E0.72794
G1 X95.906 Y126.63 E0.74966
G1 X95.7 Y127.15 E0.77115
G1 X95.592 Y127.71 E0.79306
G1 X95.592 Y128.275 E0.81476
G1 X95.681 Y128.739 E0.83291
G1 X95.797 Y129.098 E0.84741
G1 X95.958 Y129.439 E0.86189
G1 X96.159 Y129.757 E0.87634
G1 X96.4 Y130.047 E0.89083
G1 X96.674 Y130.305 E0.90529
G1 X96.979 Y130.526 E0.91976
G1 X97.392 Y130.754 E0.93788
G1 X97.84 Y130.899 E0.95597
G1 X98.211 Y130.97 E0.97048
G1 X98.492 Y130.987 E0.98129
G1 X98.024 Y131.046 E0.99941
G1 X97.569 Y131.163 E1.01746
G1 X97.141 Y131.364 E1.03563
G1 X96.823 Y131.566 E1.0501
G1 X96.533 Y131.806 E1.06456
G1 X96.208 Y132.152 E1.0828
G1 X95.906 Y132.63 E1.10452
G1 X95.7 Y133.15 E1.126
G1 X95.592 Y133.71 E1.14791
G1 X95.592 Y134.275 E1.16962
G1 X95.681 Y134.739 E1.18777
G1 X95.797 Y135.098 E1.20226
G1 X95.958 Y135.439 E1.21675
G1 X96.159 Y135.757 E1.2312
G1 X96.4 Y136.047 E1.24568
G1 X96.674 Y136.305 E1.26014
G1 X96.979 Y136.526 E1.27461
G1 X97.392 Y136.754 E1.29273
G1 X97.84 Y136.899 E1.31082
G1 X98.211 Y136.97 E1.32533
G1 X98.492 Y136.987 E1.33615
G1 X98.024 Y137.046 E1.35427
G1 X97.569 Y137.163 E1.37231
G1 X97.141 Y137.364 E1.39048
G1 X96.823 Y137.566 E1.40495
G1 X96.533 Y137.806 E1.41941
G1 X96.208 Y138.152 E1.43765
G1 X95.906 Y138.63 E1.45937
G1 X95.7 Y139.15 E1.48086
G1 X95.592 Y139.71 E1.50276
G1 X95.592 Y140.275 E1.52447
G1 X95.681 Y140.739 E1.54262
G1 X95.797 Y141.098 E1.55711
G1 X95.958 Y141.439 E1.5716
G1 X96.159 Y141.757 E1.58605
G1 X96.4 Y142.047 E1.60054
G1 X96.674 Y142.305 E1.61499
G1 X96.979 Y142.526 E1.62946
G1 X97.392 Y142.754 E1.64758
G1 X97.84 Y142.899 E1.66567
G1 X98.211 Y142.97 E1.68018
G1 X98.492 Y142.987 E1.691
G1 X98.024 Y143.046 E1.70912
G1 X97.569 Y143.163 E1.72717
G1 X97.141 Y143.364 E1.74533
G1 X96.823 Y143.566 E1.7598
G1 X96.533 Y143.806 E1.77427
G1 X96.208 Y144.152 E1.7925
G1 X95.906 Y144.63 E1.81422
G1 X95.7 Y145.15 E1.83571
G1 X95.592 Y145.71 E1.85762
G1 X95.592 Y146.275 E1.87932
G1 X95.681 Y146.739 E1.89747
G1 X95.797 Y147.098 E1.91196
G1 X95.958 Y147.439 E1.92645
G1 X96.159 Y147.757 E1.9409
G1 X96.4 Y148.047 E1.95539
G1 X96.674 Y148.305 E1.96985
G1 X96.979 Y148.526 E1.98432
G1 X97.392 Y148.754 E2.00244
G1 X97.84 Y148.899 E2.02053
G1 X98.211 Y148.97 E2.03504
G1 X98.492 Y148.987 E2.04585
G1 X98.024 Y149.046 E2.06397
G1 X97.569 Y149.163 E2.08202
G1 X97.141 Y149.364 E2.10019
G1 X96.823 Y149.566 E2.11466
G1 X96.533 Y149.806 E2.12912
G1 X96.208 Y150.152 E2.14735
G1 X95.906 Y150.63 E2.16907
G1 X95.7 Y151.15 E2.19056
G1 X95.592 Y151.71 E2.21247
G1 X95.592 Y152.275 E2.23418
G1 X95.681 Y152.739 E2.25232
G1 X95.797 Y153.098 E2.26682
G1 X95.958 Y153.439 E2.2813
G1 X96.159 Y153.757 E2.29576
G1 X96.4 Y154.047 E2.31024
G1 X96.674 Y154.305 E2.3247
G1 X96.979 Y154.526 E2.33917
G1 X97.392 Y154.754 E2.35729
G1 X97.84 Y154.899 E2.37538
G1 X98.211 Y154.97 E2.38989
G1 X98.492 Y154.987 E2.40071
G1 X98.024 Y155.046 E2.41883
G1 X97.569 Y155.163 E2.43687
G1 X97.141 Y155.364 E2.45504
G1 X96.823 Y155.566 E2.46951
G1 X96.533 Y155.806 E2.48397
G1 X96.208 Y156.152 E2.50221
G1 X95.906 Y156.63 E2.52393
G1 X95.7 Y157.15 E2.54541
G1 X95.592 Y157.71 E2.56732
G1 X95.592 Y158.275 E2.58903
G1 X95.681 Y158.739 E2.60718
G1 X95.797 Y159.098 E2.62167
G1 X95.958 Y159.439 E2.63616
G1 X96.159 Y159.757 E2.65061
G1 X96.4 Y160.047 E2.66509
G1 X96.674 Y160.305 E2.67955
G1 X96.979 Y160.526 E2.69402
G1 X97.392 Y160.754 E2.71214
G1 X97.84 Y160.899 E2.73023
G1 X98.211 Y160.97 E2.74474
G1 X98.492 Y160.987 E2.75556
G1 X98.024 Y161.046 E2.77368
G1 X97.569 Y161.163 E2.79173
G1 X97.141 Y161.364 E2.80989
G1 X96.823 Y161.566 E2.82436
G1 X96.533 Y161.806 E2.83882
G1 X96.208 Y162.152 E2.85706
G1 X95.906 Y162.63 E2.87878
G1 X95.7 Y163.15 E2.90027
G1 X95.592 Y163.71 E2.92218
G1 X95.592 Y164.275 E2.94388
G1 X95.681 Y164.739 E2.96203
G1 X95.797 Y165.098 E2.97652
G1 X95.958 Y165.439 E2.99101
G1 X96.159 Y165.757 E3.00546
G1 X96.4 Y166.047 E3.01995
G1 X96.674 Y166.305 E3.03441
G1 X96.979 Y166.526 E3.04887
G1 X97.392 Y166.754 E3.067
G1 X97.84 Y166.899 E3.08509
G1 X98.211 Y166.97 E3.0996
G1 X98.587 Y166.993 E3.11407
G1 X98.587 Y167.147 E3.11998
G1 X98.37 Y167.38 E3.13222
G1 X98.149 Y167.685 E3.14669
G1 X97.967 Y168.015 E3.16116
G1 X97.829 Y168.365 E3.17562
G1 X97.735 Y168.73 E3.19009
G1 X97.688 Y169.104 E3.20457
G1 X97.688 Y169.481 E3.21906
G1 X97.735 Y169.855 E3.23354
G1 X97.829 Y170.22 E3.24802
G1 X97.967 Y170.57 E3.26247
G1 X98.149 Y170.9 E3.27695
G1 X98.37 Y171.205 E3.29142
G1 X98.628 Y171.479 E3.30587
G1 X98.99 Y171.779 E3.32393
G1 X99.491 Y172.054 E3.34589
G1 X99.936 Y172.198 E3.36386
G1 X100.306 Y172.269 E3.37833
G1 X100.682 Y172.293 E3.3928
G1 X101.058 Y172.269 E3.40728
G1 X101.525 Y172.179 E3.42555
G1 X102.045 Y171.973 E3.44703
G1 X102.445 Y171.72 E3.46522
G1 X102.809 Y171.419 E3.48336
G1 X103.109 Y171.056 E3.50145
G1 X103.311 Y170.738 E3.51592
G1 X103.471 Y170.397 E3.53039
G1 X103.617 Y169.95 E3.54846
G1 X103.682 Y169.435 E3.5684
G1 X103.735 Y169.855 E3.58466
G1 X103.829 Y170.22 E3.59914
G1 X103.967 Y170.57 E3.61359
G1 X104.149 Y170.9 E3.62807
G1 X104.37 Y171.205 E3.64254
G1 X104.628 Y171.479 E3.657
G1 X104.99 Y171.779 E3.67506
G1 X105.491 Y172.054 E3.69701
G1 X105.936 Y172.198 E3.71498
G1 X106.306 Y172.269 E3.72945
G1 X106.682 Y172.293 E3.74393
G1 X107.058 Y172.269 E3.7584
G1 X107.525 Y172.179 E3.77667
G1 X108.045 Y171.973 E3.79816
G1 X108.445 Y171.72 E3.81634
G1 X108.809 Y171.419 E3.83449
G1 X109.109 Y171.056 E3.85258
G1 X109.311 Y170.738 E3.86705
G1 X109.471 Y170.397 E3.88152
G1 X109.617 Y169.95 E3.89958
G1 X109.682 Y169.435 E3.91952
G1 X109.735 Y169.855 E3.93579
G1 X109.829 Y170.22 E3.95027
G1 X109.967 Y170.57 E3.96472
G1 X110.149 Y170.9 E3.9792
G1 X110.37 Y171.205 E3.99366
G1 X110.628 Y171.479 E4.00812
G1 X110.99 Y171.779 E4.02618
G1 X111.491 Y172.054 E4.04814
G1 X111.936 Y172.198 E4.06611
G1 X112.306 Y172.269 E4.08058
G1 X112.682 Y172.293 E4.09505
G1 X113.058 Y172.269 E4.10953
G1 X113.525 Y172.179 E4.1278
G1 X114.045 Y171.973 E4.14928
G1 X114.445 Y171.72 E4.16746
G1 X114.809 Y171.419 E4.18561
G1 X115.109 Y171.056 E4.2037
G1 X115.311 Y170.738 E4.21817
G1 X115.471 Y170.397 E4.23264
G1 X115.617 Y169.95 E4.25071
G1 X115.682 Y169.435 E4.27065
G1 X115.735 Y169.855 E4.28691
G1 X115.829 Y170.22 E4.30139
G1 X115.967 Y170.57 E4.31584
G1 X116.149 Y170.9 E4.33032
G1 X116.37 Y171.205 E4.34479
G1 X116.628 Y171.479 E4.35925
G1 X116.99 Y171.779 E4.37731
G1 X117.491 Y172.054 E4.39926
G1 X117.936 Y172.198 E4.41723
G1 X118.306 Y172.269 E4.4317
G1 X118.682 Y172.293 E4.44618
G1 X119.058 Y172.269 E4.46065
G1 X119.525 Y172.179 E4.47892
G1 X120.045 Y171.973 E4.50041
G1 X120.445 Y171.72 E4.51859
G1 X120.809 Y171.419 E4.53673
G1 X121.109 Y171.056 E4.55482
G1 X121.311 Y170.738 E4.5693
G1 X121.471 Y170.397 E4.58377
G1 X121.617 Y169.95 E4.60183
G1 X121.682 Y169.435 E4.62177
G1 X121.735 Y169.855 E4.63803
G1 X121.829 Y170.22 E4.65251
G1 X121.967 Y170.57 E4.66697
G1 X122.149 Y170.9 E4.68144
G1 X122.37 Y171.205 E4.69591
G1 X122.628 Y171.479 E4.71037
G1 X122.99 Y171.779 E4.72843
G1 X123.491 Y172.054 E4.75039
G1 X123.936 Y172.198 E4.76835
G1 X124.306 Y172.269 E4.78283
G1 X124.682 Y172.293 E4.7973
G1 X125.058 Y172.269 E4.81177
G1 X125.525 Y172.179 E4.83005
G1 X126.045 Y171.973 E4.85153
G1 X126.445 Y171.72 E4.86971
G1 X126.809 Y171.419 E4.88786
G1 X127.109 Y171.056 E4.90595
G1 X127.311 Y170.738 E4.92042
G1 X127.471 Y170.397 E4.93489
G1 X127.617 Y169.95 E4.95296
G1 X127.682 Y169.435 E4.9729
G1 X127.735 Y169.855 E4.98916
G1 X127.829 Y170.22 E5.00364
G1 X127.967 Y170.57 E5.01809
G1 X128.149 Y170.9 E5.03257
G1 X128.37 Y171.205 E5.04704
G1 X128.628 Y171.479 E5.0615
G1 X128.99 Y171.779 E5.07956
G1 X129.491 Y172.054 E5.10151
G1 X129.936 Y172.198 E5.11948
G1 X130.306 Y172.269 E5.13395
G1 X130.682 Y172.293 E5.14843
G1 X131.058 Y172.269 E5.1629
G1 X131.525 Y172.179 E5.18117
G1 X132.045 Y171.973 E5.20266
G1 X132.445 Y171.72 E5.22084
G1 X132.809 Y171.419 E5.23898
G1 X133.109 Y171.056 E5.25707
G1 X133.311 Y170.738 E5.27155
G1 X133.471 Y170.397 E5.28602
G1 X133.617 Y169.95 E5.30408
G1 X133.682 Y169.435 E5.32402
G1 X133.735 Y169.855 E5.34028
G1 X133.829 Y170.22 E5.35476
G1 X133.967 Y170.57 E5.36922
G1 X134.149 Y170.9 E5.38369
G1 X134.37 Y171.205 E5.39816
G1 X134.628 Y171.479 E5.41262
G1 X134.99 Y171.779 E5.43068
G1 X135.491 Y172.054 E5.45264
G1 X135.936 Y172.198 E5.4706
G1 X136.306 Y172.269 E5.48508
G1 X136.682 Y172.293 E5.49955
G1 X137.058 Y172.269 E5.51402
G1 X137.525 Y172.179 E5.53229
G1 X138.045 Y171.973 E5.55378
G1 X138.445 Y171.72 E5.57196
G1 X138.809 Y171.419 E5.59011
G1 X139.109 Y171.056 E5.6082
G1 X139.311 Y170.738 E5.62267
G1 X139.471 Y170.397 E5.63714
G1 X139.617 Y169.95 E5.6552
G1 X139.688 Y169.384 E5.67712
G1 X139.706 Y169.651 E5.6874
G1 X139.777 Y170.021 E5.70187
G1 X139.893 Y170.38 E5.71636
G1 X140.054 Y170.721 E5.73085
G1 X140.255 Y171.039 E5.7453
G1 X140.496 Y171.329 E5.75979
G1 X140.77 Y171.587 E5.77425
G1 X141.075 Y171.808 E5.78871
G1 X141.488 Y172.036 E5.80684
G1 X141.936 Y172.181 E5.82493
G1 X142.306 Y172.252 E5.8394
G1 X142.683 Y172.275 E5.85391
G1 X143.059 Y172.252 E5.86838
G1 X143.429 Y172.181 E5.88285
G1 X143.877 Y172.036 E5.90094
G1 X144.29 Y171.808 E5.91907
G1 X144.668 Y171.534 E5.937
G1 X145.06 Y171.118 E5.95896
G1 X145.363 Y170.639 E5.98073
G1 X145.57 Y170.117 E6.0023
G1 X145.659 Y169.651 E6.02053
G1 X145.683 Y169.275 E6.035
G1 X145.659 Y168.899 E6.04948
G1 X145.57 Y168.434 E6.06766
G1 X145.41 Y168.027 E6.08446
G1 X145.608 Y168.377 E6.09991
G1 X145.904 Y168.734 E6.11773
G1 X146.178 Y168.992 E6.13218
G1 X146.483 Y169.213 E6.14665
G1 X146.813 Y169.395 E6.16113
G1 X147.255 Y169.569 E6.17938
G1 X147.715 Y169.657 E6.19737
G1 X148.091 Y169.68 E6.21184
G1 X148.467 Y169.657 E6.22631
G1 X148.837 Y169.586 E6.24079
G1 X149.285 Y169.441 E6.25887
G1 X149.698 Y169.213 E6.277
G1 X150.003 Y168.992 E6.29147
G1 X150.278 Y168.734 E6.30595
G1 X150.518 Y168.444 E6.32041
G1 X150.72 Y168.125 E6.33492
G1 X150.88 Y167.785 E6.34935
G1 X151.026 Y167.337 E6.36745
G1 X151.085 Y166.869 E6.38557
G1 X151.085 Y166.492 E6.40006
G1 X151.026 Y166.023 E6.41822
G1 X150.88 Y165.576 E6.43628
G1 X150.771 Y165.335 E6.44644
G1 X150.92 Y165.596 E6.45799
G1 X151.141 Y165.901 E6.47246
G1 X151.465 Y166.245 E6.49061
G1 X151.846 Y166.521 E6.50868
G1 X152.259 Y166.749 E6.52681
G1 X152.707 Y166.894 E6.54489
G1 X153.077 Y166.965 E6.55937
G1 X153.453 Y166.988 E6.57384
G1 X153.829 Y166.965 E6.58831
G1 X154.199 Y166.894 E6.60278
G1 X154.647 Y166.749 E6.62087
G1 X155.06 Y166.521 E6.63899
G1 X155.441 Y166.245 E6.65707
G1 X155.765 Y165.901 E6.67522
G1 X156.043 Y165.518 E6.6934
