;FLAVOR:Marlin
;TIME:431.605
;Filament used:0.50009m
;Material Diameter:1.75
;Material Density:1.24
;Filament Cost:0.029831
;Filament Weight:1.491544
;Filament Length:0.500090
;Layer height:0.2
;MINX:2.217
;MINY:2.306
;MINZ:0.2
;MAXX:127.908
;MAXY:127.856
;MAXZ:20.401
;OuterWall Time:90.9678
;InnerWall Time:73.0584
;Skin Time:172.643
;Support Time:0
;SkirtBrim Time:6.74849
;Infill Time:8.59073
;Support Infills Time:0
;Combing Time:25.6242
;Retraction Time:53.9728
;PrimeTower Time:0
;;;;;;;;;;;;;;;;;;;;;;;;;;;;;;;;;;;;;;;;;;;;;;;;;;;;;;;;;;;;;;;;;;;;;;;
;Creality Print GCode Generated by CXEngine
;CRSLICE_GIT_HASH:58ee74d
;Creality Print Version : V4.3.8.6984
;CXEngine Release Time:2023-12-04 18:16:29
;Gcode Generated Time:2024-04-02 19:50:41
;----------Machine Config--------------
;Machine Name:Ender-3 V3 SE
;Machine Height:250
;Machine Width:220
;Machine Depth:220
;Material Type:PLA
;Material Name:CR-PLA_1.75
;Number of Extruders:1
;ExtruderParams[0] Nozzle Diameter:1000
;----------Profile Config---------------
;Wall Thickness:0.8
;Top/Bottom Thickness:0.8
;Out Wall Line Width:0.42
;Inner Wall Line Width:0.45
;Inital Height:200
;Wall Line Count:2
;Infill Line Distance:8
;Infill Pattern:grid
;Infill Sparse Density:10
;Infill Wipe Distance:0
;Print Temperature:195
;Bed Temperature:60
;Support Enable:false
;Support Density:15
;Support Angle:60
;Adhesion Type:lace
;machine is belt:false
;machine belt offset:10
;machine belt offset Y:0
;Raft Base Line Spacing:1.6
;Wait Heatup Sync:true
;Enable Ironing:false
;Material Type:PLA
;Max volumetric speed:20
;Preview Img Type:png
;Screen Size:Sermoon D3
;----------Shell Config----------------
;Outer Wall Wipe Distance:2000
;Outer Inset First:false
;Infill Before Walls:false
;Infill Overlap:0.09
;Fill Gaps Between Walls:everywhere
;Minimum Infill Area:30
;Top Surface Skin Layer:0
;Top Layers:4
;Z Seam Alignment:sharpest_corner
;Seam Corner Preference:z_seam_corner_inner
;Z Seam X:110
;Z Seam Y:220
;Horizontal Expansion:0
;Top/Bottom Pattern:zigzag
;Ironing Pattern:zigzag
;Vase Model:false
;----------Support Config----------------
;Support Type:everywhere
;Support Pattern:zigzag
;Support Infill Layer Thickness:0.2
;Minimum Support Area:1
;Enable Support Roof:true
;Support Roof Thickness:0.8
;Support Roof Pattern:lines
;Connect Support Lines:0
;Connect Support ZigZags:1
;Minimum Support X/Y Distance:0.2
;Support Line Distance:2.67
; ---------PrintSpeed & Travel----------
;Enable Print Cool:true
;Avoid Printed Parts Traveling:true
;Enable Retraction:true
;Retraction Distance:1.2
;Retraction Speed:30
;Retraction Prime Speed:30
;Maximum Retraction Count:100
;Minimum Extrusion Distance Window:0.8
;Z Hop When Retracted:true
;Z Hop Height:0.4
;Retract Before Outer Wall:true

;Outer Wall Speed:60
;Inner Wall Speed:90
;Infill Speed:180
;Top/Bottom Speed:50
;Travel Speed:150
;Initial Layer Speed:20
;Skirt/Brim Speed:25
;Prime Tower Speed:60
;Outer Wall Acceleration:1000
;Inner Wall Acceleration:2000
;Infill Acceleration:2500
;Top/Bottom Acceleration:2500
;Travel Acceleration:2500
;Initial Layer Print Acceleration:500
;Initial Layer Travel Acceleration:500
;Skirt/Brim Acceleration:500
;Combing Mode:off
; --------SpecialModel&Mesh Fixes--------
;Union Overlapping Volum:true
;Remove All Holes:false
;Maximum Travel Resolution:0.25
;Maximum Deviation:0.05
;Maximum Model Angle:0.872665
;IS Mold Print:false
;Make Overhang Printable:false
;Enable Coasting:false
;Coasting Volumes:0.064
;Coasting Speed:0.9
;Raft AirGap:0.25
;Layer0 ZOverLap:0.13
;Adaptive Layers:0
;---------------------End of Head--------------------------
M140 S60
M105
M190 S60
M104 S195
M82 ;absolute extrusion mode
M220 S100 ;Reset Feedrate
M221 S100 ;Reset Flowrate

G28 ;Home

G92 E0 ;Reset Extruder
G1 Z2.0 F3000 ;Move Z Axis up
G1 X-2.1 Y20 Z0.28 F5000.0 ;Move to start position
M109 S195.000000
G1 X-2.1 Y145.0 Z0.28 F1500.0 E15 ;Draw the first line
G1 X-2.4 Y145.0 Z0.28 F5000.0 ;Move to side a little
G1 X-2.4 Y20 Z0.28 F1500.0 E30 ;Draw the second line
G92 E0  ;Reset Extruder
G1 E-1.0000 F1800 ;Retract a bit
G1 Z2.0 F3000 ;Move Z Axis up
G1 E0.0000 F1800 

G92 E0
G92 E0
G1 F1800 E-1.2
;LAYER_COUNT:15

;LAYER:0
M106 S0
M204 S500
;;retract;;
G1 F1800 E0
G1 F1800 E-1.2
G0 F4800 X2.217 Y2.306 Z20.401
G0 X95.554 Y99.405 Z0.6
;TYPE:SKIRT
G1 F600 Z0.2
G1 F1800 E0
G1 F1500 X95.23 Y99.749 E0.01815
G1 X94.952 Y100.132 E0.03633
G1 X94.753 Y100.557 E0.05436
G1 X94.607 Y101.005 E0.07246
G1 X94.548 Y101.473 E0.09058
G1 X94.548 Y101.85 E0.10507
G1 X94.607 Y102.319 E0.12322
G1 X94.753 Y102.766 E0.14129
G1 X94.952 Y103.191 E0.15932
G1 X95.23 Y103.574 E0.1775
G1 X95.488 Y103.849 E0.19198
G1 X95.779 Y104.089 E0.20647
G1 X96.133 Y104.309 E0.22248
G1 X96.027 Y104.587 E0.23391
G1 X95.407 Y104.509 E0.25792
G1 X95.03 Y104.509 E0.2724
G1 X94.561 Y104.568 E0.29056
G1 X94.114 Y104.714 E0.30863
G1 X93.773 Y104.874 E0.3231
G1 X93.455 Y105.076 E0.33757
G1 X93.088 Y105.379 E0.35585
G1 X92.791 Y105.74 E0.37381
G1 X92.589 Y106.058 E0.38828
G1 X92.388 Y106.486 E0.40645
G1 X92.271 Y106.941 E0.42449
G1 X92.224 Y107.315 E0.43897
G1 X92.224 Y107.692 E0.45346
G1 X92.271 Y108.065 E0.4679
G1 X92.389 Y108.523 E0.48607
G1 X92.589 Y108.948 E0.50411
G1 X92.791 Y109.266 E0.51858
G1 X93.031 Y109.557 E0.53307
G1 X93.306 Y109.815 E0.54756
G1 X93.611 Y110.036 E0.56203
G1 X93.941 Y110.218 E0.57651
G1 X94.291 Y110.356 E0.59096
G1 X94.656 Y110.45 E0.60544
G1 X95.026 Y110.497 E0.61977
G1 X95.027 Y110.518 E0.62057
G1 X94.677 Y110.586 E0.63427
G1 X94.229 Y110.731 E0.65236
G1 X93.815 Y110.959 E0.67052
G1 X93.437 Y111.233 E0.68845
G1 X93.111 Y111.579 E0.70671
G1 X92.89 Y111.884 E0.72118
G1 X92.662 Y112.298 E0.73934
G1 X92.517 Y112.746 E0.75743
G1 X92.446 Y113.116 E0.7719
G1 X92.423 Y113.492 E0.78637
G1 X92.446 Y113.868 E0.80084
G1 X92.517 Y114.238 E0.81532
G1 X92.662 Y114.686 E0.83341
G1 X92.89 Y115.099 E0.85153
G1 X93.111 Y115.404 E0.866
G1 X93.369 Y115.679 E0.88048
G1 X93.659 Y115.919 E0.89494
G1 X93.977 Y116.121 E0.90942
G1 X94.404 Y116.321 E0.92753
G1 X94.861 Y116.439 E0.94566
G1 X95.234 Y116.486 E0.9601
G1 X95.611 Y116.486 E0.97459
G1 X95.985 Y116.439 E0.98907
G1 X96.452 Y116.312 E1.00766
G1 X96.182 Y116.487 E1.02002
G1 X95.892 Y116.728 E1.0345
G1 X95.568 Y117.072 E1.05266
G1 X95.265 Y117.551 E1.07443
G1 X95.058 Y118.071 E1.09593
G1 X94.951 Y118.634 E1.11795
G1 X94.951 Y119.198 E1.13961
G1 X95.059 Y119.758 E1.16152
G1 X95.265 Y120.278 E1.18301
G1 X95.518 Y120.678 E1.20119
G1 X95.759 Y120.968 E1.21568
G1 X96.103 Y121.292 E1.23383
G1 X96.582 Y121.595 E1.2556
G1 X97.102 Y121.802 E1.2771
G1 X97.57 Y121.891 E1.2954
G1 X97.946 Y121.915 E1.30988
G1 X98.322 Y121.891 E1.32435
G1 X98.789 Y121.801 E1.34262
G1 X99.309 Y121.595 E1.36411
G1 X99.709 Y121.342 E1.38229
G1 X99.972 Y121.125 E1.39539
G1 X100.012 Y121.162 E1.39748
G1 X99.803 Y121.49 E1.41242
G1 X99.643 Y121.83 E1.42686
G1 X99.497 Y122.278 E1.44496
G1 X99.438 Y122.746 E1.46308
G1 X99.438 Y123.123 E1.47756
G1 X99.497 Y123.592 E1.49572
G1 X99.643 Y124.039 E1.51378
G1 X99.803 Y124.38 E1.52825
G1 X100.005 Y124.698 E1.54273
G1 X100.306 Y125.061 E1.56084
G1 X100.669 Y125.362 E1.57896
G1 X100.987 Y125.564 E1.59343
G1 X101.328 Y125.724 E1.6079
G1 X101.775 Y125.87 E1.62596
G1 X102.244 Y125.929 E1.64412
G1 X102.621 Y125.929 E1.65861
G1 X103.089 Y125.87 E1.67673
G1 X103.626 Y125.695 E1.69842
G1 X104.123 Y125.423 E1.72019
G1 X104.486 Y125.122 E1.7383
G1 X104.744 Y124.847 E1.75279
G1 X104.965 Y124.542 E1.76726
G1 X105.164 Y124.185 E1.78296
G1 X105.091 Y124.585 E1.79858
G1 X105.091 Y125.05 E1.81644
G1 X105.15 Y125.519 E1.8346
G1 X105.296 Y125.966 E1.85267
G1 X105.497 Y126.395 E1.87087
G1 X105.83 Y126.852 E1.89259
G1 X106.173 Y127.174 E1.91066
G1 X106.478 Y127.395 E1.92513
G1 X106.808 Y127.577 E1.93961
G1 X107.158 Y127.715 E1.95406
G1 X107.523 Y127.809 E1.96854
G1 X107.897 Y127.856 E1.98302
G1 X108.273 Y127.856 E1.99746
G1 X108.647 Y127.809 E2.01194
G1 X109.012 Y127.715 E2.02642
G1 X109.362 Y127.577 E2.04088
G1 X109.692 Y127.395 E2.05535
G1 X110.074 Y127.118 E2.07348
G1 X110.397 Y126.774 E2.09161
G1 X110.673 Y126.394 E2.10965
G1 X110.874 Y125.966 E2.12781
G1 X110.991 Y125.608 E2.14228
G1 X111.061 Y125.238 E2.15675
G1 X111.082 Y124.941 E2.16819
G1 X111.211 Y125.446 E2.18821
G1 X111.412 Y125.875 E2.20641
G1 X111.614 Y126.193 E2.22088
G1 X111.854 Y126.484 E2.23537
G1 X112.129 Y126.742 E2.24986
G1 X112.434 Y126.963 E2.26433
G1 X112.764 Y127.145 E2.2788
G1 X113.114 Y127.283 E2.29326
G1 X113.479 Y127.377 E2.30774
G1 X113.853 Y127.424 E2.32222
G1 X114.23 Y127.424 E2.3367
G1 X114.603 Y127.377 E2.35114
G1 X114.968 Y127.283 E2.36562
G1 X115.319 Y127.145 E2.38011
G1 X115.649 Y126.963 E2.39459
G1 X115.954 Y126.742 E2.40905
G1 X116.297 Y126.419 E2.42715
G1 X116.574 Y126.038 E2.44525
G1 X116.802 Y125.623 E2.46344
G1 X116.947 Y125.176 E2.48149
G1 X117.018 Y124.806 E2.49597
G1 X117.041 Y124.43 E2.51044
G1 X117.018 Y124.054 E2.52491
G1 X116.947 Y123.684 E2.53938
G1 X116.828 Y123.315 E2.55427
G1 X117.05 Y123.619 E2.56874
G1 X117.308 Y123.894 E2.58322
G1 X117.599 Y124.134 E2.59771
G1 X117.917 Y124.336 E2.61218
G1 X118.258 Y124.496 E2.62665
G1 X118.705 Y124.642 E2.64472
G1 X119.174 Y124.701 E2.66288
G1 X119.55 Y124.701 E2.67732
G1 X120.019 Y124.642 E2.69548
G1 X120.466 Y124.496 E2.71354
G1 X120.807 Y124.336 E2.72801
G1 X121.125 Y124.134 E2.74249
G1 X121.416 Y123.894 E2.75698
G1 X121.674 Y123.619 E2.77146
G1 X121.952 Y123.236 E2.78964
G1 X122.151 Y122.811 E2.80767
G1 X122.297 Y122.364 E2.82574
G1 X122.356 Y121.895 E2.84389
G1 X122.356 Y121.519 E2.85834
G1 X122.297 Y121.05 E2.8765
G1 X122.151 Y120.603 E2.89456
G1 X121.95 Y120.175 E2.91273
G1 X121.674 Y119.795 E2.93077
G1 X121.503 Y119.607 E2.94053
G1 X121.915 Y119.097 E2.96572
G1 X122.376 Y118.462 E2.99586
G1 X122.672 Y118.012 E3.01655
G1 X122.925 Y117.589 E3.03549
G1 X123.11 Y117.245 E3.05049
G1 X123.352 Y117.337 E3.06044
G1 X123.717 Y117.431 E3.07492
G1 X124.091 Y117.478 E3.0894
G1 X124.468 Y117.478 E3.10388
G1 X124.936 Y117.419 E3.122
G1 X125.384 Y117.273 E3.1401
G1 X125.809 Y117.074 E3.15813
G1 X126.192 Y116.796 E3.17631
G1 X126.536 Y116.472 E3.19446
G1 X126.812 Y116.091 E3.21254
G1 X127.04 Y115.678 E3.23066
G1 X127.185 Y115.23 E3.24875
G1 X127.256 Y114.86 E3.26322
G1 X127.279 Y114.484 E3.27769
G1 X127.256 Y114.108 E3.29216
G1 X127.185 Y113.738 E3.30664
G1 X127.04 Y113.29 E3.32473
G1 X126.812 Y112.877 E3.34285
G1 X126.536 Y112.496 E3.36092
G1 X126.192 Y112.172 E3.37908
G1 X125.808 Y111.894 E3.39729
G1 X125.302 Y111.657 E3.41875
G1 X124.91 Y111.552 E3.43434
G1 X124.918 Y111.478 E3.4372
G1 X125.29 Y111.454 E3.45152
G1 X125.66 Y111.383 E3.46599
G1 X126.018 Y111.267 E3.48045
G1 X126.359 Y111.107 E3.49492
G1 X126.677 Y110.905 E3.50939
G1 X126.968 Y110.665 E3.52388
G1 X127.226 Y110.39 E3.53837
G1 X127.447 Y110.085 E3.55284
G1 X127.629 Y109.755 E3.56732
G1 X127.767 Y109.405 E3.58177
G1 X127.861 Y109.04 E3.59625
G1 X127.908 Y108.666 E3.61073
G1 X127.908 Y108.289 E3.62521
G1 X127.861 Y107.915 E3.63969
G1 X127.767 Y107.551 E3.65413
G1 X127.629 Y107.2 E3.66862
G1 X127.447 Y106.87 E3.6831
G1 X127.226 Y106.565 E3.69757
G1 X126.903 Y106.222 E3.71567
G1 X126.522 Y105.945 E3.73376
G1 X126.105 Y105.716 E3.75204
G1 X125.66 Y105.572 E3.77001
G1 X125.29 Y105.501 E3.78448
G1 X124.914 Y105.478 E3.79895
G1 X124.298 Y105.516 E3.82266
G1 X124.273 Y105.436 E3.82588
G1 X124.609 Y105.272 E3.84024
G1 X124.986 Y104.999 E3.85812
G1 X125.26 Y104.741 E3.87258
G1 X125.557 Y104.383 E3.89045
G1 X125.788 Y103.965 E3.9088
G1 X125.961 Y103.529 E3.92682
G1 X126.068 Y102.969 E3.94872
G1 X126.068 Y102.404 E3.97042
G1 X125.96 Y101.844 E3.99233
G1 X125.754 Y101.324 E4.01382
G1 X125.452 Y100.846 E4.03554
G1 X125.127 Y100.5 E4.05378
G1 X124.837 Y100.26 E4.06824
G1 X124.519 Y100.058 E4.08271
G1 X124.178 Y99.898 E4.09718
G1 X123.731 Y99.752 E4.11524
G1 X123.262 Y99.693 E4.1334
G1 X122.885 Y99.693 E4.14788
G1 X122.416 Y99.752 E4.16604
G1 X121.969 Y99.898 E4.18411
G1 X121.628 Y100.058 E4.19858
G1 X121.362 Y100.225 E4.21064
G1 X121.158 Y100.004 E4.2222
G1 X121.374 Y99.741 E4.23527
G1 X121.576 Y99.423 E4.24974
G1 X121.777 Y98.995 E4.26791
G1 X121.894 Y98.54 E4.28596
G1 X121.941 Y98.166 E4.30044
G1 X121.941 Y97.789 E4.31492
G1 X121.894 Y97.415 E4.3294
G1 X121.777 Y96.96 E4.34745
G1 X121.576 Y96.532 E4.36561
G1 X121.374 Y96.214 E4.38008
G1 X121.134 Y95.924 E4.39454
G1 X120.859 Y95.666 E4.40903
G1 X120.554 Y95.444 E4.42352
G1 X120.224 Y95.263 E4.43798
G1 X119.79 Y95.091 E4.45591
G1 X119.23 Y94.983 E4.47782
G1 X118.665 Y94.983 E4.49953
G1 X118.105 Y95.09 E4.52143
G1 X117.669 Y95.263 E4.53945
G1 X117.255 Y95.49 E4.55759
G1 X116.893 Y95.791 E4.57567
G1 X116.577 Y96.127 E4.59339
G1 X116.376 Y96.435 E4.60752
G1 X116.295 Y96.396 E4.61097
G1 X116.409 Y95.976 E4.62769
G1 X116.456 Y95.602 E4.64217
G1 X116.456 Y95.225 E4.65666
G1 X116.409 Y94.851 E4.67114
G1 X116.292 Y94.396 E4.68918
G1 X116.091 Y93.968 E4.70735
G1 X115.889 Y93.65 E4.72182
G1 X115.649 Y93.36 E4.73628
G1 X115.303 Y93.035 E4.75452
G1 X114.825 Y92.733 E4.77624
G1 X114.305 Y92.527 E4.79772
G1 X113.745 Y92.419 E4.81963
G1 X113.18 Y92.419 E4.84134
G1 X112.716 Y92.508 E4.85949
G1 X112.357 Y92.624 E4.87398
G1 X112.016 Y92.785 E4.88847
G1 X111.698 Y92.986 E4.90292
G1 X111.408 Y93.227 E4.9174
G1 X111.15 Y93.501 E4.93186
G1 X110.929 Y93.806 E4.94633
G1 X110.701 Y94.219 E4.96445
G1 X110.556 Y94.667 E4.98254
G1 X110.493 Y94.993 E4.9953
G1 X110.396 Y94.487 E5.01509
G1 X110.251 Y94.039 E5.03318
G1 X110.023 Y93.625 E5.05134
G1 X109.802 Y93.32 E5.06581
G1 X109.544 Y93.046 E5.08026
G1 X109.182 Y92.746 E5.09832
G1 X108.684 Y92.472 E5.12016
G1 X108.236 Y92.327 E5.13825
G1 X107.866 Y92.256 E5.15272
G1 X107.49 Y92.233 E5.16719
G1 X107.114 Y92.256 E5.18166
G1 X106.744 Y92.327 E5.19614
G1 X106.296 Y92.472 E5.21423
G1 X105.883 Y92.7 E5.23235
G1 X105.578 Y92.921 E5.24682
G1 X105.303 Y93.179 E5.2613
G1 X105.063 Y93.469 E5.27576
G1 X104.861 Y93.787 E5.29024
G1 X104.701 Y94.128 E5.30471
G1 X104.555 Y94.576 E5.32281
G1 X104.496 Y95.044 E5.34093
G1 X104.496 Y95.421 E5.35541
G1 X104.579 Y96.082 E5.381
G1 X104.367 Y95.705 E5.39762
G1 X104.007 Y95.269 E5.41934
G1 X103.646 Y94.972 E5.4373
G1 X103.328 Y94.77 E5.45177
G1 X102.987 Y94.61 E5.46624
G1 X102.54 Y94.464 E5.4843
G1 X102.071 Y94.405 E5.50246
G1 X101.694 Y94.405 E5.51695
G1 X101.226 Y94.464 E5.53507
G1 X100.778 Y94.61 E5.55317
G1 X100.438 Y94.77 E5.5676
G1 X100.12 Y94.972 E5.58208
G1 X99.829 Y95.212 E5.59657
G1 X99.571 Y95.487 E5.61105
G1 X99.35 Y95.792 E5.62552
G1 X99.168 Y96.122 E5.64
G1 X99.03 Y96.472 E5.65445
G1 X98.936 Y96.837 E5.66893
G1 X98.889 Y97.211 E5.68341
G1 X98.889 Y97.588 E5.69789
G1 X98.936 Y97.961 E5.71234
G1 X99.03 Y98.326 E5.72681
G1 X99.168 Y98.677 E5.7413
G1 X99.35 Y99.007 E5.75578
G1 X99.535 Y99.264 E5.76794
G1 X99.452 Y99.348 E5.77248
G1 X99.149 Y99.129 E5.78684
G1 X98.736 Y98.901 E5.80497
G1 X98.288 Y98.756 E5.82306
G1 X97.918 Y98.685 E5.83753
G1 X97.542 Y98.662 E5.852
G1 X97.166 Y98.685 E5.86647
G1 X96.796 Y98.756 E5.88094
G1 X96.348 Y98.901 E5.89903
G1 X95.935 Y99.129 E5.91716
G1 X95.554 Y99.405 E5.93523
;;retract move;;
G1 F3840 X95.23 Y99.749 E5.70723
G1 X94.952 Y100.132 E5.47923
G1 X94.753 Y100.557 E5.25123
G1 X94.607 Y101.005 E5.02323
G1 X94.593 Y101.119 E4.79523
G1 F1800 E4.73523
G0 F4800 X96.747 Y103.485 Z0.6
;MESH:0_0
G0 X100.255 Y107.337
;TYPE:WALL-OUTER
G1 F600 Z0.2
G1 F1800 E5.93523
G1 F1200 X100.709 Y107.355 E5.95181
G1 X106.238 Y116.67 E6.34713
G1 X108.151 Y116.676 E6.41695
G1 X112.257 Y109.871 E6.707
G1 X112.414 Y109.763 E6.71395
G1 X115.401 Y109.763 E6.82296
G1 X115.588 Y110.135 E6.83816
G1 X115.577 Y110.254 E6.84252
G1 X109.886 Y119.665 E7.24388
G1 X109.755 Y119.725 E7.24914
G1 X104.463 Y119.73 E7.44227
G1 X104.315 Y119.677 E7.44801
G1 X98.76 Y110.072 E7.85294
G1 X98.76 Y109.919 E7.85853
G1 X100.255 Y107.337 E7.96741
G0 F4800 X100.09 Y106.895
;TYPE:WALL-INNER
G1 F1200 X100.561 Y106.848 E7.98592
G1 X100.89 Y106.929 E7.99917
G1 F977 X101.268 Y107.138 E8.01991
G1 F814.8 X103.009 Y110.057 E8.21563
G1 F964.3 X103.109 Y110.462 E8.23593
G1 F1200 X106.511 Y116.192 E8.4965
G1 X107.882 Y116.197 E8.55011
G1 X108.448 Y115.258 E8.59298
