;FLAVOR:Marlin
;TIME:315.89
;Filament used:0.336651m
;Material Diameter:1.75
;Material Density:1.24
;Filament Cost:0.020082
;Filament Weight:1.004077
;Filament Length:0.336651
;Layer height:0.2
;MINX:2.292
;MINY:2.232
;MINZ:0.2
;MAXX:133.089
;MAXY:133.209
;MAXZ:20.401
;OuterWall Time:38.1869
;InnerWall Time:28.1946
;Skin Time:205.682
;Support Time:0
;SkirtBrim Time:8.28647
;Infill Time:0
;Support Infills Time:0
;Combing Time:8.55492
;Retraction Time:26.9854
;PrimeTower Time:0

;;;;;;;;;;;;;;;;;;;;;;;;;;;;;;;;;;;;;;;;;;;;;;;;;;;;;;;;;;;;;;;;;;;;;;;;;;;;
;Creality Print GCode Generated by CXEngine
;CRSLICE_GIT_HASH:58ee74d
;Creality Print Version : V4.3.8.6984
;CXEngine Release Time:2023-12-04 18:16:29
;Gcode Generated Time:2025-03-26 21:47:58
;----------Machine Config--------------
;Machine Name:Ender-3 V3 SE
;Machine Height:250
;Machine Width:220
;Machine Depth:220
;Material Type:PLA
;Material Name:CR-PLA_1.75
;Number of Extruders:1
;ExtruderParams[0] Nozzle Diameter:1000
;----------Profile Config---------------
;Wall Thickness:0.8
;Top/Bottom Thickness:0.8
;Out Wall Line Width:0.42
;Inner Wall Line Width:0.45
;Inital Height:200
;Wall Line Count:2
;Infill Line Distance:8
;Infill Pattern:grid
;Infill Sparse Density:10
;Infill Wipe Distance:0
;Print Temperature:190
;Bed Temperature:60
;Support Enable:false
;Support Density:15
;Support Angle:60
;Adhesion Type:lace
;machine is belt:false
;machine belt offset:10
;machine belt offset Y:0
;Raft Base Line Spacing:1.6
;Wait Heatup Sync:true
;Enable Ironing:false
;Material Type:PLA
;Max volumetric speed:20
;Preview Img Type:png
;Screen Size:Sermoon D3
;----------Shell Config----------------
;Outer Wall Wipe Distance:2000
;Outer Inset First:false
;Infill Before Walls:false
;Infill Overlap:0.09
;Fill Gaps Between Walls:everywhere
;Minimum Infill Area:30
;Top Surface Skin Layer:0
;Top Layers:5
;Z Seam Alignment:sharpest_corner
;Seam Corner Preference:z_seam_corner_inner
;Z Seam X:110
;Z Seam Y:220
;Horizontal Expansion:0
;Top/Bottom Pattern:zigzag
;Ironing Pattern:zigzag
;Vase Model:false
;----------Support Config----------------
;Support Type:everywhere
;Support Pattern:zigzag
;Support Infill Layer Thickness:0.2
;Minimum Support Area:1
;Enable Support Roof:true
;Support Roof Thickness:0.8
;Support Roof Pattern:lines
;Connect Support Lines:0
;Connect Support ZigZags:1
;Minimum Support X/Y Distance:0.2
;Support Line Distance:2.67
; ---------PrintSpeed & Travel----------
;Enable Print Cool:true
;Avoid Printed Parts Traveling:true
;Enable Retraction:true
;Retraction Distance:1.2
;Retraction Speed:30
;Retraction Prime Speed:30
;Maximum Retraction Count:100
;Minimum Extrusion Distance Window:0.8
;Z Hop When Retracted:true
;Z Hop Height:0.4
;Retract Before Outer Wall:true

;Outer Wall Speed:60
;Inner Wall Speed:90
;Infill Speed:180
;Top/Bottom Speed:50
;Travel Speed:150
;Initial Layer Speed:20
;Skirt/Brim Speed:25
;Prime Tower Speed:60
;Outer Wall Acceleration:1000
;Inner Wall Acceleration:2000
;Infill Acceleration:2500
;Top/Bottom Acceleration:2500
;Travel Acceleration:2500
;Initial Layer Print Acceleration:500
;Initial Layer Travel Acceleration:500
;Skirt/Brim Acceleration:500
;Combing Mode:off
; --------SpecialModel&Mesh Fixes--------
;Union Overlapping Volum:true
;Remove All Holes:false
;Maximum Travel Resolution:0.25
;Maximum Deviation:0.05
;Maximum Model Angle:0.872665
;IS Mold Print:false
;Make Overhang Printable:false
;Enable Coasting:false
;Coasting Volumes:0.064
;Coasting Speed:0.9
;Raft AirGap:0.25
;Layer0 ZOverLap:0.13
;Adaptive Layers:0
;---------------------End of Head--------------------------
M140 S60
M105
M190 S60
M104 S190
M82 ;absolute extrusion mode
M220 S100 ;Reset Feedrate
M221 S100 ;Reset Flowrate

G28 ;Home

G92 E0 ;Reset Extruder
G1 Z2.0 F3000 ;Move Z Axis up
G1 X-2.1 Y20 Z0.28 F5000.0 ;Move to start position
M109 S190.000000
G1 X-2.1 Y145.0 Z0.28 F1500.0 E15 ;Draw the first line
G1 X-2.4 Y145.0 Z0.28 F5000.0 ;Move to side a little
G1 X-2.4 Y20 Z0.28 F1500.0 E30 ;Draw the second line
G92 E0  ;Reset Extruder
G1 E-1.0000 F1800 ;Retract a bit
G1 Z2.0 F3000 ;Move Z Axis up
G1 E0.0000 F1800 

G92 E0
G92 E0
G1 F1800 E-1.2
;LAYER_COUNT:23

;LAYER:0
M106 S0
M204 S500
;;retract;;
G1 F1800 E0
G1 F1800 E-1.2
G0 F4800 X2.292 Y2.232 Z20.401
G0 X93.204 Y90.734 Z0.6
;TYPE:SKIRT
G1 F600 Z0.2
G1 F1800 E0
G1 F1500 X92.946 Y91.009 E0.01449
G1 X92.725 Y91.314 E0.02895
G1 X92.497 Y91.727 E0.04708
G1 X92.352 Y92.175 E0.06517
G1 X92.281 Y92.545 E0.07964
G1 X92.258 Y92.921 E0.09411
G1 X92.281 Y93.297 E0.10858
G1 X92.352 Y93.667 E0.12306
G1 X92.497 Y94.115 E0.14114
G1 X92.725 Y94.529 E0.1593
G1 X92.946 Y94.834 E0.17377
G1 X93.138 Y95.042 E0.18464
G1 X92.927 Y94.852 E0.19555
G1 X92.623 Y94.631 E0.20999
G1 X92.292 Y94.449 E0.2245
G1 X91.942 Y94.311 E0.23895
G1 X91.577 Y94.217 E0.25343
G1 X91.203 Y94.17 E0.26791
G1 X90.827 Y94.17 E0.28236
G1 X90.453 Y94.217 E0.29684
G1 X90.088 Y94.311 E0.31132
G1 X89.738 Y94.449 E0.32577
G1 X89.408 Y94.631 E0.34025
G1 X89.103 Y94.852 E0.35472
G1 X88.828 Y95.11 E0.3692
G1 X88.588 Y95.401 E0.38369
G1 X88.386 Y95.719 E0.39816
G1 X88.226 Y96.06 E0.41263
G1 X88.08 Y96.507 E0.4307
G1 X88.021 Y96.976 E0.44886
G1 X88.021 Y97.352 E0.4633
G1 X88.08 Y97.821 E0.48146
G1 X88.226 Y98.268 E0.49953
G1 X88.386 Y98.609 E0.514
G1 X88.634 Y99 E0.53178
G1 X88.898 Y99.288 E0.54679
G1 X88.8 Y99.393 E0.55231
G1 X89.195 Y99.798 E0.57404
G1 X88.934 Y100.082 E0.58886
G1 X88.685 Y100.474 E0.6067
G1 X88.525 Y100.815 E0.62117
G1 X88.409 Y101.173 E0.63563
G1 X88.32 Y101.637 E0.65378
G1 X88.32 Y102.108 E0.67187
G1 X88.368 Y102.482 E0.68635
G1 X88.484 Y102.937 E0.70439
G1 X88.685 Y103.365 E0.72256
G1 X88.887 Y103.683 E0.73703
G1 X89.127 Y103.973 E0.75149
G1 X89.402 Y104.231 E0.76598
G1 X89.707 Y104.452 E0.78044
G1 X90.037 Y104.634 E0.79492
G1 X90.471 Y104.806 E0.81286
G1 X90.938 Y104.896 E0.83113
G1 X91.314 Y104.919 E0.8456
G1 X91.781 Y104.89 E0.86357
G1 X92.241 Y104.773 E0.88181
G1 X92.592 Y104.634 E0.89631
G1 X92.922 Y104.452 E0.91079
G1 X93.227 Y104.231 E0.92525
G1 X93.435 Y104.04 E0.9361
G1 X93.245 Y104.25 E0.94698
G1 X92.967 Y104.633 E0.96516
G1 X92.768 Y105.058 E0.98319
G1 X92.622 Y105.505 E1.00125
G1 X92.563 Y105.974 E1.01941
G1 X92.563 Y106.35 E1.03386
G1 X92.622 Y106.819 E1.05202
G1 X92.768 Y107.266 E1.07008
G1 X92.967 Y107.691 E1.08811
G1 X93.301 Y108.152 E1.10998
G1 X93.645 Y108.474 E1.12808
G1 X94.028 Y108.752 E1.14626
G1 X94.453 Y108.951 E1.16429
G1 X94.9 Y109.097 E1.18235
G1 X95.369 Y109.156 E1.20051
G1 X95.745 Y109.156 E1.21495
G1 X96.214 Y109.097 E1.23311
G1 X96.661 Y108.951 E1.25118
G1 X97.086 Y108.752 E1.26921
G1 X97.469 Y108.474 E1.28739
G1 X97.678 Y108.283 E1.29826
G1 X97.488 Y108.492 E1.30911
G1 X97.267 Y108.797 E1.32358
G1 X97.085 Y109.127 E1.33806
G1 X96.912 Y109.563 E1.35608
G1 X96.823 Y110.029 E1.3743
G1 X96.8 Y110.405 E1.38878
G1 X96.823 Y110.781 E1.40325
G1 X96.913 Y111.248 E1.42152
G1 X97.085 Y111.682 E1.43945
G1 X97.267 Y112.012 E1.45393
G1 X97.488 Y112.317 E1.4684
G1 X97.746 Y112.592 E1.48288
G1 X98.036 Y112.832 E1.49734
G1 X98.354 Y113.034 E1.51182
G1 X98.781 Y113.234 E1.52993
G1 X99.238 Y113.352 E1.54806
G1 X99.611 Y113.399 E1.5625
G1 X99.988 Y113.399 E1.57699
G1 X100.362 Y113.352 E1.59147
G1 X100.817 Y113.235 E1.60951
G1 X101.245 Y113.034 E1.62768
G1 X101.637 Y112.785 E1.64552
G1 X101.92 Y112.525 E1.66028
G1 X101.658 Y112.816 E1.67532
G1 X101.413 Y113.202 E1.69289
G1 X101.212 Y113.63 E1.71105
G1 X101.095 Y114.085 E1.7291
G1 X101.048 Y114.459 E1.74358
G1 X101.048 Y114.836 E1.75806
G1 X101.095 Y115.209 E1.77251
G1 X101.213 Y115.666 E1.79064
G1 X101.413 Y116.093 E1.80875
G1 X101.615 Y116.411 E1.82322
G1 X101.855 Y116.701 E1.83768
G1 X102.13 Y116.959 E1.85217
G1 X102.435 Y117.18 E1.86664
G1 X102.848 Y117.408 E1.88476
G1 X103.296 Y117.553 E1.90285
G1 X103.666 Y117.624 E1.91732
G1 X104.042 Y117.647 E1.93179
G1 X104.418 Y117.624 E1.94627
G1 X104.788 Y117.553 E1.96074
G1 X105.236 Y117.408 E1.97883
G1 X105.65 Y117.18 E1.99698
G1 X105.955 Y116.959 E2.01145
G1 X106.163 Y116.768 E2.0223
G1 X105.973 Y116.978 E2.03318
G1 X105.752 Y117.282 E2.04762
G1 X105.57 Y117.613 E2.06213
G1 X105.432 Y117.963 E2.07658
G1 X105.338 Y118.328 E2.09106
G1 X105.291 Y118.702 E2.10554
G1 X105.291 Y119.078 E2.11999
G1 X105.338 Y119.452 E2.13447
G1 X105.432 Y119.817 E2.14895
G1 X105.57 Y120.167 E2.1634
G1 X105.752 Y120.497 E2.17788
G1 X105.973 Y120.802 E2.19234
G1 X106.231 Y121.077 E2.20683
G1 X106.522 Y121.317 E2.22132
G1 X106.84 Y121.519 E2.23579
G1 X107.181 Y121.679 E2.25026
G1 X107.628 Y121.825 E2.26833
G1 X108.097 Y121.884 E2.28649
G1 X108.473 Y121.884 E2.30093
G1 X108.942 Y121.825 E2.31909
G1 X109.389 Y121.679 E2.33715
G1 X109.73 Y121.519 E2.35162
G1 X110.119 Y121.272 E2.36933
G1 X110.406 Y121.011 E2.38423
G1 X110.216 Y121.22 E2.39508
G1 X109.995 Y121.525 E2.40955
G1 X109.813 Y121.855 E2.42403
G1 X109.674 Y122.206 E2.43853
G1 X109.557 Y122.666 E2.45676
G1 X109.528 Y123.133 E2.47474
G1 X109.551 Y123.509 E2.48921
G1 X109.641 Y123.976 E2.50748
G1 X109.813 Y124.41 E2.52541
G1 X109.995 Y124.74 E2.53989
G1 X110.269 Y125.118 E2.55782
G1 X110.685 Y125.51 E2.57978
G1 X111.082 Y125.762 E2.59785
G1 X111.51 Y125.963 E2.61601
G1 X111.965 Y126.079 E2.63405
G1 X112.433 Y126.139 E2.65217
G1 X112.904 Y126.109 E2.6703
G1 X113.274 Y126.038 E2.68478
G1 X113.632 Y125.922 E2.69923
G1 X113.973 Y125.762 E2.7137
G1 X114.365 Y125.513 E2.73154
G1 X114.648 Y125.253 E2.74631
G1 X114.386 Y125.544 E2.76135
G1 X114.141 Y125.93 E2.77891
G1 X113.981 Y126.271 E2.79338
G1 X113.835 Y126.718 E2.81145
G1 X113.776 Y127.187 E2.82961
G1 X113.776 Y127.564 E2.84409
G1 X113.835 Y128.032 E2.86221
G1 X113.981 Y128.48 E2.88031
G1 X114.141 Y128.821 E2.89478
G1 X114.343 Y129.139 E2.90925
G1 X114.583 Y129.429 E2.92371
G1 X114.858 Y129.687 E2.9382
G1 X115.163 Y129.908 E2.95267
G1 X115.576 Y130.136 E2.97079
G1 X116.024 Y130.281 E2.98888
G1 X116.394 Y130.352 E3.00335
G1 X116.77 Y130.375 E3.01782
G1 X117.146 Y130.352 E3.0323
G1 X117.516 Y130.281 E3.04677
G1 X117.964 Y130.136 E3.06486
G1 X118.378 Y129.908 E3.08301
G1 X118.647 Y129.714 E3.09575
G1 X118.61 Y130.027 E3.10786
G1 X118.61 Y130.403 E3.12231
G1 X118.669 Y130.872 E3.14047
G1 X118.815 Y131.319 E3.15853
G1 X119.014 Y131.744 E3.17656
G1 X119.348 Y132.205 E3.19843
G1 X119.692 Y132.527 E3.21653
G1 X120.075 Y132.805 E3.23471
G1 X120.5 Y133.004 E3.25274
G1 X120.947 Y133.15 E3.2708
G1 X121.416 Y133.209 E3.28896
G1 X121.792 Y133.209 E3.3034
G1 X122.261 Y133.15 E3.32156
G1 X122.708 Y133.004 E3.33963
G1 X123.137 Y132.803 E3.35783
G1 X123.594 Y132.47 E3.37955
G1 X123.916 Y132.127 E3.39762
G1 X124.137 Y131.822 E3.41209
G1 X124.319 Y131.492 E3.42657
G1 X124.457 Y131.142 E3.44102
G1 X124.551 Y130.777 E3.4555
G1 X124.598 Y130.403 E3.46998
G1 X124.598 Y130.027 E3.48442
G1 X124.551 Y129.653 E3.4989
G1 X124.457 Y129.288 E3.51338
G1 X124.319 Y128.938 E3.52784
G1 X124.137 Y128.608 E3.54231
G1 X123.916 Y128.303 E3.55678
G1 X123.725 Y128.095 E3.56763
G1 X123.934 Y128.284 E3.57846
G1 X124.239 Y128.505 E3.59293
G1 X124.569 Y128.687 E3.6074
G1 X125.005 Y128.86 E3.62542
G1 X125.471 Y128.949 E3.64365
G1 X125.847 Y128.972 E3.65812
G1 X126.223 Y128.949 E3.67259
G1 X126.69 Y128.859 E3.69086
G1 X127.124 Y128.687 E3.70879
G1 X127.454 Y128.505 E3.72327
G1 X127.759 Y128.284 E3.73774
G1 X128.034 Y128.026 E3.75223
G1 X128.274 Y127.736 E3.76669
G1 X128.476 Y127.418 E3.78116
G1 X128.676 Y126.991 E3.79927
G1 X128.794 Y126.534 E3.8174
G1 X128.841 Y126.161 E3.83185
G1 X128.841 Y125.784 E3.84633
G1 X128.794 Y125.41 E3.86081
G1 X128.677 Y124.955 E3.87886
G1 X128.476 Y124.527 E3.89702
G1 X128.227 Y124.136 E3.91483
G1 X127.968 Y123.853 E3.92957
G1 X128.258 Y124.114 E3.94455
G1 X128.644 Y124.359 E3.96212
G1 X129.072 Y124.56 E3.98028
G1 X129.527 Y124.677 E3.99833
G1 X129.901 Y124.724 E4.01281
G1 X130.278 Y124.724 E4.02729
G1 X130.651 Y124.677 E4.04174
G1 X131.108 Y124.559 E4.05987
G1 X131.535 Y124.359 E4.07798
G1 X131.853 Y124.157 E4.09245
G1 X132.143 Y123.917 E4.10691
G1 X132.401 Y123.642 E4.1214
G1 X132.622 Y123.337 E4.13587
G1 X132.85 Y122.924 E4.15399
G1 X132.995 Y122.476 E4.17208
G1 X133.066 Y122.106 E4.18655
G1 X133.089 Y121.73 E4.20102
G1 X133.066 Y121.354 E4.2155
G1 X132.995 Y120.984 E4.22997
G1 X132.85 Y120.536 E4.24806
G1 X132.622 Y120.122 E4.26621
G1 X132.348 Y119.744 E4.28415
G1 X132.002 Y119.418 E4.30241
G1 X131.697 Y119.197 E4.31688
G1 X131.283 Y118.969 E4.33504
G1 X130.835 Y118.824 E4.35313
G1 X130.465 Y118.753 E4.3676
G1 X130.089 Y118.73 E4.38207
G1 X129.713 Y118.753 E4.39654
G1 X129.414 Y118.808 E4.40822
G1 X129.146 Y118.54 E4.42278
G1 X129.337 Y118.332 E4.43363
G1 X129.558 Y118.027 E4.4481
G1 X129.74 Y117.697 E4.46258
G1 X129.879 Y117.346 E4.47708
G1 X129.996 Y116.886 E4.49531
G1 X130.025 Y116.419 E4.51329
G1 X130.002 Y116.043 E4.52776
G1 X129.912 Y115.576 E4.54603
G1 X129.74 Y115.142 E4.56396
G1 X129.558 Y114.812 E4.57844
G1 X129.337 Y114.507 E4.59291
G1 X129.079 Y114.232 E4.60739
G1 X128.789 Y113.992 E4.62185
G1 X128.471 Y113.79 E4.63633
G1 X128.043 Y113.589 E4.65449
G1 X127.588 Y113.473 E4.67253
G1 X127.12 Y113.413 E4.69065
G1 X126.649 Y113.443 E4.70879
G1 X126.279 Y113.514 E4.72326
G1 X125.921 Y113.63 E4.73771
G1 X125.58 Y113.79 E4.75218
G1 X125.188 Y114.039 E4.77003
G1 X124.905 Y114.299 E4.78479
G1 X125.167 Y114.008 E4.79983
G1 X125.412 Y113.622 E4.81739
G1 X125.613 Y113.194 E4.83556
G1 X125.73 Y112.739 E4.85361
G1 X125.777 Y112.365 E4.86809
G1 X125.777 Y111.988 E4.88257
G1 X125.73 Y111.615 E4.89701
G1 X125.612 Y111.158 E4.91514
G1 X125.412 Y110.731 E4.93326
G1 X125.21 Y110.413 E4.94773
G1 X124.97 Y110.123 E4.96219
G1 X124.695 Y109.865 E4.97668
G1 X124.39 Y109.644 E4.99114
G1 X123.977 Y109.416 E5.00927
G1 X123.529 Y109.271 E5.02736
G1 X123.159 Y109.2 E5.04183
G1 X122.783 Y109.177 E5.0563
G1 X122.407 Y109.2 E5.07077
G1 X122.037 Y109.271 E5.08524
G1 X121.589 Y109.416 E5.10333
G1 X121.175 Y109.644 E5.12149
G1 X120.87 Y109.865 E5.13596
G1 X120.663 Y110.057 E5.14681
G1 X120.852 Y109.846 E5.15769
G1 X121.073 Y109.542 E5.17213
G1 X121.255 Y109.211 E5.18664
G1 X121.393 Y108.861 E5.20109
G1 X121.487 Y108.496 E5.21557
G1 X121.534 Y108.122 E5.23005
G1 X121.534 Y107.746 E5.24449
G1 X121.487 Y107.372 E5.25897
G1 X121.393 Y107.007 E5.27345
G1 X121.255 Y106.657 E5.28791
G1 X121.073 Y106.327 E5.30238
G1 X120.852 Y106.022 E5.31685
G1 X120.594 Y105.747 E5.33134
G1 X120.303 Y105.507 E5.34583
G1 X119.985 Y105.305 E5.3603
G1 X119.644 Y105.145 E5.37477
G1 X119.197 Y104.999 E5.39283
G1 X118.728 Y104.94 E5.41099
G1 X118.352 Y104.94 E5.42544
G1 X117.883 Y104.999 E5.4436
G1 X117.436 Y105.145 E5.46166
G1 X117.095 Y105.305 E5.47613
G1 X116.703 Y105.554 E5.49397
G1 X116.42 Y105.814 E5.50873
G1 X116.609 Y105.604 E5.51959
G1 X116.83 Y105.299 E5.53406
G1 X117.058 Y104.886 E5.55218
G1 X117.203 Y104.438 E5.57027
G1 X117.292 Y103.973 E5.58846
G1 X117.292 Y103.408 E5.61016
G1 X117.184 Y102.848 E5.63207
G1 X117.012 Y102.414 E5.65
G1 X116.83 Y102.084 E5.66448
G1 X116.556 Y101.706 E5.68242
G1 X116.21 Y101.38 E5.70068
G1 X115.905 Y101.158 E5.71517
G1 X115.491 Y100.931 E5.73331
G1 X115.044 Y100.786 E5.75136
G1 X114.673 Y100.715 E5.76587
G1 X114.297 Y100.691 E5.78034
G1 X113.921 Y100.715 E5.79482
G1 X113.454 Y100.805 E5.81309
G1 X113.02 Y100.977 E5.83102
G1 X112.69 Y101.158 E5.84548
G1 X112.385 Y101.38 E5.85997
G1 X112.178 Y101.572 E5.87082
G1 X112.44 Y101.278 E5.88595
G1 X112.684 Y100.894 E5.90342
G1 X112.844 Y100.553 E5.91789
G1 X112.99 Y100.106 E5.93596
G1 X113.049 Y99.637 E5.95412
G1 X113.049 Y99.26 E5.9686
G1 X112.99 Y98.792 E5.98672
G1 X112.815 Y98.255 E6.00842
G1 X112.543 Y97.758 E6.03018
G1 X112.242 Y97.395 E6.0483
G1 X111.967 Y97.137 E6.06278
G1 X111.662 Y96.916 E6.07725
G1 X111.249 Y96.688 E6.09538
G1 X110.801 Y96.543 E6.11346
G1 X110.431 Y96.472 E6.12794
G1 X110.055 Y96.449 E6.14241
G1 X109.679 Y96.472 E6.15688
G1 X109.309 Y96.543 E6.17135
G1 X108.861 Y96.688 E6.18944
G1 X108.447 Y96.916 E6.2076
G1 X108.143 Y97.137 E6.22204
G1 X107.935 Y97.329 E6.23291
G1 X108.124 Y97.118 E6.24379
G1 X108.345 Y96.814 E6.25823
G1 X108.571 Y96.403 E6.27625
G1 X108.747 Y95.863 E6.29807
G1 X108.806 Y95.395 E6.31619
