;FLAVOR:Marlin
;TIME:1321.85
;Filament used:2.20172m
;Material Diameter:1.75
;Material Density:1.24
;Filament Cost:0.131335
;Filament Weight:6.566727
;Filament Length:2.201716
;Layer height:0.2
;MINX:1.959
;MINY:2.529
;MINZ:0.2
;MAXX:150.64
;MAXY:126.94
;MAXZ:20.401
;OuterWall Time:286.004
;InnerWall Time:196.764
;Skin Time:536.574
;Support Time:0
;SkirtBrim Time:0
;Infill Time:132.594
;Support Infills Time:0
;Combing Time:49.4579
;Retraction Time:120.459
;PrimeTower Time:0


;;;;;;;;;;;;;;;;;;;;;;;;;;;;;;;;;;;;;;;;;;;;;;;;;;;;;;;;;;;;;;;;;;;;;;;;;;;;
;Creality Print GCode Generated by CXEngine
;CRSLICE_GIT_HASH:58ee74d
;Creality Print Version : V4.3.8.6984
;CXEngine Release Time:2023-12-04 18:16:29
;Gcode Generated Time:2024-02-18 22:27:22
;----------Machine Config--------------
;Machine Name:Ender-3 V3 SE
;Machine Height:250
;Machine Width:220
;Machine Depth:220
;Material Type:PLA
;Material Name:CR-PLA_1.75
;Number of Extruders:1
;ExtruderParams[0] Nozzle Diameter:1000
;----------Profile Config---------------
;Wall Thickness:0.8
;Top/Bottom Thickness:0.8
;Out Wall Line Width:0.42
;Inner Wall Line Width:0.45
;Inital Height:200
;Wall Line Count:2
;Infill Line Distance:8
;Infill Pattern:grid
;Infill Sparse Density:10
;Infill Wipe Distance:0
;Print Temperature:190
;Bed Temperature:60
;Support Enable:false
;Support Density:15
;Support Angle:60
;Adhesion Type:autobrim
;machine is belt:false
;machine belt offset:10
;machine belt offset Y:0
;Raft Base Line Spacing:1.6
;Wait Heatup Sync:true
;Enable Ironing:false
;Material Type:PLA
;Max volumetric speed:20
;Preview Img Type:png
;Screen Size:Sermoon D3
;----------Shell Config----------------
;Outer Wall Wipe Distance:2000
;Outer Inset First:false
;Infill Before Walls:false
;Infill Overlap:0.09
;Fill Gaps Between Walls:everywhere
;Minimum Infill Area:30
;Top Surface Skin Layer:0
;Top Layers:4
;Z Seam Alignment:sharpest_corner
;Seam Corner Preference:z_seam_corner_inner
;Z Seam X:110
;Z Seam Y:220
;Horizontal Expansion:0
;Top/Bottom Pattern:zigzag
;Ironing Pattern:zigzag
;Vase Model:false
;----------Support Config----------------
;Support Type:everywhere
;Support Pattern:zigzag
;Support Infill Layer Thickness:0.2
;Minimum Support Area:1
;Enable Support Roof:true
;Support Roof Thickness:0.8
;Support Roof Pattern:lines
;Connect Support Lines:0
;Connect Support ZigZags:1
;Minimum Support X/Y Distance:0.2
;Support Line Distance:2.67
; ---------PrintSpeed & Travel----------
;Enable Print Cool:true
;Avoid Printed Parts Traveling:true
;Enable Retraction:true
;Retraction Distance:1.2
;Retraction Speed:30
;Retraction Prime Speed:30
;Maximum Retraction Count:100
;Minimum Extrusion Distance Window:0.8
;Z Hop When Retracted:true
;Z Hop Height:0.4
;Retract Before Outer Wall:true

;Outer Wall Speed:60
;Inner Wall Speed:90
;Infill Speed:180
;Top/Bottom Speed:50
;Travel Speed:150
;Initial Layer Speed:30
;Skirt/Brim Speed:25
;Prime Tower Speed:60
;Outer Wall Acceleration:1000
;Inner Wall Acceleration:2000
;Infill Acceleration:2500
;Top/Bottom Acceleration:2500
;Travel Acceleration:2500
;Initial Layer Print Acceleration:500
;Initial Layer Travel Acceleration:500
;Skirt/Brim Acceleration:500
;Combing Mode:off
; --------SpecialModel&Mesh Fixes--------
;Union Overlapping Volum:true
;Remove All Holes:false
;Maximum Travel Resolution:0.25
;Maximum Deviation:0.05
;Maximum Model Angle:0.872665
;IS Mold Print:false
;Make Overhang Printable:false
;Enable Coasting:false
;Coasting Volumes:0.064
;Coasting Speed:0.9
;Raft AirGap:0.25
;Layer0 ZOverLap:0.13
;Adaptive Layers:0
;---------------------End of Head--------------------------
M140 S60
M105
M190 S60
M104 S190
M82 ;absolute extrusion mode
M220 S100 ;Reset Feedrate
M221 S100 ;Reset Flowrate

G28 ;Home

G92 E0 ;Reset Extruder
G1 Z2.0 F3000 ;Move Z Axis up
G1 X-2.1 Y20 Z0.28 F5000.0 ;Move to start position
M109 S190.000000
G1 X-2.1 Y145.0 Z0.28 F1500.0 E15 ;Draw the first line
G1 X-2.4 Y145.0 Z0.28 F5000.0 ;Move to side a little
G1 X-2.4 Y20 Z0.28 F1500.0 E30 ;Draw the second line
G92 E0  ;Reset Extruder
G1 E-1.0000 F1800 ;Retract a bit
G1 Z2.0 F3000 ;Move Z Axis up
G1 E0.0000 F1800 

G92 E0
G92 E0
G1 F1800 E-1.2
;LAYER_COUNT:50

;LAYER:0
M106 S0
M204 S500
;;retract;;
G1 F1800 E0
G1 F1800 E-1.2
G0 F4800 X1.959 Y2.529 Z20.401
;MESH:0_0
G0 X90.942 Y117.378 Z0.6
;TYPE:WALL-OUTER
G1 F600 Z0.2
G1 F1800 E0
G1 X91.078 Y117.19 E0.00847
G1 X91.08 Y102.821 E0.53286
G1 X90.89 Y102.622 E0.5429
G1 X84.038 Y102.622 E0.79296
G1 X83.919 Y102.919 E0.80464
G1 X69.381 Y102.919 E1.3352
G1 X69.381 Y93.081 E1.69423
G1 X150.619 Y93.081 E4.65899
G1 X150.619 Y112.619 E5.37202
G1 X143.531 Y112.619 E5.6307
G1 X141.053 Y102.706 E6.0036
G1 X140.89 Y102.622 E6.01029
G1 X100.811 Y102.622 E7.47296
G1 X100.62 Y102.821 E7.48303
G1 X100.619 Y126.919 E8.36248
G1 X69.381 Y126.919 E9.5025
G1 X69.381 Y117.081 E9.86153
G1 X83.919 Y117.081 E10.39209
G1 X84.038 Y117.378 E10.40377
G1 X90.942 Y117.378 E10.65573
G0 F4800 X91.182 Y117.777
;TYPE:WALL-INNER
G1 F1800 X91.477 Y117.482 E10.67204
G1 X91.559 Y117.244 E10.68188
G1 X91.554 Y102.762 E11.24815
G1 X91.418 Y102.424 E11.2624
G1 X91.184 Y102.224 E11.27443
G1 X90.944 Y102.141 E11.28436
G1 X84.064 Y102.141 E11.55338
G1 X83.764 Y102.254 E11.56592
G1 X83.663 Y102.441 E11.57423
G1 X69.859 Y102.441 E12.11398
G1 X69.859 Y93.559 E12.46128
G1 X150.141 Y93.559 E15.60042
G1 X150.141 Y112.141 E16.32701
G1 X143.904 Y112.141 E16.57088
G1 X141.538 Y102.677 E16.95233
G1 X141.305 Y102.266 E16.9708
G1 X140.944 Y102.141 E16.98574
G1 X100.767 Y102.141 E18.55672
G1 X100.424 Y102.282 E18.57122
G1 X100.215 Y102.532 E18.58396
G1 X100.146 Y102.762 E18.59335
G1 X100.141 Y126.441 E19.51923
G1 X69.859 Y126.441 E20.7033
G1 X69.859 Y117.559 E21.0506
G1 X83.663 Y117.559 E21.59036
G1 X83.764 Y117.746 E21.59867
G1 X84.064 Y117.859 E21.6112
G1 X90.931 Y117.859 E21.87971
G1 X91.182 Y117.777 E21.89004
;;retract move;;
G1 F3840 X91.477 Y117.482 E21.51004
G1 X91.559 Y117.244 E21.13004
G1 X91.559 Y115.912 E20.75004
G1 F1800 E20.69004
G0 F4800 X94.645 Y115.066 Z0.6
G0 X141.765 Y102.148
;TYPE:SKIN
G1 F600 Z0.2
G1 F1800 E21.89004
G1 X141.935 Y102.58 E21.90787
G1 X144.222 Y111.733 E22.2703
G1 X149.733 Y111.733 E22.48201
G1 X149.733 Y93.967 E23.1645
G1 X70.267 Y93.967 E26.21722
G1 X70.267 Y102.033 E26.52708
G1 X83.454 Y102.033 E27.03366
G1 X83.596 Y101.886 E27.04151
G1 X84.002 Y101.736 E27.05814
G1 X90.878 Y101.735 E27.32229
G1 X91.214 Y101.787 E27.33535
G1 X91.662 Y102.03 E27.35493
G1 X91.965 Y102.571 E27.37875
G1 X91.964 Y117.307 E27.94484
G1 X91.84 Y117.677 E27.95983
G1 X91.64 Y117.94 E27.97252
G1 X91.376 Y118.137 E27.98517
G1 X90.99 Y118.265 E28.0008
G1 X84.001 Y118.264 E28.26928
G1 X83.597 Y118.116 E28.28581
G1 X83.452 Y117.967 E28.2938
G1 X70.267 Y117.967 E28.80031
G1 X70.267 Y126.033 E29.11016
G1 X99.733 Y126.033 E30.24211
G1 X99.735 Y102.573 E31.14334
G1 X100.035 Y102.036 E31.16697
G1 X100.487 Y101.787 E31.18679
G1 X100.822 Y101.735 E31.19982
G1 X140.989 Y101.736 E32.74285
G1 X141.368 Y101.86 E32.75817
G1 X141.765 Y102.148 E32.77701
;;retract move;;
G1 F3840 X141.368 Y101.86 E32.54901
G1 X140.989 Y101.736 E32.32101
G1 X139.877 Y101.736 E32.09301
G1 X140.989 Y101.736 E31.86501
G1 X141.368 Y101.86 E31.63701
G1 F1800 E31.57701
G0 F4800 X143.757 Y99.732 Z0.6
G0 X149.501 Y94.618
G1 F600 Z0.2
G1 F1800 E32.77701
G1 X149.08 Y94.197 E32.79988
G1 X148.427 Y94.197
G1 X149.501 Y95.272 E32.85826
G1 X149.501 Y95.925
G1 X147.774 Y94.197 E32.95211
G1 X147.12 Y94.197
G1 X149.501 Y96.578 E33.08146
G1 X149.501 Y97.232
G1 X146.467 Y94.197 E33.24632
G1 X145.813 Y94.197
G1 X149.501 Y97.885 E33.44668
G1 X149.501 Y98.538
G1 X145.16 Y94.197 E33.68252
G1 X144.507 Y94.197
G1 X149.501 Y99.192 E33.95386
G1 X149.501 Y99.845
G1 X143.853 Y94.197 E34.2607
G1 X143.2 Y94.197
G1 X149.501 Y100.498 E34.60302
G1 X149.501 Y101.152
G1 X142.547 Y94.197 E34.98084
G1 X141.893 Y94.197
G1 X149.501 Y101.805 E35.39417
G1 X149.501 Y102.459
G1 X141.24 Y94.197 E35.84299
G1 X140.586 Y94.197
G1 X149.501 Y103.112 E36.32732
G1 X149.501 Y103.765
G1 X139.933 Y94.197 E36.84713
G1 X139.28 Y94.197
G1 X149.501 Y104.419 E37.40244
G1 X149.501 Y105.072
G1 X138.626 Y94.197 E37.99325
G1 X137.973 Y94.197
G1 X149.501 Y105.725 E38.61954
G1 X149.501 Y106.379
G1 X137.32 Y94.197 E39.28134
G1 X136.666 Y94.197
G1 X149.501 Y107.032 E39.97863
G1 X149.501 Y107.685
G1 X136.013 Y94.197 E40.7114
G1 X135.36 Y94.197
G1 X149.501 Y108.339 E41.47968
G1 X149.501 Y108.992
G1 X134.706 Y94.197 E42.28346
G1 X134.053 Y94.197
G1 X141.585 Y101.73 E42.69268
G1 X142.017 Y102.162
G1 X149.501 Y109.646 E43.09927
G1 X149.501 Y110.299
G1 X142.302 Y103.1 E43.49037
G1 X142.52 Y103.971
G1 X149.501 Y110.952 E43.86963
G1 X149.396 Y111.501
G1 X142.737 Y104.842 E44.2314
G1 X142.955 Y105.713
G1 X148.743 Y111.501 E44.54585
G1 X148.09 Y111.501
G1 X143.172 Y106.584 E44.81301
G1 X143.389 Y107.454
G1 X147.436 Y111.501 E45.03287
G1 X146.783 Y111.501
G1 X143.607 Y108.325 E45.20541
G1 X143.824 Y109.196
G1 X146.129 Y111.501 E45.33064
G1 X145.476 Y111.501
G1 X144.042 Y110.067 E45.40855
G1 X144.259 Y110.937
G1 X144.823 Y111.501 E45.43919
;;retract move;;
G1 F3840 X144.259 Y110.937 E45.21119
G1 X144.042 Y110.067 E44.98319
G1 X144.259 Y110.284 E44.75519
G1 X144.042 Y110.067 E44.52719
G1 X144.259 Y110.937 E44.29919
G1 F1800 E44.23919
G0 F4800 X143.132 Y107.943 Z0.6
G0 X140.707 Y101.505
G1 F600 Z0.2
G1 F1800 E45.43919
G1 X133.399 Y94.197 E45.83621
G1 X132.746 Y94.197
G1 X140.054 Y101.505 E46.23324
G1 X139.401 Y101.505
G1 X132.093 Y94.197 E46.63027
G1 X131.439 Y94.197
G1 X138.747 Y101.505 E47.02729
G1 X138.094 Y101.505
G1 X130.786 Y94.197 E47.42432
G1 X130.133 Y94.197
G1 X137.441 Y101.505 E47.82135
G1 X136.787 Y101.505
G1 X129.479 Y94.197 E48.21837
G1 X128.826 Y94.197
G1 X136.134 Y101.505 E48.6154
G1 X135.48 Y101.505
G1 X128.173 Y94.197 E49.0124
G1 X127.519 Y94.197
G1 X134.827 Y101.505 E49.40942
G1 X134.174 Y101.505
G1 X126.866 Y94.197 E49.80645
G1 X126.212 Y94.197
G1 X133.52 Y101.505 E50.20348
G1 X132.867 Y101.505
G1 X125.559 Y94.197 E50.6005
G1 X124.906 Y94.197
G1 X132.214 Y101.505 E50.99753
G1 X131.56 Y101.505
G1 X124.252 Y94.197 E51.39456
G1 X123.599 Y94.197
G1 X130.907 Y101.505 E51.79158
G1 X130.254 Y101.505
G1 X122.946 Y94.197 E52.18861
G1 X122.292 Y94.197
G1 X129.6 Y101.505 E52.58564
G1 X128.947 Y101.505
G1 X121.639 Y94.197 E52.98266
G1 X120.985 Y94.197
G1 X128.293 Y101.505 E53.37969
G1 X127.64 Y101.505
G1 X120.332 Y94.197 E53.77672
G1 X119.679 Y94.197
G1 X126.987 Y101.505 E54.17374
G1 X126.333 Y101.505
G1 X119.025 Y94.197 E54.57077
G1 X118.372 Y94.197
G1 X125.68 Y101.505 E54.9678
G1 X125.027 Y101.505
G1 X117.719 Y94.197 E55.36482
G1 X117.065 Y94.197
G1 X124.373 Y101.505 E55.76185
G1 X123.72 Y101.505
G1 X116.412 Y94.197 E56.15888
G1 X115.759 Y94.197
G1 X123.066 Y101.505 E56.55588
G1 X122.413 Y101.505
G1 X115.105 Y94.197 E56.9529
G1 X114.452 Y94.197
G1 X121.76 Y101.505 E57.34993
G1 X121.106 Y101.505
G1 X113.798 Y94.197 E57.74695
G1 X113.145 Y94.197
G1 X120.453 Y101.505 E58.14398
G1 X119.8 Y101.505
G1 X112.492 Y94.197 E58.54101
G1 X111.838 Y94.197
G1 X119.146 Y101.505 E58.93803
G1 X118.493 Y101.505
G1 X111.185 Y94.197 E59.33506
G1 X110.532 Y94.197
G1 X117.84 Y101.505 E59.73209
G1 X117.186 Y101.505
G1 X109.878 Y94.197 E60.12911
G1 X109.225 Y94.197
G1 X116.533 Y101.505 E60.52614
G1 X115.879 Y101.505
G1 X108.572 Y94.197 E60.92314
G1 X107.918 Y94.197
G1 X115.226 Y101.505 E61.32017
G1 X114.573 Y101.505
G1 X107.265 Y94.197 E61.71719
G1 X106.611 Y94.197
G1 X113.919 Y101.505 E62.11422
G1 X113.266 Y101.505
G1 X105.958 Y94.197 E62.51125
G1 X105.305 Y94.197
G1 X112.613 Y101.505 E62.90827
G1 X111.959 Y101.505
G1 X104.651 Y94.197 E63.3053
G1 X103.998 Y94.197
G1 X111.306 Y101.505 E63.70233
G1 X110.653 Y101.505
G1 X103.345 Y94.197 E64.09935
G1 X102.691 Y94.197
G1 X109.999 Y101.505 E64.49638
G1 X109.346 Y101.505
G1 X102.038 Y94.197 E64.89341
G1 X101.384 Y94.197
G1 X108.692 Y101.505 E65.29043
G1 X108.039 Y101.505
G1 X100.731 Y94.197 E65.68746
G1 X100.078 Y94.197
G1 X107.386 Y101.505 E66.08448
G1 X106.732 Y101.505
G1 X99.424 Y94.197 E66.48151
G1 X98.771 Y94.197
G1 X106.079 Y101.505 E66.87854
G1 X105.426 Y101.505
G1 X98.118 Y94.197 E67.27556
G1 X97.464 Y94.197
G1 X104.772 Y101.505 E67.67259
G1 X104.119 Y101.505
G1 X96.811 Y94.197 E68.06962
G1 X96.158 Y94.197
G1 X103.465 Y101.505 E68.46662
G1 X102.812 Y101.505
G1 X95.504 Y94.197 E68.86364
G1 X94.851 Y94.197
G1 X102.159 Y101.505 E69.26067
G1 X101.505 Y101.505
G1 X94.197 Y94.197 E69.6577
G1 X93.544 Y94.197
G1 X100.852 Y101.505 E70.05472
G1 X100.312 Y101.619
G1 X92.891 Y94.197 E70.45792
G1 X92.237 Y94.197
G1 X99.892 Y101.852 E70.87379
G1 X99.646 Y102.259
G1 X91.584 Y94.197 E71.31178
G1 X90.931 Y94.197
G1 X99.506 Y102.773 E71.77767
G1 X99.506 Y103.426
G1 X90.277 Y94.197 E72.27906
G1 X89.624 Y94.197
G1 X99.506 Y104.079 E72.81593
G1 X99.506 Y104.733
G1 X88.971 Y94.197 E73.3883
G1 X88.317 Y94.197
G1 X99.506 Y105.386 E73.99617
G1 X99.506 Y106.039
G1 X87.664 Y94.197 E74.63952
G1 X87.01 Y94.197
G1 X99.505 Y106.692 E75.31834
G1 X99.505 Y107.345
G1 X86.357 Y94.197 E76.03264
G1 X85.704 Y94.197
G1 X99.505 Y107.999 E76.78244
G1 X99.505 Y108.652
G1 X85.05 Y94.197 E77.56775
G1 X84.397 Y94.197
G1 X99.505 Y109.305 E78.38853
G1 X99.505 Y109.959
G1 X92.193 Y102.647 E78.78578
G1 X92.193 Y103.301
G1 X99.504 Y110.612 E79.18296
G1 X99.504 Y111.265
G1 X92.193 Y103.954 E79.58015
G1 X92.193 Y104.607
G1 X99.504 Y111.918 E79.97734
G1 X99.504 Y112.572
G1 X92.194 Y105.262 E80.37448
G1 X92.194 Y105.915
G1 X99.504 Y113.225 E80.77161
G1 X99.504 Y113.878
G1 X92.194 Y106.568 E81.16875
G1 X92.194 Y107.222
G1 X99.504 Y114.531 E81.56586
G1 X99.504 Y115.184
G1 X92.195 Y107.876 E81.96291
G1 X92.195 Y108.529
G1 X99.504 Y115.838 E82.35999
G1 X99.504 Y116.491
G1 X92.195 Y109.182 E82.75707
G1 X92.195 Y109.836
G1 X99.504 Y117.144 E83.15413
G1 X99.504 Y117.798
G1 X92.196 Y110.49 E83.55115
G1 X92.196 Y111.143
G1 X99.503 Y118.45 E83.94813
G1 X99.503 Y119.104
G1 X92.196 Y111.797 E84.3451
G1 X92.196 Y112.451
G1 X99.503 Y119.757 E84.74204
G1 X99.503 Y120.411
G1 X92.196 Y113.104 E85.13901
G1 X92.196 Y113.757
G1 X99.503 Y121.064 E85.53599
G1 X99.503 Y121.717
G1 X92.196 Y114.411 E85.93293
G1 X92.197 Y115.065
G1 X99.502 Y122.37 E86.3298
G1 X99.502 Y123.023
G1 X92.197 Y115.718 E86.72666
G1 X92.197 Y116.372
G1 X99.502 Y123.677 E87.12352
G1 X99.502 Y124.33
G1 X92.197 Y117.025 E87.52039
G1 X92.109 Y117.591
G1 X99.502 Y124.983 E87.922
G1 X99.502 Y125.637
G1 X91.874 Y118.009 E88.33641
G1 X91.527 Y118.315
G1 X99.012 Y125.8 E88.74306
G1 X98.359 Y125.8
G1 X91.046 Y118.487 E89.14036
G1 X90.402 Y118.497
G1 X97.705 Y125.8 E89.53711
G1 X97.052 Y125.8
G1 X89.749 Y118.497 E89.93387
G1 X89.096 Y118.497
G1 X96.399 Y125.8 E90.33062
G1 X95.745 Y125.8
G1 X88.442 Y118.497 E90.72737
G1 X87.789 Y118.497
G1 X95.092 Y125.8 E91.12413
G1 X94.439 Y125.8
G1 X87.136 Y118.497 E91.52088
G1 X86.482 Y118.497
G1 X93.785 Y125.8 E91.91764
G1 X93.132 Y125.8
G1 X85.829 Y118.497 E92.31439
G1 X85.175 Y118.497
G1 X92.478 Y125.8 E92.71115
G1 X91.825 Y125.8
G1 X84.522 Y118.497 E93.1079
G1 X83.816 Y118.444
G1 X91.172 Y125.8 E93.50754
G1 X90.518 Y125.8
G1 X82.916 Y118.198 E93.92054
G1 X82.263 Y118.198
G1 X89.865 Y125.8 E94.33354
G1 X89.212 Y125.8
G1 X81.61 Y118.198 E94.74654
G1 X80.956 Y118.198
G1 X88.558 Y125.8 E95.15953
G1 X87.905 Y125.8
G1 X80.303 Y118.198 E95.57253
G1 X79.649 Y118.198
G1 X87.252 Y125.8 E95.98556
G1 X86.598 Y125.8
G1 X78.996 Y118.198 E96.39856
G1 X78.343 Y118.198
G1 X85.945 Y125.8 E96.81156
G1 X85.291 Y125.8
G1 X77.689 Y118.198 E97.22456
G1 X77.036 Y118.198
G1 X84.638 Y125.8 E97.63755
G1 X83.985 Y125.8
G1 X76.382 Y118.197 E98.05061
G1 X75.729 Y118.197
G1 X83.331 Y125.8 E98.46363
G1 X82.678 Y125.8
G1 X75.075 Y118.197 E98.87669
G1 X74.422 Y118.197
G1 X82.025 Y125.8 E99.28974
G1 X81.371 Y125.8
G1 X73.768 Y118.197 E99.70279
G1 X73.115 Y118.197
G1 X80.718 Y125.8 E100.11585
G1 X80.064 Y125.8
G1 X72.462 Y118.197 E100.52887
G1 X71.808 Y118.197
G1 X79.411 Y125.8 E100.94193
G1 X78.758 Y125.8
G1 X71.155 Y118.197 E101.35498
G1 X70.502 Y118.197
G1 X78.104 Y125.8 E101.768
G1 X77.451 Y125.8
G1 X70.498 Y118.847 E102.14574
