;FLAVOR:Marlin
;TIME:2572.54
;Filament used:2.20176m
;Material Diameter:1.75
;Material Density:1.24
;Filament Cost:0.131337
;Filament Weight:6.566864
;Filament Length:2.201762
;Layer height:0.1
;MINX:1.959
;MINY:2.529
;MINZ:0.1
;MAXX:150.64
;MAXY:126.94
;MAXZ:20.401
;OuterWall Time:565.808
;InnerWall Time:385.765
;Skin Time:1022.24
;Support Time:0
;SkirtBrim Time:0
;Infill Time:265.189
;Support Infills Time:0
;Combing Time:98.3537
;Retraction Time:235.188
;PrimeTower Time:0


;;;;;;;;;;;;;;;;;;;;;;;;;;;;;;;;;;;;;;;;;;;;;;;;;;;;;;;;;;;;;;;;;;;;;;;;;;;;
;Creality Print GCode Generated by CXEngine
;CRSLICE_GIT_HASH:58ee74d
;Creality Print Version : V4.3.8.6984
;CXEngine Release Time:2023-12-04 18:16:29
;Gcode Generated Time:2024-02-18 21:45:24
;----------Machine Config--------------
;Machine Name:Ender-3 V3 SE
;Machine Height:250
;Machine Width:220
;Machine Depth:220
;Material Type:PLA
;Material Name:CR-PLA_1.75
;Number of Extruders:1
;ExtruderParams[0] Nozzle Diameter:1000
;----------Profile Config---------------
;Wall Thickness:0.8
;Top/Bottom Thickness:0.8
;Out Wall Line Width:0.42
;Inner Wall Line Width:0.45
;Inital Height:100
;Wall Line Count:2
;Infill Line Distance:8
;Infill Pattern:grid
;Infill Sparse Density:10
;Infill Wipe Distance:0
;Print Temperature:190
;Bed Temperature:60
;Support Enable:false
;Support Density:15
;Support Angle:60
;Adhesion Type:autobrim
;machine is belt:false
;machine belt offset:10
;machine belt offset Y:0
;Raft Base Line Spacing:1.6
;Wait Heatup Sync:true
;Enable Ironing:false
;Material Type:PLA
;Max volumetric speed:20
;Preview Img Type:png
;Screen Size:Sermoon D3
;----------Shell Config----------------
;Outer Wall Wipe Distance:2000
;Outer Inset First:false
;Infill Before Walls:false
;Infill Overlap:0.09
;Fill Gaps Between Walls:everywhere
;Minimum Infill Area:30
;Top Surface Skin Layer:0
;Top Layers:8
;Z Seam Alignment:sharpest_corner
;Seam Corner Preference:z_seam_corner_inner
;Z Seam X:110
;Z Seam Y:220
;Horizontal Expansion:0
;Top/Bottom Pattern:zigzag
;Ironing Pattern:zigzag
;Vase Model:false
;----------Support Config----------------
;Support Type:everywhere
;Support Pattern:zigzag
;Support Infill Layer Thickness:0.2
;Minimum Support Area:1
;Enable Support Roof:true
;Support Roof Thickness:0.8
;Support Roof Pattern:lines
;Connect Support Lines:0
;Connect Support ZigZags:1
;Minimum Support X/Y Distance:0.2
;Support Line Distance:2.67
; ---------PrintSpeed & Travel----------
;Enable Print Cool:true
;Avoid Printed Parts Traveling:true
;Enable Retraction:true
;Retraction Distance:1.2
;Retraction Speed:30
;Retraction Prime Speed:30
;Maximum Retraction Count:100
;Minimum Extrusion Distance Window:0.8
;Z Hop When Retracted:true
;Z Hop Height:0.4
;Retract Before Outer Wall:true

;Outer Wall Speed:60
;Inner Wall Speed:90
;Infill Speed:180
;Top/Bottom Speed:50
;Travel Speed:150
;Initial Layer Speed:30
;Skirt/Brim Speed:25
;Prime Tower Speed:60
;Outer Wall Acceleration:1000
;Inner Wall Acceleration:2000
;Infill Acceleration:2500
;Top/Bottom Acceleration:2500
;Travel Acceleration:2500
;Initial Layer Print Acceleration:500
;Initial Layer Travel Acceleration:500
;Skirt/Brim Acceleration:500
;Combing Mode:off
; --------SpecialModel&Mesh Fixes--------
;Union Overlapping Volum:true
;Remove All Holes:false
;Maximum Travel Resolution:0.25
;Maximum Deviation:0.05
;Maximum Model Angle:0.872665
;IS Mold Print:false
;Make Overhang Printable:false
;Enable Coasting:false
;Coasting Volumes:0.064
;Coasting Speed:0.9
;Raft AirGap:0.25
;Layer0 ZOverLap:0.13
;Adaptive Layers:0
;---------------------End of Head--------------------------
M140 S60
M105
M190 S60
M104 S190
M82 ;absolute extrusion mode
M220 S100 ;Reset Feedrate
M221 S100 ;Reset Flowrate

G28 ;Home

G92 E0 ;Reset Extruder
G1 Z2.0 F3000 ;Move Z Axis up
G1 X-2.1 Y20 Z0.28 F5000.0 ;Move to start position
M109 S190.000000
G1 X-2.1 Y145.0 Z0.28 F1500.0 E15 ;Draw the first line
G1 X-2.4 Y145.0 Z0.28 F5000.0 ;Move to side a little
G1 X-2.4 Y20 Z0.28 F1500.0 E30 ;Draw the second line
G92 E0  ;Reset Extruder
G1 E-1.0000 F1800 ;Retract a bit
G1 Z2.0 F3000 ;Move Z Axis up
G1 E0.0000 F1800 

G92 E0
G92 E0
G1 F1800 E-1.2
;LAYER_COUNT:100

;LAYER:0
M106 S0
M204 S500
;;retract;;
G1 F1800 E0
G1 F1800 E-1.2
G0 F4800 X1.959 Y2.529 Z20.401
;MESH:0_0
G0 X90.942 Y117.378 Z0.5
;TYPE:WALL-OUTER
G1 F600 Z0.1
G1 F1800 E0
G1 X91.078 Y117.19 E0.00423
G1 X91.08 Y102.821 E0.26643
G1 X90.89 Y102.622 E0.27145
G1 X84.038 Y102.622 E0.39648
G1 X83.919 Y102.919 E0.40232
G1 X69.381 Y102.919 E0.6676
G1 X69.381 Y93.081 E0.84712
G1 X150.619 Y93.081 E2.32949
G1 X150.619 Y112.619 E2.68601
G1 X143.531 Y112.619 E2.81535
G1 X141.053 Y102.706 E3.0018
G1 X140.89 Y102.622 E3.00515
G1 X100.811 Y102.622 E3.73648
G1 X100.62 Y102.821 E3.74151
G1 X100.619 Y126.919 E4.18124
G1 X69.381 Y126.919 E4.75125
G1 X69.381 Y117.081 E4.93077
G1 X83.919 Y117.081 E5.19605
G1 X84.038 Y117.378 E5.20188
G1 X90.942 Y117.378 E5.32786
G0 F4800 X91.182 Y117.777
;TYPE:WALL-INNER
G1 F1800 X91.477 Y117.482 E5.33602
G1 X91.559 Y117.244 E5.34094
G1 X91.554 Y102.762 E5.62408
G1 X91.418 Y102.424 E5.6312
G1 X91.184 Y102.224 E5.63722
G1 X90.944 Y102.141 E5.64218
G1 X84.064 Y102.141 E5.77669
G1 X83.764 Y102.254 E5.78296
G1 X83.663 Y102.441 E5.78711
G1 X69.859 Y102.441 E6.05699
G1 X69.859 Y93.559 E6.23064
G1 X150.141 Y93.559 E7.80021
G1 X150.141 Y112.141 E8.1635
G1 X143.904 Y112.141 E8.28544
G1 X141.538 Y102.677 E8.47616
G1 X141.305 Y102.266 E8.4854
G1 X140.944 Y102.141 E8.49287
G1 X100.767 Y102.141 E9.27836
G1 X100.424 Y102.282 E9.28561
G1 X100.215 Y102.532 E9.29198
G1 X100.146 Y102.762 E9.29668
G1 X100.141 Y126.441 E9.75962
G1 X69.859 Y126.441 E10.35165
G1 X69.859 Y117.559 E10.5253
G1 X83.663 Y117.559 E10.79518
G1 X83.764 Y117.746 E10.79933
G1 X84.064 Y117.859 E10.8056
G1 X90.931 Y117.859 E10.93986
G1 X91.182 Y117.777 E10.94502
;;retract move;;
G1 F3840 X91.477 Y117.482 E10.56502
G1 X91.559 Y117.244 E10.18502
G1 X91.559 Y115.912 E9.80502
G1 F1800 E9.74502
G0 F4800 X94.645 Y115.066 Z0.5
G0 X141.765 Y102.148
;TYPE:SKIN
G1 F600 Z0.1
G1 F1800 E10.94502
G1 X141.935 Y102.58 E10.95394
G1 X144.222 Y111.733 E11.13515
G1 X149.733 Y111.733 E11.241
G1 X149.733 Y93.967 E11.58225
G1 X70.267 Y93.967 E13.10861
G1 X70.267 Y102.033 E13.26354
G1 X83.454 Y102.033 E13.51683
G1 X83.596 Y101.886 E13.52076
G1 X84.002 Y101.736 E13.52907
G1 X90.878 Y101.735 E13.66114
G1 X91.214 Y101.787 E13.66767
G1 X91.662 Y102.03 E13.67746
G1 X91.965 Y102.571 E13.68937
G1 X91.964 Y117.307 E13.97242
G1 X91.84 Y117.677 E13.97991
G1 X91.64 Y117.94 E13.98626
G1 X91.376 Y118.137 E13.99259
G1 X90.99 Y118.265 E14.0004
G1 X84.001 Y118.264 E14.13464
G1 X83.597 Y118.116 E14.14291
G1 X83.452 Y117.967 E14.1469
G1 X70.267 Y117.967 E14.40015
G1 X70.267 Y126.033 E14.55508
G1 X99.733 Y126.033 E15.12106
G1 X99.735 Y102.573 E15.57167
G1 X100.035 Y102.036 E15.58349
G1 X100.487 Y101.787 E15.5934
G1 X100.822 Y101.735 E15.59991
G1 X140.989 Y101.736 E16.37143
G1 X141.368 Y101.86 E16.37909
G1 X141.765 Y102.148 E16.38851
;;retract move;;
G1 F3840 X141.368 Y101.86 E16.16051
G1 X140.989 Y101.736 E15.93251
G1 X139.877 Y101.736 E15.70451
G1 X140.989 Y101.736 E15.47651
G1 X141.368 Y101.86 E15.24851
G1 F1800 E15.18851
G0 F4800 X143.757 Y99.732 Z0.5
G0 X149.501 Y94.618
G1 F600 Z0.1
G1 F1800 E16.38851
G1 X149.08 Y94.197 E16.39994
G1 X148.427 Y94.197
G1 X149.501 Y95.272 E16.42913
G1 X149.501 Y95.925
G1 X147.774 Y94.197 E16.47605
G1 X147.12 Y94.197
G1 X149.501 Y96.578 E16.54073
G1 X149.501 Y97.232
G1 X146.467 Y94.197 E16.62316
G1 X145.813 Y94.197
G1 X149.501 Y97.885 E16.72334
G1 X149.501 Y98.538
G1 X145.16 Y94.197 E16.84126
G1 X144.507 Y94.197
G1 X149.501 Y99.192 E16.97693
G1 X149.501 Y99.845
G1 X143.853 Y94.197 E17.13035
G1 X143.2 Y94.197
G1 X149.501 Y100.498 E17.30151
G1 X149.501 Y101.152
G1 X142.547 Y94.197 E17.49042
G1 X141.893 Y94.197
G1 X149.501 Y101.805 E17.69708
G1 X149.501 Y102.459
G1 X141.24 Y94.197 E17.9215
G1 X140.586 Y94.197
G1 X149.501 Y103.112 E18.16366
G1 X149.501 Y103.765
G1 X139.933 Y94.197 E18.42357
G1 X139.28 Y94.197
G1 X149.501 Y104.419 E18.70122
G1 X149.501 Y105.072
G1 X138.626 Y94.197 E18.99663
G1 X137.973 Y94.197
G1 X149.501 Y105.725 E19.30977
G1 X149.501 Y106.379
G1 X137.32 Y94.197 E19.64067
G1 X136.666 Y94.197
G1 X149.501 Y107.032 E19.98932
G1 X149.501 Y107.685
G1 X136.013 Y94.197 E20.3557
G1 X135.36 Y94.197
G1 X149.501 Y108.339 E20.73984
G1 X149.501 Y108.992
G1 X134.706 Y94.197 E21.14173
G1 X134.053 Y94.197
G1 X141.585 Y101.73 E21.34634
G1 X142.017 Y102.162
G1 X149.501 Y109.646 E21.54963
G1 X149.501 Y110.299
G1 X142.302 Y103.1 E21.74519
G1 X142.52 Y103.971
G1 X149.501 Y110.952 E21.93482
G1 X149.396 Y111.501
G1 X142.737 Y104.842 E22.1157
G1 X142.955 Y105.713
G1 X148.743 Y111.501 E22.27292
G1 X148.09 Y111.501
G1 X143.172 Y106.584 E22.4065
G1 X143.389 Y107.454
G1 X147.436 Y111.501 E22.51643
G1 X146.783 Y111.501
G1 X143.607 Y108.325 E22.60271
G1 X143.824 Y109.196
G1 X146.129 Y111.501 E22.66532
G1 X145.476 Y111.501
G1 X144.042 Y110.067 E22.70427
G1 X144.259 Y110.937
G1 X144.823 Y111.501 E22.71959
;;retract move;;
G1 F3840 X144.259 Y110.937 E22.49159
G1 X144.042 Y110.067 E22.26359
G1 X144.259 Y110.284 E22.03559
G1 X144.042 Y110.067 E21.80759
G1 X144.259 Y110.937 E21.57959
G1 F1800 E21.51959
G0 F4800 X143.132 Y107.943 Z0.5
G0 X140.707 Y101.505
G1 F600 Z0.1
G1 F1800 E22.71959
G1 X133.399 Y94.197 E22.91811
G1 X132.746 Y94.197
G1 X140.054 Y101.505 E23.11662
G1 X139.401 Y101.505
G1 X132.093 Y94.197 E23.31513
G1 X131.439 Y94.197
G1 X138.747 Y101.505 E23.51365
G1 X138.094 Y101.505
G1 X130.786 Y94.197 E23.71216
G1 X130.133 Y94.197
G1 X137.441 Y101.505 E23.91067
G1 X136.787 Y101.505
G1 X129.479 Y94.197 E24.10919
G1 X128.826 Y94.197
G1 X136.134 Y101.505 E24.3077
G1 X135.48 Y101.505
G1 X128.173 Y94.197 E24.5062
G1 X127.519 Y94.197
G1 X134.827 Y101.505 E24.70471
G1 X134.174 Y101.505
G1 X126.866 Y94.197 E24.90323
G1 X126.212 Y94.197
G1 X133.52 Y101.505 E25.10174
G1 X132.867 Y101.505
G1 X125.559 Y94.197 E25.30025
G1 X124.906 Y94.197
G1 X132.214 Y101.505 E25.49877
G1 X131.56 Y101.505
G1 X124.252 Y94.197 E25.69728
G1 X123.599 Y94.197
G1 X130.907 Y101.505 E25.89579
G1 X130.254 Y101.505
G1 X122.946 Y94.197 E26.09431
G1 X122.292 Y94.197
G1 X129.6 Y101.505 E26.29282
G1 X128.947 Y101.505
G1 X121.639 Y94.197 E26.49133
G1 X120.985 Y94.197
G1 X128.293 Y101.505 E26.68985
G1 X127.64 Y101.505
G1 X120.332 Y94.197 E26.88836
G1 X119.679 Y94.197
G1 X126.987 Y101.505 E27.08687
G1 X126.333 Y101.505
G1 X119.025 Y94.197 E27.28538
G1 X118.372 Y94.197
G1 X125.68 Y101.505 E27.4839
G1 X125.027 Y101.505
G1 X117.719 Y94.197 E27.68241
G1 X117.065 Y94.197
G1 X124.373 Y101.505 E27.88092
G1 X123.72 Y101.505
G1 X116.412 Y94.197 E28.07944
G1 X115.759 Y94.197
G1 X123.066 Y101.505 E28.27794
G1 X122.413 Y101.505
G1 X115.105 Y94.197 E28.47645
G1 X114.452 Y94.197
G1 X121.76 Y101.505 E28.67496
G1 X121.106 Y101.505
G1 X113.798 Y94.197 E28.87348
G1 X113.145 Y94.197
G1 X120.453 Y101.505 E29.07199
G1 X119.8 Y101.505
G1 X112.492 Y94.197 E29.2705
G1 X111.838 Y94.197
G1 X119.146 Y101.505 E29.46902
G1 X118.493 Y101.505
G1 X111.185 Y94.197 E29.66753
G1 X110.532 Y94.197
G1 X117.84 Y101.505 E29.86604
G1 X117.186 Y101.505
G1 X109.878 Y94.197 E30.06456
G1 X109.225 Y94.197
G1 X116.533 Y101.505 E30.26307
G1 X115.879 Y101.505
G1 X108.572 Y94.197 E30.46157
G1 X107.918 Y94.197
G1 X115.226 Y101.505 E30.66008
G1 X114.573 Y101.505
G1 X107.265 Y94.197 E30.8586
G1 X106.611 Y94.197
G1 X113.919 Y101.505 E31.05711
G1 X113.266 Y101.505
G1 X105.958 Y94.197 E31.25562
G1 X105.305 Y94.197
G1 X112.613 Y101.505 E31.45414
G1 X111.959 Y101.505
G1 X104.651 Y94.197 E31.65265
G1 X103.998 Y94.197
G1 X111.306 Y101.505 E31.85116
G1 X110.653 Y101.505
G1 X103.345 Y94.197 E32.04968
G1 X102.691 Y94.197
G1 X109.999 Y101.505 E32.24819
G1 X109.346 Y101.505
G1 X102.038 Y94.197 E32.4467
G1 X101.384 Y94.197
G1 X108.692 Y101.505 E32.64522
G1 X108.039 Y101.505
G1 X100.731 Y94.197 E32.84373
G1 X100.078 Y94.197
G1 X107.386 Y101.505 E33.04224
G1 X106.732 Y101.505
G1 X99.424 Y94.197 E33.24076
G1 X98.771 Y94.197
G1 X106.079 Y101.505 E33.43927
G1 X105.426 Y101.505
G1 X98.118 Y94.197 E33.63778
G1 X97.464 Y94.197
G1 X104.772 Y101.505 E33.8363
G1 X104.119 Y101.505
G1 X96.811 Y94.197 E34.03481
G1 X96.158 Y94.197
G1 X103.465 Y101.505 E34.23331
G1 X102.812 Y101.505
G1 X95.504 Y94.197 E34.43182
G1 X94.851 Y94.197
G1 X102.159 Y101.505 E34.63033
G1 X101.505 Y101.505
G1 X94.197 Y94.197 E34.82885
G1 X93.544 Y94.197
G1 X100.852 Y101.505 E35.02736
G1 X100.312 Y101.619
G1 X92.891 Y94.197 E35.22896
G1 X92.237 Y94.197
G1 X99.892 Y101.852 E35.4369
G1 X99.646 Y102.259
G1 X91.584 Y94.197 E35.65589
G1 X90.931 Y94.197
G1 X99.506 Y102.773 E35.88884
G1 X99.506 Y103.426
G1 X90.277 Y94.197 E36.13953
G1 X89.624 Y94.197
G1 X99.506 Y104.079 E36.40796
G1 X99.506 Y104.733
G1 X88.971 Y94.197 E36.69415
G1 X88.317 Y94.197
G1 X99.506 Y105.386 E36.99808
G1 X99.506 Y106.039
G1 X87.664 Y94.197 E37.31976
G1 X87.01 Y94.197
G1 X99.505 Y106.692 E37.65917
G1 X99.505 Y107.345
G1 X86.357 Y94.197 E38.01632
G1 X85.704 Y94.197
G1 X99.505 Y107.999 E38.39122
G1 X99.505 Y108.652
G1 X85.05 Y94.197 E38.78387
G1 X84.397 Y94.197
G1 X99.505 Y109.305 E39.19427
G1 X99.505 Y109.959
G1 X92.193 Y102.647 E39.39289
G1 X92.193 Y103.301
G1 X99.504 Y110.612 E39.59148
G1 X99.504 Y111.265
G1 X92.193 Y103.954 E39.79008
G1 X92.193 Y104.607
G1 X99.504 Y111.918 E39.98867
G1 X99.504 Y112.572
G1 X92.194 Y105.262 E40.18724
G1 X92.194 Y105.915
G1 X99.504 Y113.225 E40.38581
G1 X99.504 Y113.878
G1 X92.194 Y106.568 E40.58437
G1 X92.194 Y107.222
G1 X99.504 Y114.531 E40.78293
G1 X99.504 Y115.184
G1 X92.195 Y107.876 E40.98146
G1 X92.195 Y108.529
G1 X99.504 Y115.838 E41.18
G1 X99.504 Y116.491
G1 X92.195 Y109.182 E41.37854
G1 X92.195 Y109.836
G1 X99.504 Y117.144 E41.57706
G1 X99.504 Y117.798
G1 X92.196 Y110.49 E41.77558
G1 X92.196 Y111.143
G1 X99.503 Y118.45 E41.97406
G1 X99.503 Y119.104
G1 X92.196 Y111.797 E42.17255
G1 X92.196 Y112.451
G1 X99.503 Y119.757 E42.37102
G1 X99.503 Y120.411
G1 X92.196 Y113.104 E42.56951
G1 X92.196 Y113.757
G1 X99.503 Y121.064 E42.76799
G1 X99.503 Y121.717
G1 X92.196 Y114.411 E42.96647
G1 X92.197 Y115.065
G1 X99.502 Y122.37 E43.1649
G1 X99.502 Y123.023
G1 X92.197 Y115.718 E43.36333
G1 X92.197 Y116.372
G1 X99.502 Y123.677 E43.56176
G1 X99.502 Y124.33
G1 X92.197 Y117.025 E43.76019
G1 X92.109 Y117.591
G1 X99.502 Y124.983 E43.961
G1 X99.502 Y125.637
G1 X91.874 Y118.009 E44.16821
G1 X91.527 Y118.315
G1 X99.012 Y125.8 E44.37153
G1 X98.359 Y125.8
G1 X91.046 Y118.487 E44.57018
G1 X90.402 Y118.497
G1 X97.705 Y125.8 E44.76856
G1 X97.052 Y125.8
G1 X89.749 Y118.497 E44.96693
G1 X89.096 Y118.497
G1 X96.399 Y125.8 E45.16531
G1 X95.745 Y125.8
G1 X88.442 Y118.497 E45.36369
G1 X87.789 Y118.497
G1 X95.092 Y125.8 E45.56206
G1 X94.439 Y125.8
G1 X87.136 Y118.497 E45.76044
G1 X86.482 Y118.497
G1 X93.785 Y125.8 E45.95882
G1 X93.132 Y125.8
G1 X85.829 Y118.497 E46.1572
G1 X85.175 Y118.497
G1 X92.478 Y125.8 E46.35557
G1 X91.825 Y125.8
G1 X84.522 Y118.497 E46.55395
G1 X83.816 Y118.444
G1 X91.172 Y125.8 E46.75377
G1 X90.518 Y125.8
G1 X82.916 Y118.198 E46.96027
G1 X82.263 Y118.198
G1 X89.865 Y125.8 E47.16677
G1 X89.212 Y125.8
G1 X81.61 Y118.198 E47.37327
G1 X80.956 Y118.198
G1 X88.558 Y125.8 E47.57977
G1 X87.905 Y125.8
G1 X80.303 Y118.198 E47.78627
G1 X79.649 Y118.198
G1 X87.252 Y125.8 E47.99278
G1 X86.598 Y125.8
G1 X78.996 Y118.198 E48.19928
G1 X78.343 Y118.198
G1 X85.945 Y125.8 E48.40578
G1 X85.291 Y125.8
G1 X77.689 Y118.198 E48.61228
G1 X77.036 Y118.198
G1 X84.638 Y125.8 E48.81878
G1 X83.985 Y125.8
G1 X76.382 Y118.197 E49.0253
G1 X75.729 Y118.197
G1 X83.331 Y125.8 E49.23182
G1 X82.678 Y125.8
G1 X75.075 Y118.197 E49.43834
G1 X74.422 Y118.197
G1 X82.025 Y125.8 E49.64487
G1 X81.371 Y125.8
G1 X73.768 Y118.197 E49.8514
G1 X73.115 Y118.197
G1 X80.718 Y125.8 E50.05792
G1 X80.064 Y125.8
G1 X72.462 Y118.197 E50.26444
G1 X71.808 Y118.197
G1 X79.411 Y125.8 E50.47096
G1 X78.758 Y125.8
G1 X71.155 Y118.197 E50.67749
G1 X70.502 Y118.197
G1 X78.104 Y125.8 E50.884
G1 X77.451 Y125.8
G1 X70.498 Y118.847 E51.07287
G1 X70.498 Y119.501
G1 X76.798 Y125.8 E51.24399
