;FLAVOR:Marlin
;TIME:2342.69
;Filament used:2.76958m
;Material Diameter:1.75
;Material Density:1.24
;Filament Cost:0.165208
;Filament Weight:8.260424
;Filament Length:2.769585
;Layer height:0.2
;MINX:2.083
;MINY:2.428
;MINZ:0.2
;MAXX:153.893
;MAXY:132.982
;MAXZ:20.401
;OuterWall Time:362.023
;InnerWall Time:285.996
;Skin Time:1110.9
;Support Time:0
;SkirtBrim Time:14.5413
;Infill Time:97.9401
;Support Infills Time:0
;Combing Time:135.929
;Retraction Time:335.369
;PrimeTower Time:0
;;;;;;;;;;;;;;;;;;;;;;;;;;;;;;;;;;;;;;;;;;;;;;;;;;;;;;;;;;;;;;;;;;;;;;;;
;Creality Print GCode Generated by CXEngine
;CRSLICE_GIT_HASH:58ee74d
;Creality Print Version : V4.3.8.6984
;CXEngine Release Time:2023-12-04 18:16:29
;Gcode Generated Time:2024-09-13 21:11:08
;----------Machine Config--------------
;Machine Name:Ender-3 V3 SE
;Machine Height:250
;Machine Width:220
;Machine Depth:220
;Material Type:PLA
;Material Name:CR-PLA_1.75
;Number of Extruders:1
;ExtruderParams[0] Nozzle Diameter:1000
;----------Profile Config---------------
;Wall Thickness:0.8
;Top/Bottom Thickness:0.8
;Out Wall Line Width:0.42
;Inner Wall Line Width:0.45
;Inital Height:200
;Wall Line Count:2
;Infill Line Distance:8
;Infill Pattern:grid
;Infill Sparse Density:10
;Infill Wipe Distance:0
;Print Temperature:195
;Bed Temperature:60
;Support Enable:false
;Support Density:15
;Support Angle:60
;Adhesion Type:lace
;machine is belt:false
;machine belt offset:10
;machine belt offset Y:0
;Raft Base Line Spacing:1.6
;Wait Heatup Sync:true
;Enable Ironing:false
;Material Type:PLA
;Max volumetric speed:20
;Preview Img Type:png
;Screen Size:Sermoon D3
;----------Shell Config----------------
;Outer Wall Wipe Distance:2000
;Outer Inset First:false
;Infill Before Walls:false
;Infill Overlap:0.09
;Fill Gaps Between Walls:everywhere
;Minimum Infill Area:30
;Top Surface Skin Layer:0
;Top Layers:5
;Z Seam Alignment:sharpest_corner
;Seam Corner Preference:z_seam_corner_inner
;Z Seam X:110
;Z Seam Y:220
;Horizontal Expansion:0
;Top/Bottom Pattern:zigzag
;Ironing Pattern:zigzag
;Vase Model:false
;----------Support Config----------------
;Support Type:everywhere
;Support Pattern:zigzag
;Support Infill Layer Thickness:0.2
;Minimum Support Area:1
;Enable Support Roof:true
;Support Roof Thickness:0.8
;Support Roof Pattern:lines
;Connect Support Lines:0
;Connect Support ZigZags:1
;Minimum Support X/Y Distance:0.2
;Support Line Distance:2.67
; ---------PrintSpeed & Travel----------
;Enable Print Cool:true
;Avoid Printed Parts Traveling:true
;Enable Retraction:true
;Retraction Distance:1.2
;Retraction Speed:30
;Retraction Prime Speed:30
;Maximum Retraction Count:100
;Minimum Extrusion Distance Window:0.8
;Z Hop When Retracted:true
;Z Hop Height:0.4
;Retract Before Outer Wall:true

;Outer Wall Speed:60
;Inner Wall Speed:90
;Infill Speed:180
;Top/Bottom Speed:50
;Travel Speed:150
;Initial Layer Speed:20
;Skirt/Brim Speed:25
;Prime Tower Speed:60
;Outer Wall Acceleration:1000
;Inner Wall Acceleration:2000
;Infill Acceleration:2500
;Top/Bottom Acceleration:2500
;Travel Acceleration:2500
;Initial Layer Print Acceleration:500
;Initial Layer Travel Acceleration:500
;Skirt/Brim Acceleration:500
;Combing Mode:off
; --------SpecialModel&Mesh Fixes--------
;Union Overlapping Volum:true
;Remove All Holes:false
;Maximum Travel Resolution:0.25
;Maximum Deviation:0.05
;Maximum Model Angle:0.872665
;IS Mold Print:false
;Make Overhang Printable:false
;Enable Coasting:false
;Coasting Volumes:0.064
;Coasting Speed:0.9
;Raft AirGap:0.25
;Layer0 ZOverLap:0.13
;Adaptive Layers:0
;---------------------End of Head--------------------------
M140 S60
M105
M190 S60
M104 S195
M82 ;absolute extrusion mode
M220 S100 ;Reset Feedrate
M221 S100 ;Reset Flowrate

G28 ;Home

G92 E0 ;Reset Extruder
G1 Z2.0 F3000 ;Move Z Axis up
G1 X-2.1 Y20 Z0.28 F5000.0 ;Move to start position
M109 S195.000000
G1 X-2.1 Y145.0 Z0.28 F1500.0 E15 ;Draw the first line
G1 X-2.4 Y145.0 Z0.28 F5000.0 ;Move to side a little
G1 X-2.4 Y20 Z0.28 F1500.0 E30 ;Draw the second line
G92 E0  ;Reset Extruder
G1 E-1.0000 F1800 ;Retract a bit
G1 Z2.0 F3000 ;Move Z Axis up
G1 E0.0000 F1800 

G92 E0
G92 E0
G1 F1800 E-1.2
;LAYER_COUNT:55

;LAYER:0
M106 S0
M204 S500
;;retract;;
G1 F1800 E0
G1 F1800 E-1.2
G0 F4800 X2.083 Y2.428 Z20.401
G0 X109.949 Y128.144 Z0.6
;TYPE:SKIRT
G1 F600 Z0.2
G1 F1800 E0
G1 F1500 X109.95 Y128.172 E0.00108
G1 X109.951 Y128.144 E0.00215
G1 X109.949 Y128.144 E0.00223
;;retract move;;
G1 F3840 X109.95 Y128.172 E-0.06902
G1 X109.951 Y128.144 E-0.14027
G1 X109.949 Y128.144 E-0.21152
G1 X109.95 Y128.172 E-0.28277
G1 X109.951 Y128.144 E-0.35402
G1 X109.949 Y128.144 E-0.42527
G1 X109.95 Y128.172 E-0.49652
G1 X109.951 Y128.144 E-0.56777
G1 X109.949 Y128.144 E-0.63902
G1 X109.95 Y128.172 E-0.71027
G1 X109.951 Y128.144 E-0.78152
G1 X109.949 Y128.144 E-0.85277
G1 X109.95 Y128.172 E-0.92402
G1 X109.951 Y128.144 E-0.99527
G1 X109.949 Y128.144 E-1.06652
G1 X109.95 Y128.172 E-1.13777
G1 F1800 E-1.19777
G0 F4800 X107.714 Y125.883 Z0.6
G0 X74.647 Y92.032
G1 F600 Z0.2
G1 F1800 E0.00223
G1 F1500 X74.372 Y92.29 E0.01672
G1 X74.072 Y92.652 E0.03478
G1 X73.844 Y93.066 E0.05293
G1 X73.706 Y93.417 E0.06742
G1 X73.612 Y93.782 E0.0819
G1 X73.565 Y94.155 E0.09634
G1 X73.565 Y94.532 E0.11083
G1 X73.612 Y94.906 E0.12531
G1 X73.706 Y95.271 E0.13978
G1 X73.844 Y95.621 E0.15424
G1 X74.026 Y95.951 E0.16871
G1 X74.358 Y96.409 E0.19045
G1 X73.795 Y96.099 E0.21514
G1 X73.359 Y95.926 E0.23315
G1 X72.799 Y95.819 E0.25506
G1 X72.234 Y95.819 E0.27676
G1 X71.674 Y95.927 E0.29867
G1 X71.154 Y96.133 E0.32016
G1 X70.676 Y96.435 E0.34188
G1 X70.33 Y96.76 E0.36011
G1 X70.09 Y97.05 E0.37457
G1 X69.888 Y97.368 E0.38905
G1 X69.728 Y97.709 E0.40352
G1 X69.582 Y98.156 E0.42158
G1 X69.523 Y98.625 E0.43974
G1 X69.523 Y99.002 E0.45422
G1 X69.582 Y99.471 E0.47238
G1 X69.728 Y99.918 E0.49045
G1 X69.888 Y100.259 E0.50492
G1 X70.09 Y100.577 E0.51939
G1 X70.33 Y100.867 E0.53385
G1 X70.605 Y101.125 E0.54833
G1 X70.96 Y101.375 E0.56501
G1 X70.836 Y101.635 E0.57608
G1 X70.533 Y101.539 E0.58829
G1 X70.069 Y101.45 E0.60644
G1 X69.504 Y101.45 E0.62814
G1 X68.944 Y101.558 E0.65005
G1 X68.424 Y101.764 E0.67154
G1 X67.946 Y102.066 E0.69326
G1 X67.6 Y102.391 E0.7115
G1 X67.36 Y102.681 E0.72596
G1 X67.158 Y102.999 E0.74043
G1 X66.998 Y103.34 E0.7549
G1 X66.882 Y103.698 E0.76936
G1 X66.811 Y104.069 E0.78387
G1 X66.787 Y104.445 E0.79834
G1 X66.811 Y104.821 E0.81281
G1 X66.882 Y105.191 E0.82729
G1 X66.998 Y105.549 E0.84174
G1 X67.158 Y105.89 E0.85621
G1 X67.36 Y106.208 E0.87069
G1 X67.6 Y106.498 E0.88515
G1 X67.946 Y106.823 E0.90338
G1 X68.424 Y107.125 E0.9251
G1 X68.86 Y107.298 E0.94312
G1 X69.174 Y107.38 E0.95559
G1 X69.123 Y107.792 E0.97154
G1 X68.837 Y107.795 E0.98253
G1 X68.369 Y107.854 E1.00065
G1 X67.832 Y108.029 E1.02234
G1 X67.335 Y108.301 E1.04411
G1 X66.972 Y108.602 E1.06222
G1 X66.714 Y108.877 E1.07671
G1 X66.493 Y109.182 E1.09118
G1 X66.265 Y109.595 E1.1093
G1 X66.12 Y110.043 E1.12739
G1 X66.049 Y110.413 E1.14186
G1 X66.026 Y110.789 E1.15633
G1 X66.049 Y111.165 E1.1708
G1 X66.12 Y111.535 E1.18528
G1 X66.265 Y111.983 E1.20337
G1 X66.493 Y112.396 E1.22149
G1 X66.714 Y112.701 E1.23596
G1 X66.972 Y112.976 E1.25044
G1 X67.262 Y113.216 E1.26491
G1 X67.581 Y113.418 E1.27941
G1 X67.921 Y113.578 E1.29385
G1 X68.369 Y113.724 E1.31195
G1 X68.931 Y113.795 E1.33371
G1 X69.356 Y113.769 E1.35006
G1 X68.944 Y113.911 E1.36681
G1 X68.539 Y114.134 E1.38457
G1 X68.234 Y114.355 E1.39904
G1 X67.959 Y114.613 E1.41352
G1 X67.719 Y114.903 E1.42798
G1 X67.517 Y115.221 E1.44245
G1 X67.357 Y115.562 E1.45692
G1 X67.211 Y116.011 E1.47506
G1 X67.152 Y116.478 E1.49314
G1 X67.152 Y116.855 E1.50763
G1 X67.211 Y117.324 E1.52579
G1 X67.357 Y117.771 E1.54385
G1 X67.517 Y118.112 E1.55832
G1 X67.719 Y118.43 E1.57279
G1 X68.02 Y118.793 E1.59091
G1 X68.383 Y119.094 E1.60902
G1 X68.701 Y119.296 E1.6235
G1 X69.042 Y119.456 E1.63797
G1 X69.4 Y119.572 E1.65242
G1 X69.864 Y119.661 E1.67057
G1 X70.428 Y119.661 E1.69224
G1 X70.985 Y119.554 E1.71403
G1 X71.357 Y119.41 E1.72935
G1 X71.486 Y119.653 E1.73992
G1 X71.194 Y119.875 E1.75401
G1 X70.883 Y120.206 E1.77146
G1 X70.662 Y120.511 E1.78593
G1 X70.434 Y120.924 E1.80405
G1 X70.289 Y121.372 E1.82214
G1 X70.218 Y121.742 E1.83661
G1 X70.195 Y122.118 E1.85108
G1 X70.218 Y122.494 E1.86555
G1 X70.289 Y122.864 E1.88003
G1 X70.434 Y123.312 E1.89812
G1 X70.662 Y123.726 E1.91627
G1 X70.883 Y124.031 E1.93074
G1 X71.141 Y124.305 E1.9452
G1 X71.503 Y124.605 E1.96326
G1 X71.917 Y124.833 E1.98142
G1 X72.353 Y125.006 E1.99944
G1 X72.819 Y125.095 E2.01766
G1 X73.195 Y125.118 E2.03213
G1 X73.571 Y125.095 E2.0466
G1 X74.038 Y125.005 E2.06487
G1 X74.559 Y124.799 E2.0864
G1 X75.152 Y124.421 E2.11341
G1 X75.316 Y124.579 E2.12216
G1 X75.115 Y124.858 E2.13537
G1 X74.933 Y125.188 E2.14985
G1 X74.795 Y125.539 E2.16434
G1 X74.701 Y125.904 E2.17881
G1 X74.654 Y126.277 E2.19326
G1 X74.654 Y126.654 E2.20774
G1 X74.701 Y127.028 E2.22222
G1 X74.795 Y127.393 E2.2367
G1 X74.933 Y127.743 E2.25115
G1 X75.115 Y128.073 E2.26563
G1 X75.336 Y128.378 E2.2801
G1 X75.594 Y128.653 E2.29458
G1 X75.885 Y128.893 E2.30907
G1 X76.203 Y129.095 E2.32355
G1 X76.544 Y129.255 E2.33802
G1 X76.991 Y129.401 E2.35608
G1 X77.46 Y129.46 E2.37424
G1 X77.836 Y129.46 E2.38868
G1 X78.305 Y129.401 E2.40684
G1 X78.752 Y129.255 E2.42491
G1 X79.093 Y129.095 E2.43938
G1 X79.411 Y128.893 E2.45385
G1 X79.772 Y128.596 E2.47181
G1 X80.075 Y128.229 E2.49009
G1 X80.242 Y127.969 E2.50196
G1 X80.308 Y128.002 E2.5048
G1 X80.163 Y128.447 E2.52278
G1 X80.104 Y128.916 E2.54093
G1 X80.104 Y129.292 E2.55538
G1 X80.151 Y129.666 E2.56986
G1 X80.245 Y130.031 E2.58434
G1 X80.383 Y130.381 E2.59879
G1 X80.565 Y130.711 E2.61327
G1 X80.786 Y131.016 E2.62774
G1 X81.044 Y131.291 E2.64222
G1 X81.335 Y131.531 E2.65671
G1 X81.653 Y131.733 E2.67119
G1 X81.994 Y131.893 E2.68566
G1 X82.441 Y132.039 E2.70372
G1 X82.91 Y132.098 E2.72188
G1 X83.286 Y132.098 E2.73632
G1 X83.755 Y132.039 E2.75448
G1 X84.202 Y131.893 E2.77255
G1 X84.543 Y131.733 E2.78702
G1 X84.861 Y131.531 E2.80149
G1 X85.225 Y131.231 E2.81961
G1 X85.525 Y130.867 E2.83773
G1 X85.727 Y130.549 E2.8522
G1 X85.925 Y130.126 E2.87014
G1 X86.023 Y129.764 E2.88455
G1 X86.036 Y129.766 E2.88506
G1 X86.032 Y130.267 E2.9043
G1 X86.141 Y130.831 E2.92637
G1 X86.313 Y131.265 E2.9443
G1 X86.495 Y131.595 E2.95878
G1 X86.716 Y131.9 E2.97325
G1 X86.974 Y132.175 E2.98774
G1 X87.264 Y132.415 E3.0022
G1 X87.582 Y132.617 E3.01667
G1 X88.008 Y132.817 E3.03475
G1 X88.465 Y132.935 E3.05288
G1 X88.839 Y132.982 E3.06736
G1 X89.216 Y132.982 E3.08184
G1 X89.59 Y132.935 E3.09632
G1 X90.045 Y132.818 E3.11437
G1 X90.473 Y132.617 E3.13254
G1 X90.791 Y132.415 E3.14701
G1 X91.081 Y132.175 E3.16147
G1 X91.339 Y131.9 E3.17595
G1 X91.561 Y131.595 E3.19045
G1 X91.742 Y131.265 E3.20491
G1 X91.914 Y130.831 E3.22284
G1 X92.004 Y130.364 E3.24111
G1 X92.035 Y129.873 E3.26001
G1 X92.202 Y130.389 E3.28084
G1 X92.362 Y130.73 E3.29531
G1 X92.564 Y131.048 E3.30979
G1 X92.804 Y131.338 E3.32425
G1 X93.079 Y131.596 E3.33873
G1 X93.384 Y131.817 E3.3532
G1 X93.797 Y132.045 E3.37132
G1 X94.245 Y132.19 E3.38941
G1 X94.615 Y132.261 E3.40389
G1 X94.991 Y132.284 E3.41836
G1 X95.367 Y132.261 E3.43283
G1 X95.737 Y132.19 E3.4473
G1 X96.185 Y132.045 E3.46539
G1 X96.599 Y131.817 E3.48355
G1 X96.977 Y131.543 E3.50148
G1 X97.303 Y131.197 E3.51974
G1 X97.524 Y130.892 E3.53421
G1 X97.752 Y130.478 E3.55237
G1 X97.897 Y130.03 E3.57046
G1 X97.968 Y129.66 E3.58493
G1 X97.991 Y129.284 E3.5994
G1 X97.963 Y128.878 E3.61504
G1 X97.977 Y128.876 E3.61558
G1 X98.053 Y129.305 E3.63232
G1 X98.17 Y129.663 E3.64679
G1 X98.33 Y130.004 E3.66126
G1 X98.532 Y130.322 E3.67573
G1 X98.832 Y130.685 E3.69382
G1 X99.269 Y131.047 E3.71562
G1 X99.682 Y131.273 E3.7337
G1 X100.116 Y131.445 E3.75164
G1 X100.583 Y131.535 E3.76991
G1 X100.959 Y131.559 E3.78438
G1 X101.335 Y131.535 E3.79886
G1 X101.802 Y131.445 E3.81713
G1 X102.236 Y131.273 E3.83506
G1 X102.647 Y131.049 E3.85304
G1 X103.013 Y130.745 E3.87132
G1 X103.271 Y130.471 E3.88578
G1 X103.492 Y130.166 E3.90024
G1 X103.674 Y129.836 E3.91472
G1 X103.812 Y129.486 E3.92917
G1 X103.906 Y129.121 E3.94365
G1 X103.953 Y128.747 E3.95813
G1 X103.95 Y128.444 E3.96977
G1 X104.064 Y129.035 E3.9929
G1 X104.236 Y129.469 E4.01083
G1 X104.418 Y129.799 E4.02531
G1 X104.694 Y130.18 E4.04338
G1 X105.038 Y130.504 E4.06153
G1 X105.421 Y130.782 E4.07972
G1 X105.846 Y130.981 E4.09774
G1 X106.295 Y131.127 E4.11588
G1 X106.762 Y131.186 E4.13396
G1 X107.139 Y131.186 E4.14845
G1 X107.608 Y131.127 E4.1666
G1 X108.055 Y130.981 E4.18467
G1 X108.48 Y130.782 E4.2027
G1 X108.863 Y130.504 E4.22088
G1 X109.138 Y130.246 E4.23536
G1 X109.378 Y129.955 E4.24985
G1 X109.58 Y129.637 E4.26433
G1 X109.74 Y129.296 E4.2788
G1 X109.856 Y128.938 E4.29325
G1 X109.927 Y128.568 E4.30773
G1 X109.951 Y128.204 E4.32174
G1 X109.974 Y128.56 E4.33544
G1 X110.064 Y129.027 E4.35371
G1 X110.236 Y129.461 E4.37165
G1 X110.462 Y129.874 E4.38973
G1 X110.824 Y130.311 E4.41153
G1 X111.187 Y130.611 E4.42962
G1 X111.505 Y130.813 E4.4441
G1 X111.846 Y130.973 E4.45857
G1 X112.293 Y131.119 E4.47663
G1 X112.762 Y131.178 E4.49479
G1 X113.139 Y131.178 E4.50927
G1 X113.608 Y131.119 E4.52743
G1 X114.055 Y130.973 E4.54549
G1 X114.396 Y130.813 E4.55996
G1 X114.714 Y130.611 E4.57444
G1 X115.077 Y130.311 E4.59253
G1 X115.378 Y129.947 E4.61067
G1 X115.631 Y129.547 E4.62885
G1 X115.837 Y129.027 E4.65034
G1 X115.947 Y128.456 E4.67268
G1 X115.947 Y128.724 E4.68297
G1 X116.006 Y129.193 E4.70113
G1 X116.183 Y129.735 E4.72304
G1 X116.408 Y130.143 E4.74094
G1 X116.629 Y130.448 E4.75541
G1 X116.952 Y130.791 E4.7735
G1 X117.333 Y131.068 E4.7916
G1 X117.664 Y131.25 E4.80611
G1 X118.098 Y131.422 E4.82404
G1 X118.658 Y131.53 E4.84595
G1 X119.224 Y131.53 E4.8677
G1 X119.784 Y131.422 E4.88961
G1 X120.218 Y131.25 E4.90754
G1 X120.548 Y131.068 E4.92202
G1 X120.853 Y130.847 E4.93649
G1 X121.128 Y130.589 E4.95097
G1 X121.368 Y130.299 E4.96543
G1 X121.57 Y129.981 E4.97991
G1 X121.73 Y129.64 E4.99438
G1 X121.847 Y129.282 E5.00884
G1 X121.904 Y128.98 E5.02065
G1 X121.904 Y129.435 E5.03813
G1 X121.951 Y129.809 E5.05261
G1 X122.068 Y130.264 E5.07066
G1 X122.269 Y130.692 E5.08882
G1 X122.471 Y131.01 E5.10329
G1 X122.768 Y131.371 E5.12125
G1 X123.135 Y131.674 E5.13954
G1 X123.453 Y131.876 E5.15401
G1 X123.794 Y132.036 E5.16848
G1 X124.241 Y132.182 E5.18654
G1 X124.71 Y132.241 E5.2047
G1 X125.087 Y132.241 E5.21918
G1 X125.555 Y132.182 E5.2373
G1 X126.003 Y132.036 E5.25541
G1 X126.344 Y131.876 E5.26988
G1 X126.662 Y131.674 E5.28435
G1 X126.952 Y131.434 E5.29881
G1 X127.21 Y131.159 E5.31329
G1 X127.431 Y130.854 E5.32776
G1 X127.659 Y130.441 E5.34589
G1 X127.804 Y129.993 E5.36397
G1 X127.859 Y129.72 E5.37467
G1 X127.862 Y130.097 E5.38916
G1 X127.921 Y130.566 E5.40731
G1 X128.067 Y131.013 E5.42538
G1 X128.227 Y131.354 E5.43985
G1 X128.429 Y131.672 E5.45432
G1 X128.669 Y131.962 E5.46878
G1 X129.015 Y132.287 E5.48702
G1 X129.493 Y132.589 E5.50874
G1 X130.013 Y132.795 E5.53023
G1 X130.573 Y132.903 E5.55213
G1 X131.139 Y132.903 E5.57388
G1 X131.699 Y132.795 E5.59579
G1 X132.133 Y132.623 E5.61372
G1 X132.552 Y132.393 E5.63208
G1 X132.91 Y132.095 E5.64998
G1 X133.168 Y131.821 E5.66443
G1 X133.389 Y131.516 E5.6789
G1 X133.571 Y131.186 E5.69338
G1 X133.745 Y130.745 E5.71159
G1 X133.849 Y130.2 E5.73291
G1 X133.852 Y129.766 E5.74958
G1 X133.937 Y130.083 E5.76219
G1 X134.075 Y130.434 E5.77668
G1 X134.257 Y130.764 E5.79115
G1 X134.478 Y131.069 E5.80562
G1 X134.801 Y131.412 E5.82372
G1 X135.182 Y131.689 E5.84182
G1 X135.513 Y131.871 E5.85633
G1 X135.947 Y132.043 E5.87426
G1 X136.414 Y132.133 E5.89253
G1 X136.79 Y132.156 E5.907
G1 X137.166 Y132.133 E5.92147
G1 X137.633 Y132.043 E5.93974
G1 X138.067 Y131.871 E5.95768
G1 X138.397 Y131.689 E5.97216
G1 X138.702 Y131.468 E5.98663
G1 X138.977 Y131.21 E6.00111
G1 X139.217 Y130.92 E6.01557
G1 X139.419 Y130.602 E6.03004
G1 X139.579 Y130.261 E6.04451
G1 X139.725 Y129.813 E6.06261
G1 X139.784 Y129.345 E6.08074
G1 X139.784 Y128.968 E6.09522
G1 X139.725 Y128.501 E6.1133
G1 X139.592 Y128.088 E6.12997
G1 X139.666 Y128.052 E6.13313
