;FLAVOR:Marlin
;TIME:1023.2
;Filament used:1.31402m
;Material Diameter:1.75
;Material Density:1.24
;Filament Cost:0.078383
;Filament Weight:3.919130
;Filament Length:1.314020
;Layer height:0.2
;MINX:2.291
;MINY:2.233
;MINZ:0.2
;MAXX:132.846
;MAXY:132.985
;MAXZ:20.401
;OuterWall Time:203.729
;InnerWall Time:152.362
;Skin Time:411.055
;Support Time:0
;SkirtBrim Time:8.88122
;Infill Time:41.0734
;Support Infills Time:0
;Combing Time:49.901
;Retraction Time:156.198
;PrimeTower Time:0
;;;;;;;;;;;;;;;;;;;;;;;;;;;;;;;;;;;;;;;;;;;;;;;;;;;;;;;;;;;;;;;;;;;;;;;;;
;Creality Print GCode Generated by CXEngine
;CRSLICE_GIT_HASH:58ee74d
;Creality Print Version : V4.3.8.6984
;CXEngine Release Time:2023-12-04 18:16:29
;Gcode Generated Time:2024-09-17 19:13:56
;----------Machine Config--------------
;Machine Name:Ender-3 V3 SE
;Machine Height:250
;Machine Width:220
;Machine Depth:220
;Material Type:PLA
;Material Name:CR-PLA_1.75
;Number of Extruders:1
;ExtruderParams[0] Nozzle Diameter:1000
;----------Profile Config---------------
;Wall Thickness:0.8
;Top/Bottom Thickness:0.8
;Out Wall Line Width:0.42
;Inner Wall Line Width:0.45
;Inital Height:200
;Wall Line Count:2
;Infill Line Distance:15
;Infill Pattern:grid
;Infill Sparse Density:7
;Infill Wipe Distance:0
;Print Temperature:195
;Bed Temperature:60
;Support Enable:false
;Support Density:15
;Support Angle:60
;Adhesion Type:lace
;machine is belt:false
;machine belt offset:10
;machine belt offset Y:0
;Raft Base Line Spacing:1.6
;Wait Heatup Sync:true
;Enable Ironing:false
;Material Type:PLA
;Max volumetric speed:20
;Preview Img Type:png
;Screen Size:Sermoon D3
;----------Shell Config----------------
;Outer Wall Wipe Distance:2000
;Outer Inset First:false
;Infill Before Walls:false
;Infill Overlap:0.14
;Fill Gaps Between Walls:everywhere
;Minimum Infill Area:10
;Top Surface Skin Layer:0
;Top Layers:5
;Z Seam Alignment:sharpest_corner
;Seam Corner Preference:z_seam_corner_inner
;Z Seam X:110
;Z Seam Y:220
;Horizontal Expansion:0
;Top/Bottom Pattern:zigzag
;Ironing Pattern:zigzag
;Vase Model:false
;----------Support Config----------------
;Support Type:everywhere
;Support Pattern:zigzag
;Support Infill Layer Thickness:0.2
;Minimum Support Area:1
;Enable Support Roof:true
;Support Roof Thickness:0.8
;Support Roof Pattern:lines
;Connect Support Lines:0
;Connect Support ZigZags:1
;Minimum Support X/Y Distance:0.2
;Support Line Distance:2.67
; ---------PrintSpeed & Travel----------
;Enable Print Cool:true
;Avoid Printed Parts Traveling:true
;Enable Retraction:true
;Retraction Distance:1.2
;Retraction Speed:30
;Retraction Prime Speed:30
;Maximum Retraction Count:100
;Minimum Extrusion Distance Window:0.8
;Z Hop When Retracted:true
;Z Hop Height:0.4
;Retract Before Outer Wall:true

;Outer Wall Speed:60
;Inner Wall Speed:90
;Infill Speed:180
;Top/Bottom Speed:50
;Travel Speed:150
;Initial Layer Speed:20
;Skirt/Brim Speed:25
;Prime Tower Speed:60
;Outer Wall Acceleration:1000
;Inner Wall Acceleration:2000
;Infill Acceleration:2500
;Top/Bottom Acceleration:2500
;Travel Acceleration:2500
;Initial Layer Print Acceleration:500
;Initial Layer Travel Acceleration:500
;Skirt/Brim Acceleration:500
;Combing Mode:off
; --------SpecialModel&Mesh Fixes--------
;Union Overlapping Volum:true
;Remove All Holes:false
;Maximum Travel Resolution:0.25
;Maximum Deviation:0.05
;Maximum Model Angle:0.872665
;IS Mold Print:false
;Make Overhang Printable:false
;Enable Coasting:false
;Coasting Volumes:0.064
;Coasting Speed:0.9
;Raft AirGap:0.25
;Layer0 ZOverLap:0.13
;Adaptive Layers:0
;---------------------End of Head--------------------------
M140 S60
M105
M190 S60
M104 S195
M82 ;absolute extrusion mode
M220 S100 ;Reset Feedrate
M221 S100 ;Reset Flowrate

G28 ;Home

G92 E0 ;Reset Extruder
G1 Z2.0 F3000 ;Move Z Axis up
G1 X-2.1 Y20 Z0.28 F5000.0 ;Move to start position
M109 S195.000000
G1 X-2.1 Y145.0 Z0.28 F1500.0 E15 ;Draw the first line
G1 X-2.4 Y145.0 Z0.28 F5000.0 ;Move to side a little
G1 X-2.4 Y20 Z0.28 F1500.0 E30 ;Draw the second line
G92 E0  ;Reset Extruder
G1 E-1.0000 F1800 ;Retract a bit
G1 Z2.0 F3000 ;Move Z Axis up
G1 E0.0000 F1800 

G92 E0
G92 E0
G1 F1800 E-1.2
;LAYER_COUNT:40

;LAYER:0
M106 S0
M204 S500
;;retract;;
G1 F1800 E0
G1 F1800 E-1.2
G0 F4800 X2.291 Y2.233 Z20.401
G0 X95.038 Y92.611 Z0.6
;TYPE:SKIRT
G1 F600 Z0.2
G1 F1800 E0
G1 F1500 X94.738 Y92.973 E0.01806
G1 X94.51 Y93.387 E0.03622
G1 X94.337 Y93.823 E0.05424
G1 X94.23 Y94.383 E0.07614
G1 X94.23 Y94.948 E0.09784
G1 X94.338 Y95.508 E0.11975
G1 X94.51 Y95.942 E0.13769
G1 X94.692 Y96.272 E0.15216
G1 X95.054 Y96.771 E0.17585
G1 X94.915 Y96.932 E0.18402
G1 X94.58 Y96.716 E0.19933
G1 X94.239 Y96.556 E0.2138
G1 X93.79 Y96.41 E0.23194
G1 X93.323 Y96.351 E0.25002
G1 X92.946 Y96.351 E0.2645
G1 X92.477 Y96.41 E0.28266
G1 X92.03 Y96.556 E0.30073
G1 X91.689 Y96.716 E0.3152
G1 X91.371 Y96.918 E0.32967
G1 X91.008 Y97.218 E0.34776
G1 X90.707 Y97.582 E0.3659
G1 X90.505 Y97.9 E0.38038
G1 X90.345 Y98.241 E0.39485
G1 X90.229 Y98.599 E0.4093
G1 X90.158 Y98.969 E0.42378
G1 X90.134 Y99.345 E0.43825
G1 X90.158 Y99.721 E0.45272
G1 X90.229 Y100.091 E0.4672
G1 X90.345 Y100.449 E0.48165
G1 X90.505 Y100.79 E0.49612
G1 X90.707 Y101.108 E0.51059
G1 X90.948 Y101.399 E0.52511
G1 X91.222 Y101.657 E0.53957
G1 X91.667 Y101.979 E0.56067
G1 X91.381 Y101.89 E0.57217
G1 X90.919 Y101.832 E0.59006
G1 X90.543 Y101.832 E0.60451
G1 X90.169 Y101.879 E0.61899
G1 X89.804 Y101.973 E0.63347
G1 X89.454 Y102.111 E0.64792
G1 X89.124 Y102.293 E0.6624
G1 X88.819 Y102.514 E0.67686
G1 X88.544 Y102.772 E0.69135
G1 X88.304 Y103.062 E0.70581
G1 X88.102 Y103.381 E0.72032
G1 X87.942 Y103.721 E0.73475
G1 X87.796 Y104.169 E0.75285
G1 X87.737 Y104.637 E0.77097
G1 X87.737 Y105.014 E0.78546
G1 X87.796 Y105.483 E0.80361
G1 X87.942 Y105.93 E0.82168
G1 X88.102 Y106.271 E0.83615
G1 X88.304 Y106.589 E0.85062
G1 X88.604 Y106.953 E0.86874
G1 X88.968 Y107.253 E0.88686
G1 X89.286 Y107.455 E0.90133
G1 X89.627 Y107.615 E0.9158
G1 X90.177 Y107.795 E0.93804
G1 X90.17 Y107.853 E0.94028
G1 X89.878 Y107.855 E0.9515
G1 X89.504 Y107.903 E0.96598
G1 X89.139 Y107.996 E0.98045
G1 X88.703 Y108.169 E0.99847
G1 X88.303 Y108.422 E1.01665
G1 X88.013 Y108.663 E1.03114
G1 X87.689 Y109.007 E1.04929
G1 X87.386 Y109.486 E1.07107
G1 X87.179 Y110.006 E1.09257
G1 X87.072 Y110.569 E1.11458
G1 X87.072 Y111.133 E1.13625
G1 X87.18 Y111.693 E1.15816
G1 X87.386 Y112.213 E1.17964
G1 X87.639 Y112.613 E1.19783
G1 X87.88 Y112.903 E1.21231
G1 X88.224 Y113.227 E1.23046
G1 X88.703 Y113.53 E1.25224
G1 X89.223 Y113.737 E1.27374
G1 X89.691 Y113.826 E1.29204
G1 X90.067 Y113.85 E1.30651
G1 X90.421 Y113.828 E1.32014
G1 X90.434 Y113.896 E1.3228
G1 X90.049 Y114.024 E1.33838
G1 X89.635 Y114.251 E1.35652
G1 X89.254 Y114.528 E1.37462
G1 X88.931 Y114.871 E1.39272
G1 X88.71 Y115.176 E1.40719
G1 X88.528 Y115.506 E1.42166
G1 X88.39 Y115.857 E1.43615
G1 X88.296 Y116.222 E1.45063
G1 X88.249 Y116.595 E1.46507
G1 X88.249 Y116.972 E1.47956
G1 X88.296 Y117.346 E1.49404
G1 X88.39 Y117.711 E1.50851
G1 X88.528 Y118.061 E1.52297
G1 X88.71 Y118.391 E1.53744
G1 X88.931 Y118.696 E1.55191
G1 X89.189 Y118.971 E1.5664
G1 X89.48 Y119.211 E1.58089
G1 X89.798 Y119.413 E1.59536
G1 X90.138 Y119.573 E1.6098
G1 X90.586 Y119.719 E1.6279
G1 X91.054 Y119.778 E1.64602
G1 X91.431 Y119.778 E1.6605
G1 X91.805 Y119.731 E1.67498
G1 X92.17 Y119.637 E1.68946
G1 X92.467 Y119.521 E1.70171
G1 X92.101 Y119.793 E1.71923
G1 X91.78 Y120.134 E1.73722
G1 X91.558 Y120.439 E1.75171
G1 X91.377 Y120.769 E1.76617
G1 X91.238 Y121.12 E1.78067
G1 X91.145 Y121.484 E1.7951
G1 X91.085 Y121.952 E1.81323
G1 X91.115 Y122.423 E1.83136
G1 X91.205 Y122.89 E1.84963
G1 X91.377 Y123.324 E1.86756
G1 X91.604 Y123.738 E1.8857
G1 X91.905 Y124.1 E1.90379
G1 X92.249 Y124.424 E1.92194
G1 X92.646 Y124.676 E1.94001
G1 X92.987 Y124.836 E1.95448
G1 X93.345 Y124.952 E1.96893
G1 X93.809 Y125.041 E1.98708
G1 X94.28 Y125.041 E2.00518
G1 X94.654 Y124.993 E2.01966
G1 X95.108 Y124.877 E2.03766
G1 X95.537 Y124.676 E2.05586
G1 X95.855 Y124.474 E2.07033
G1 X96.072 Y124.297 E2.08109
G1 X96.23 Y124.451 E2.08957
G1 X96.018 Y124.743 E2.10343
G1 X95.836 Y125.074 E2.11794
G1 X95.698 Y125.424 E2.13239
G1 X95.604 Y125.789 E2.14687
G1 X95.557 Y126.163 E2.16135
G1 X95.557 Y126.539 E2.1758
G1 X95.604 Y126.913 E2.19028
G1 X95.698 Y127.278 E2.20476
G1 X95.836 Y127.628 E2.21921
G1 X96.018 Y127.958 E2.23369
G1 X96.239 Y128.263 E2.24816
G1 X96.497 Y128.538 E2.26264
G1 X96.788 Y128.778 E2.27713
G1 X97.106 Y128.98 E2.2916
G1 X97.447 Y129.14 E2.30607
G1 X97.894 Y129.286 E2.32414
G1 X98.363 Y129.345 E2.3423
G1 X98.739 Y129.345 E2.35674
G1 X99.208 Y129.286 E2.3749
G1 X99.655 Y129.14 E2.39296
G1 X99.996 Y128.98 E2.40743
G1 X100.314 Y128.778 E2.42191
G1 X100.678 Y128.478 E2.44003
G1 X100.978 Y128.114 E2.45815
G1 X101.15 Y127.846 E2.47038
G1 X101.192 Y127.871 E2.47226
G1 X101.065 Y128.203 E2.48591
G1 X100.977 Y128.663 E2.50391
G1 X100.953 Y129.039 E2.51838
G1 X100.977 Y129.415 E2.53285
G1 X101.048 Y129.785 E2.54733
G1 X101.164 Y130.143 E2.56178
G1 X101.324 Y130.484 E2.57625
G1 X101.526 Y130.802 E2.59072
G1 X101.766 Y131.093 E2.60521
G1 X102.041 Y131.351 E2.6197
G1 X102.346 Y131.572 E2.63417
G1 X102.676 Y131.754 E2.64865
G1 X103.026 Y131.892 E2.6631
G1 X103.391 Y131.986 E2.67758
G1 X103.765 Y132.033 E2.69206
G1 X104.142 Y132.033 E2.70654
G1 X104.516 Y131.986 E2.72102
G1 X104.88 Y131.892 E2.73546
G1 X105.231 Y131.754 E2.74995
G1 X105.561 Y131.572 E2.76443
G1 X105.866 Y131.351 E2.7789
G1 X106.209 Y131.028 E2.797
G1 X106.486 Y130.647 E2.81509
G1 X106.668 Y130.316 E2.82961
G1 X106.868 Y129.811 E2.85047
G1 X106.902 Y130.361 E2.87164
G1 X106.973 Y130.731 E2.88611
G1 X107.118 Y131.179 E2.9042
G1 X107.346 Y131.592 E2.92232
G1 X107.62 Y131.97 E2.94026
G1 X108.036 Y132.362 E2.96222
G1 X108.515 Y132.665 E2.98399
G1 X109.037 Y132.872 E3.00556
G1 X109.503 Y132.961 E3.02379
G1 X109.879 Y132.985 E3.03826
G1 X110.255 Y132.961 E3.05274
G1 X110.722 Y132.871 E3.07101
G1 X111.242 Y132.665 E3.09249
G1 X111.72 Y132.363 E3.11421
G1 X112.066 Y132.038 E3.13245
G1 X112.306 Y131.748 E3.14691
G1 X112.508 Y131.43 E3.16138
G1 X112.709 Y131.002 E3.17955
G1 X112.826 Y130.547 E3.19759
G1 X112.873 Y130.173 E3.21207
G1 X112.872 Y129.738 E3.22878
G1 X112.958 Y130.065 E3.24177
G1 X113.097 Y130.415 E3.25624
G1 X113.279 Y130.745 E3.27072
G1 X113.5 Y131.05 E3.28519
G1 X113.758 Y131.325 E3.29967
G1 X114.048 Y131.565 E3.31413
G1 X114.366 Y131.767 E3.32861
G1 X114.792 Y131.967 E3.34668
G1 X115.249 Y132.085 E3.36482
G1 X115.623 Y132.132 E3.3793
G1 X116 Y132.132 E3.39378
G1 X116.374 Y132.085 E3.40826
G1 X116.829 Y131.968 E3.42631
G1 X117.257 Y131.767 E3.44447
G1 X117.575 Y131.565 E3.45894
G1 X117.865 Y131.325 E3.47341
G1 X118.123 Y131.05 E3.48789
G1 X118.345 Y130.745 E3.50238
G1 X118.526 Y130.415 E3.51684
G1 X118.698 Y129.981 E3.53478
G1 X118.806 Y129.421 E3.55668
G1 X118.806 Y128.856 E3.57839
G1 X118.717 Y128.392 E3.59654
G1 X118.611 Y128.061 E3.60989
G1 X118.631 Y128.052 E3.61073
G1 X118.805 Y128.324 E3.62314
G1 X119.046 Y128.615 E3.63765
G1 X119.32 Y128.873 E3.65211
G1 X119.625 Y129.094 E3.66658
G1 X119.955 Y129.276 E3.68106
G1 X120.305 Y129.414 E3.69551
G1 X120.67 Y129.508 E3.70999
G1 X121.044 Y129.555 E3.72447
G1 X121.421 Y129.555 E3.73895
G1 X121.795 Y129.508 E3.75343
G1 X122.16 Y129.414 E3.76791
G1 X122.51 Y129.276 E3.78236
G1 X122.84 Y129.094 E3.79684
G1 X123.145 Y128.873 E3.81131
G1 X123.419 Y128.615 E3.82577
G1 X123.723 Y128.249 E3.84405
G1 X123.947 Y127.838 E3.86203
G1 X124.119 Y127.404 E3.87996
G1 X124.209 Y126.937 E3.89823
G1 X124.233 Y126.561 E3.9127
G1 X124.209 Y126.185 E3.92718
G1 X124.119 Y125.718 E3.94545
G1 X123.947 Y125.284 E3.96338
G1 X123.766 Y124.954 E3.97784
G1 X123.582 Y124.698 E3.98995
G1 X123.719 Y124.571 E3.99713
G1 X124.055 Y124.848 E4.01386
G1 X124.467 Y125.074 E4.03191
G1 X124.901 Y125.246 E4.04984
G1 X125.461 Y125.354 E4.07175
G1 X126.026 Y125.354 E4.09346
G1 X126.586 Y125.247 E4.11536
G1 X127.022 Y125.074 E4.13338
G1 X127.436 Y124.847 E4.15152
G1 X127.798 Y124.546 E4.1696
G1 X128.056 Y124.272 E4.18406
G1 X128.277 Y123.967 E4.19853
G1 X128.505 Y123.554 E4.21665
G1 X128.65 Y123.106 E4.23474
G1 X128.721 Y122.736 E4.24921
G1 X128.742 Y122.409 E4.2618
G1 X129.079 Y122.245 E4.2762
G1 X129.456 Y121.972 E4.29408
G1 X129.731 Y121.714 E4.30856
G1 X129.971 Y121.424 E4.32303
G1 X130.173 Y121.106 E4.3375
G1 X130.373 Y120.679 E4.35561
G1 X130.491 Y120.222 E4.37374
G1 X130.538 Y119.849 E4.38819
G1 X130.538 Y119.472 E4.40267
G1 X130.491 Y119.098 E4.41715
G1 X130.374 Y118.643 E4.4352
G1 X130.173 Y118.215 E4.45336
G1 X129.971 Y117.897 E4.46783
G1 X129.67 Y117.534 E4.48595
G1 X129.307 Y117.233 E4.50406
G1 X128.796 Y116.908 E4.52733
G1 X128.861 Y116.739 E4.53428
G1 X129.263 Y116.819 E4.55003
G1 X129.639 Y116.843 E4.5645
G1 X130.015 Y116.819 E4.57898
G1 X130.482 Y116.729 E4.59725
G1 X130.916 Y116.557 E4.61518
G1 X131.329 Y116.331 E4.63327
G1 X131.766 Y115.969 E4.65507
G1 X132.066 Y115.606 E4.67316
G1 X132.268 Y115.288 E4.68763
G1 X132.428 Y114.947 E4.7021
G1 X132.574 Y114.5 E4.72016
G1 X132.633 Y114.031 E4.73832
G1 X132.633 Y113.654 E4.7528
G1 X132.574 Y113.185 E4.77096
G1 X132.428 Y112.738 E4.78903
G1 X132.268 Y112.397 E4.8035
G1 X132.066 Y112.079 E4.81797
G1 X131.766 Y111.716 E4.83606
G1 X131.402 Y111.415 E4.85421
G1 X131.002 Y111.162 E4.87239
G1 X130.566 Y110.989 E4.89041
G1 X130.201 Y110.896 E4.90488
G1 X129.953 Y110.86 E4.9145
G1 X129.95 Y110.433 E4.93091
G1 X130.222 Y110.413 E4.94139
G1 X130.592 Y110.342 E4.95586
G1 X131.04 Y110.197 E4.97395
G1 X131.453 Y109.969 E4.99207
G1 X131.758 Y109.748 E5.00654
G1 X132.032 Y109.49 E5.021
G1 X132.333 Y109.128 E5.03908
G1 X132.56 Y108.714 E5.05722
G1 X132.733 Y108.278 E5.07524
G1 X132.822 Y107.812 E5.09346
G1 X132.846 Y107.436 E5.10794
G1 X132.822 Y107.06 E5.12241
G1 X132.732 Y106.593 E5.14068
G1 X132.56 Y106.159 E5.15862
G1 X132.379 Y105.829 E5.17307
G1 X132.157 Y105.524 E5.18757
G1 X131.899 Y105.249 E5.20205
G1 X131.609 Y105.009 E5.21651
G1 X131.291 Y104.807 E5.23099
G1 X130.95 Y104.647 E5.24546
G1 X130.503 Y104.501 E5.26352
G1 X130.034 Y104.442 E5.28168
G1 X129.657 Y104.442 E5.29616
G1 X129.259 Y104.494 E5.31158
G1 X129.223 Y104.37 E5.31654
G1 X129.84 Y104.03 E5.3436
G1 X130.202 Y103.73 E5.36166
G1 X130.46 Y103.456 E5.37612
G1 X130.681 Y103.151 E5.39059
G1 X130.909 Y102.737 E5.40875
G1 X131.054 Y102.289 E5.42684
G1 X131.125 Y101.919 E5.44131
G1 X131.148 Y101.543 E5.45578
G1 X131.125 Y101.167 E5.47025
G1 X131.054 Y100.797 E5.48473
G1 X130.909 Y100.349 E5.50281
G1 X130.681 Y99.936 E5.52094
G1 X130.46 Y99.631 E5.53541
G1 X130.202 Y99.356 E5.54989
G1 X129.912 Y99.116 E5.56435
G1 X129.593 Y98.914 E5.57886
G1 X129.253 Y98.754 E5.59329
G1 X128.894 Y98.638 E5.60779
G1 X128.524 Y98.567 E5.62226
G1 X128.148 Y98.543 E5.63673
G1 X127.772 Y98.567 E5.65121
G1 X127.305 Y98.657 E5.66948
G1 X126.669 Y98.909 E5.69576
G1 X126.597 Y98.798 E5.70084
G1 X126.918 Y98.504 E5.71756
G1 X127.218 Y98.142 E5.73562
G1 X127.446 Y97.728 E5.75378
G1 X127.619 Y97.292 E5.7718
G1 X127.708 Y96.826 E5.79002
G1 X127.731 Y96.45 E5.80449
G1 X127.708 Y96.074 E5.81897
G1 X127.618 Y95.607 E5.83724
G1 X127.446 Y95.173 E5.85517
G1 X127.264 Y94.843 E5.86965
G1 X127.043 Y94.538 E5.88412
G1 X126.785 Y94.263 E5.8986
G1 X126.495 Y94.023 E5.91306
G1 X126.177 Y93.821 E5.92754
G1 X125.836 Y93.661 E5.94201
G1 X125.388 Y93.515 E5.96011
G1 X124.92 Y93.456 E5.97823
G1 X124.543 Y93.456 E5.99271
G1 X124.074 Y93.515 E6.01087
G1 X123.627 Y93.661 E6.02893
G1 X123.286 Y93.821 E6.0434
G1 X122.968 Y94.023 E6.05788
G1 X122.528 Y94.388 E6.07984
G1 X122.426 Y94.307 E6.08484
G1 X122.619 Y93.994 E6.09897
G1 X122.788 Y93.565 E6.11668
G1 X122.882 Y93.2 E6.13116
G1 X122.929 Y92.826 E6.14564
G1 X122.929 Y92.45 E6.16008
G1 X122.882 Y92.076 E6.17456
G1 X122.788 Y91.711 E6.18904
G1 X122.65 Y91.361 E6.2035
G1 X122.468 Y91.031 E6.21797
G1 X122.247 Y90.726 E6.23244
G1 X121.989 Y90.451 E6.24693
G1 X121.699 Y90.211 E6.26139
G1 X121.38 Y90.009 E6.27589
G1 X121.04 Y89.849 E6.29033
G1 X120.592 Y89.703 E6.30843
G1 X120.124 Y89.644 E6.32655
G1 X119.747 Y89.644 E6.34103
G1 X119.278 Y89.703 E6.35919
G1 X118.831 Y89.849 E6.37726
