;FLAVOR:Marlin
;TIME:1930.08
;Filament used:2.533m
;Material Diameter:1.75
;Material Density:1.24
;Filament Cost:0.151096
;Filament Weight:7.554813
;Filament Length:2.533005
;Layer height:0.2
;MINX:2.457
;MINY:2.049
;MINZ:0.2
;MAXX:153.991
;MAXY:132.908
;MAXZ:20.401
;OuterWall Time:233.522
;InnerWall Time:177.751
;Skin Time:1152.28
;Support Time:0
;SkirtBrim Time:14.5313
;Infill Time:98.1967
;Support Infills Time:0
;Combing Time:71.758
;Retraction Time:182.043
;PrimeTower Time:0
;;;;;;;;;;;;;;;;;;;;;;;;;;;;;;;;;;;;;;;;;;;;;;;;;;;;;;;;;;;;;;;;;;;;;;;;;;
;Creality Print GCode Generated by CXEngine
;CRSLICE_GIT_HASH:58ee74d
;Creality Print Version : V4.3.8.6984
;CXEngine Release Time:2023-12-04 18:16:29
;Gcode Generated Time:2024-09-03 19:55:26
;----------Machine Config--------------
;Machine Name:Ender-3 V3 SE
;Machine Height:250
;Machine Width:220
;Machine Depth:220
;Material Type:PLA
;Material Name:CR-PLA_1.75
;Number of Extruders:1
;ExtruderParams[0] Nozzle Diameter:1000
;----------Profile Config---------------
;Wall Thickness:0.8
;Top/Bottom Thickness:0.8
;Out Wall Line Width:0.42
;Inner Wall Line Width:0.45
;Inital Height:200
;Wall Line Count:2
;Infill Line Distance:8
;Infill Pattern:grid
;Infill Sparse Density:10
;Infill Wipe Distance:0
;Print Temperature:195
;Bed Temperature:60
;Support Enable:false
;Support Density:15
;Support Angle:60
;Adhesion Type:lace
;machine is belt:false
;machine belt offset:10
;machine belt offset Y:0
;Raft Base Line Spacing:1.6
;Wait Heatup Sync:true
;Enable Ironing:false
;Material Type:PLA
;Max volumetric speed:20
;Preview Img Type:png
;Screen Size:Sermoon D3
;----------Shell Config----------------
;Outer Wall Wipe Distance:2000
;Outer Inset First:false
;Infill Before Walls:false
;Infill Overlap:0.09
;Fill Gaps Between Walls:everywhere
;Minimum Infill Area:30
;Top Surface Skin Layer:0
;Top Layers:4
;Z Seam Alignment:sharpest_corner
;Seam Corner Preference:z_seam_corner_inner
;Z Seam X:110
;Z Seam Y:220
;Horizontal Expansion:0
;Top/Bottom Pattern:zigzag
;Ironing Pattern:zigzag
;Vase Model:false
;----------Support Config----------------
;Support Type:everywhere
;Support Pattern:zigzag
;Support Infill Layer Thickness:0.2
;Minimum Support Area:1
;Enable Support Roof:true
;Support Roof Thickness:0.8
;Support Roof Pattern:lines
;Connect Support Lines:0
;Connect Support ZigZags:1
;Minimum Support X/Y Distance:0.2
;Support Line Distance:2.67
; ---------PrintSpeed & Travel----------
;Enable Print Cool:true
;Avoid Printed Parts Traveling:true
;Enable Retraction:true
;Retraction Distance:1.2
;Retraction Speed:30
;Retraction Prime Speed:30
;Maximum Retraction Count:100
;Minimum Extrusion Distance Window:0.8
;Z Hop When Retracted:true
;Z Hop Height:0.4
;Retract Before Outer Wall:true

;Outer Wall Speed:60
;Inner Wall Speed:90
;Infill Speed:180
;Top/Bottom Speed:50
;Travel Speed:150
;Initial Layer Speed:20
;Skirt/Brim Speed:25
;Prime Tower Speed:60
;Outer Wall Acceleration:1000
;Inner Wall Acceleration:2000
;Infill Acceleration:2500
;Top/Bottom Acceleration:2500
;Travel Acceleration:2500
;Initial Layer Print Acceleration:500
;Initial Layer Travel Acceleration:500
;Skirt/Brim Acceleration:500
;Combing Mode:off
; --------SpecialModel&Mesh Fixes--------
;Union Overlapping Volum:true
;Remove All Holes:false
;Maximum Travel Resolution:0.25
;Maximum Deviation:0.05
;Maximum Model Angle:0.872665
;IS Mold Print:false
;Make Overhang Printable:false
;Enable Coasting:false
;Coasting Volumes:0.064
;Coasting Speed:0.9
;Raft AirGap:0.25
;Layer0 ZOverLap:0.13
;Adaptive Layers:0
;---------------------End of Head--------------------------
M140 S60
M105
M190 S60
M104 S195
M82 ;absolute extrusion mode
M220 S100 ;Reset Feedrate
M221 S100 ;Reset Flowrate

G28 ;Home

G92 E0 ;Reset Extruder
G1 Z2.0 F3000 ;Move Z Axis up
G1 X-2.1 Y20 Z0.28 F5000.0 ;Move to start position
M109 S195.000000
G1 X-2.1 Y145.0 Z0.28 F1500.0 E15 ;Draw the first line
G1 X-2.4 Y145.0 Z0.28 F5000.0 ;Move to side a little
G1 X-2.4 Y20 Z0.28 F1500.0 E30 ;Draw the second line
G92 E0  ;Reset Extruder
G1 E-1.0000 F1800 ;Retract a bit
G1 Z2.0 F3000 ;Move Z Axis up
G1 E0.0000 F1800 

G92 E0
G92 E0
G1 F1800 E-1.2
;LAYER_COUNT:38

;LAYER:0
M106 S0
M204 S500
;;retract;;
G1 F1800 E0
G1 F1800 E-1.2
G0 F4800 X2.457 Y2.049 Z20.401
G0 X110.08 Y91.83 Z0.6
;TYPE:SKIRT
G1 F600 Z0.2
G1 F1800 E0
G1 F1500 X110.079 Y91.858 E0.00108
G1 X110.08 Y91.858 E0.00111
G1 X110.08 Y91.83 E0.00219
;;retract move;;
G1 F3840 X110.079 Y91.858 E-0.06906
G1 X110.08 Y91.858 E-0.14031
G1 X110.08 Y91.83 E-0.21156
G1 X110.079 Y91.858 E-0.28281
G1 X110.08 Y91.858 E-0.35406
G1 X110.08 Y91.83 E-0.42531
G1 X110.079 Y91.858 E-0.49656
G1 X110.08 Y91.858 E-0.56781
G1 X110.08 Y91.83 E-0.63906
G1 X110.079 Y91.858 E-0.71031
G1 X110.08 Y91.858 E-0.78156
G1 X110.08 Y91.83 E-0.85281
G1 X110.079 Y91.858 E-0.92406
G1 X110.08 Y91.858 E-0.99531
G1 X110.08 Y91.83 E-1.06656
G1 X110.079 Y91.858 E-1.13781
G1 F1800 E-1.19781
G0 F4800 X106.88 Y91.804 Z0.6
G0 X75.713 Y91.268
G1 F600 Z0.2
G1 F1800 E0.00219
G1 F1500 X75.455 Y91.542 E0.01665
G1 X75.234 Y91.847 E0.03112
G1 X75.006 Y92.261 E0.04927
G1 X74.861 Y92.709 E0.06736
G1 X74.79 Y93.079 E0.08184
G1 X74.767 Y93.455 E0.09631
G1 X74.79 Y93.831 E0.11078
G1 X74.861 Y94.201 E0.12525
G1 X75.006 Y94.649 E0.14334
G1 X75.234 Y95.062 E0.16146
G1 X75.421 Y95.323 E0.1738
G1 X75.394 Y95.347 E0.17519
G1 X75.088 Y95.098 E0.19034
G1 X74.678 Y94.872 E0.20832
G1 X74.328 Y94.734 E0.22278
G1 X73.963 Y94.64 E0.23726
G1 X73.589 Y94.593 E0.25174
G1 X73.212 Y94.593 E0.26622
G1 X72.839 Y94.64 E0.28066
G1 X72.474 Y94.734 E0.29514
G1 X72.123 Y94.872 E0.30963
G1 X71.793 Y95.054 E0.32411
G1 X71.488 Y95.275 E0.33858
G1 X71.145 Y95.598 E0.35668
G1 X70.868 Y95.979 E0.37477
G1 X70.64 Y96.394 E0.39296
G1 X70.495 Y96.841 E0.41101
G1 X70.424 Y97.211 E0.42549
G1 X70.401 Y97.587 E0.43996
G1 X70.424 Y97.963 E0.45443
G1 X70.495 Y98.333 E0.4689
G1 X70.64 Y98.781 E0.48699
G1 X70.868 Y99.194 E0.50511
G1 X71.089 Y99.499 E0.51958
G1 X71.347 Y99.774 E0.53407
G1 X71.664 Y100.032 E0.54977
G1 X71.526 Y100.272 E0.56041
G1 X71.196 Y100.142 E0.57403
G1 X70.831 Y100.048 E0.58851
G1 X70.458 Y100.001 E0.60295
G1 X70.081 Y100.001 E0.61743
G1 X69.707 Y100.048 E0.63192
G1 X69.252 Y100.165 E0.64996
G1 X68.824 Y100.366 E0.66813
G1 X68.506 Y100.568 E0.6826
G1 X68.143 Y100.869 E0.70072
G1 X67.842 Y101.232 E0.71883
G1 X67.64 Y101.55 E0.7333
G1 X67.48 Y101.891 E0.74777
G1 X67.334 Y102.338 E0.76584
G1 X67.275 Y102.807 E0.784
G1 X67.275 Y103.184 E0.79848
G1 X67.334 Y103.652 E0.8166
G1 X67.48 Y104.1 E0.8347
G1 X67.64 Y104.441 E0.84917
G1 X67.842 Y104.759 E0.86364
G1 X68.082 Y105.049 E0.8781
G1 X68.357 Y105.307 E0.89259
G1 X68.662 Y105.528 E0.90706
G1 X69.07 Y105.753 E0.92496
G1 X69.426 Y105.873 E0.93939
G1 X69.383 Y106.089 E0.94785
G1 X69.025 Y106.068 E0.96163
G1 X68.649 Y106.091 E0.9761
G1 X68.182 Y106.181 E0.99437
G1 X67.748 Y106.353 E1.0123
G1 X67.418 Y106.535 E1.02678
G1 X67.037 Y106.811 E1.04485
G1 X66.713 Y107.155 E1.06301
G1 X66.435 Y107.538 E1.08119
G1 X66.236 Y107.963 E1.09921
G1 X66.09 Y108.412 E1.11735
G1 X66.031 Y108.879 E1.13543
G1 X66.031 Y109.256 E1.14992
G1 X66.09 Y109.725 E1.16808
G1 X66.236 Y110.172 E1.18614
G1 X66.435 Y110.597 E1.20417
G1 X66.713 Y110.98 E1.22235
G1 X66.971 Y111.255 E1.23683
G1 X67.262 Y111.495 E1.25132
G1 X67.58 Y111.697 E1.2658
G1 X67.921 Y111.857 E1.28027
G1 X68.279 Y111.973 E1.29472
G1 X68.737 Y112.061 E1.31264
G1 X69.107 Y112.065 E1.32685
G1 X69.121 Y112.178 E1.33123
G1 X68.492 Y112.382 E1.35663
G1 X68.077 Y112.61 E1.37482
G1 X67.696 Y112.887 E1.39292
G1 X67.373 Y113.23 E1.41101
G1 X67.152 Y113.535 E1.42548
G1 X66.97 Y113.865 E1.43996
G1 X66.832 Y114.216 E1.45445
G1 X66.738 Y114.581 E1.46893
G1 X66.691 Y114.954 E1.48337
G1 X66.691 Y115.331 E1.49785
G1 X66.738 Y115.705 E1.51233
G1 X66.832 Y116.07 E1.52681
G1 X66.97 Y116.42 E1.54127
G1 X67.152 Y116.75 E1.55574
G1 X67.373 Y117.055 E1.57021
G1 X67.631 Y117.33 E1.5847
G1 X67.922 Y117.57 E1.59919
G1 X68.24 Y117.772 E1.61366
G1 X68.668 Y117.973 E1.63183
G1 X69.123 Y118.09 E1.64987
G1 X69.497 Y118.137 E1.66435
G1 X69.873 Y118.137 E1.6788
G1 X70.247 Y118.09 E1.69328
G1 X70.619 Y117.989 E1.70809
G1 X70.179 Y118.308 E1.72896
G1 X69.904 Y118.566 E1.74345
G1 X69.664 Y118.856 E1.75791
G1 X69.462 Y119.174 E1.77238
G1 X69.302 Y119.515 E1.78685
G1 X69.186 Y119.874 E1.80135
G1 X69.115 Y120.244 E1.81582
G1 X69.091 Y120.62 E1.83029
G1 X69.115 Y120.996 E1.84477
G1 X69.186 Y121.366 E1.85924
G1 X69.302 Y121.724 E1.8737
G1 X69.462 Y122.065 E1.88817
G1 X69.664 Y122.383 E1.90264
G1 X69.965 Y122.746 E1.92075
G1 X70.328 Y123.047 E1.93887
G1 X70.646 Y123.249 E1.95334
G1 X71.074 Y123.45 E1.97151
G1 X71.529 Y123.567 E1.98955
G1 X71.903 Y123.614 E2.00403
G1 X72.28 Y123.614 E2.01852
G1 X72.654 Y123.567 E2.033
G1 X73.111 Y123.449 E2.05113
G1 X73.537 Y123.249 E2.06921
G1 X73.858 Y123.045 E2.08382
G1 X74.068 Y123.301 E2.09654
G1 X73.655 Y123.867 E2.12345
G1 X73.454 Y124.296 E2.14165
G1 X73.308 Y124.743 E2.15972
G1 X73.249 Y125.212 E2.17788
G1 X73.249 Y125.588 E2.19232
G1 X73.308 Y126.057 E2.21048
G1 X73.454 Y126.504 E2.22854
G1 X73.614 Y126.845 E2.24301
G1 X73.816 Y127.163 E2.25749
G1 X74.116 Y127.527 E2.27561
G1 X74.48 Y127.827 E2.29373
G1 X74.798 Y128.029 E2.3082
G1 X75.139 Y128.189 E2.32267
G1 X75.586 Y128.335 E2.34073
G1 X76.055 Y128.394 E2.35889
G1 X76.431 Y128.394 E2.37334
G1 X76.9 Y128.335 E2.3915
G1 X77.347 Y128.189 E2.40956
G1 X77.688 Y128.029 E2.42403
G1 X78.006 Y127.827 E2.4385
G1 X78.297 Y127.587 E2.45299
G1 X78.712 Y127.145 E2.47628
G1 X78.758 Y127.172 E2.47833
G1 X78.564 Y127.769 E2.50245
G1 X78.493 Y128.139 E2.51692
G1 X78.47 Y128.515 E2.53139
G1 X78.493 Y128.891 E2.54586
G1 X78.564 Y129.261 E2.56034
G1 X78.709 Y129.709 E2.57843
G1 X78.937 Y130.123 E2.59658
G1 X79.211 Y130.501 E2.61452
G1 X79.557 Y130.827 E2.63278
G1 X79.862 Y131.048 E2.64725
G1 X80.276 Y131.276 E2.6654
G1 X80.724 Y131.421 E2.68349
G1 X81.094 Y131.492 E2.69797
G1 X81.47 Y131.515 E2.71244
G1 X81.846 Y131.492 E2.72691
G1 X82.216 Y131.421 E2.74138
G1 X82.664 Y131.276 E2.75947
G1 X83.077 Y131.048 E2.77759
G1 X83.382 Y130.827 E2.79206
G1 X83.657 Y130.569 E2.80655
G1 X83.897 Y130.279 E2.82101
G1 X84.099 Y129.961 E2.83548
G1 X84.351 Y129.424 E2.85827
G1 X84.316 Y129.725 E2.86991
G1 X84.316 Y130.102 E2.88439
G1 X84.363 Y130.476 E2.89887
G1 X84.457 Y130.841 E2.91335
G1 X84.595 Y131.191 E2.92781
G1 X84.777 Y131.521 E2.94228
G1 X84.998 Y131.826 E2.95675
G1 X85.256 Y132.101 E2.97124
G1 X85.547 Y132.341 E2.98573
G1 X85.865 Y132.543 E3.0002
G1 X86.206 Y132.703 E3.01467
G1 X86.653 Y132.849 E3.03274
G1 X87.122 Y132.908 E3.05089
G1 X87.498 Y132.908 E3.06534
G1 X87.967 Y132.849 E3.0835
G1 X88.414 Y132.703 E3.10156
G1 X88.755 Y132.543 E3.11603
G1 X89.073 Y132.341 E3.1305
G1 X89.434 Y132.044 E3.14846
G1 X89.737 Y131.677 E3.16674
G1 X89.939 Y131.359 E3.18122
G1 X90.099 Y131.018 E3.19569
G1 X90.216 Y130.66 E3.21016
G1 X90.286 Y130.29 E3.22462
G1 X90.309 Y129.942 E3.23802
G1 X90.397 Y130.392 E3.25563
G1 X90.57 Y130.83 E3.27372
G1 X90.752 Y131.16 E3.2882
G1 X90.973 Y131.465 E3.30267
G1 X91.231 Y131.74 E3.31716
G1 X91.522 Y131.98 E3.33165
G1 X91.84 Y132.182 E3.34612
G1 X92.181 Y132.342 E3.36059
G1 X92.539 Y132.458 E3.37505
G1 X92.909 Y132.529 E3.38952
G1 X93.285 Y132.553 E3.40399
G1 X93.661 Y132.529 E3.41847
G1 X94.031 Y132.458 E3.43294
G1 X94.389 Y132.342 E3.4474
G1 X94.73 Y132.182 E3.46187
G1 X95.048 Y131.98 E3.47634
G1 X95.339 Y131.74 E3.49083
G1 X95.597 Y131.465 E3.50531
G1 X95.875 Y131.082 E3.52349
G1 X96.074 Y130.657 E3.54152
G1 X96.22 Y130.21 E3.55959
G1 X96.279 Y129.741 E3.57775
G1 X96.279 Y129.251 E3.59657
G1 X96.403 Y129.738 E3.61587
G1 X96.604 Y130.167 E3.63407
G1 X96.806 Y130.485 E3.64855
G1 X97.047 Y130.776 E3.66306
G1 X97.321 Y131.034 E3.67752
G1 X97.626 Y131.255 E3.69199
G1 X97.956 Y131.437 E3.70647
G1 X98.306 Y131.575 E3.72092
G1 X98.671 Y131.669 E3.7354
G1 X99.045 Y131.716 E3.74988
G1 X99.422 Y131.716 E3.76436
G1 X99.796 Y131.669 E3.77884
G1 X100.16 Y131.575 E3.79328
G1 X100.511 Y131.437 E3.80777
G1 X100.841 Y131.255 E3.82225
G1 X101.146 Y131.034 E3.83672
G1 X101.489 Y130.711 E3.85482
G1 X101.766 Y130.33 E3.87291
G1 X101.948 Y129.999 E3.88742
G1 X102.12 Y129.565 E3.90536
G1 X102.228 Y129.005 E3.92727
G1 X102.228 Y128.576 E3.94375
G1 X102.329 Y129.1 E3.96425
G1 X102.501 Y129.534 E3.98218
G1 X102.682 Y129.864 E3.99664
G1 X102.904 Y130.169 E4.01113
G1 X103.162 Y130.444 E4.02562
G1 X103.452 Y130.684 E4.04008
G1 X103.77 Y130.886 E4.05455
G1 X104.198 Y131.087 E4.07272
G1 X104.653 Y131.204 E4.09076
G1 X105.027 Y131.251 E4.10524
G1 X105.404 Y131.251 E4.11973
G1 X105.778 Y131.204 E4.13421
G1 X106.235 Y131.086 E4.15234
G1 X106.661 Y130.886 E4.17042
G1 X106.979 Y130.684 E4.18489
G1 X107.269 Y130.444 E4.19935
G1 X107.527 Y130.169 E4.21384
G1 X107.748 Y129.864 E4.2283
G1 X107.93 Y129.534 E4.24278
G1 X108.102 Y129.1 E4.26072
G1 X108.192 Y128.633 E4.27899
G1 X108.214 Y128.298 E4.29188
G1 X108.266 Y128.712 E4.30791
G1 X108.36 Y129.077 E4.32239
G1 X108.498 Y129.427 E4.33684
G1 X108.68 Y129.757 E4.35132
G1 X108.957 Y130.139 E4.36945
G1 X109.301 Y130.462 E4.38758
G1 X109.681 Y130.738 E4.40562
G1 X110.109 Y130.939 E4.42378
G1 X110.556 Y131.085 E4.44185
G1 X111.025 Y131.144 E4.46
G1 X111.401 Y131.144 E4.47445
G1 X111.87 Y131.085 E4.49261
G1 X112.317 Y130.939 E4.51067
G1 X112.742 Y130.74 E4.5287
G1 X113.125 Y130.462 E4.54688
G1 X113.4 Y130.204 E4.56137
G1 X113.64 Y129.913 E4.57586
G1 X113.842 Y129.595 E4.59033
G1 X114.002 Y129.254 E4.6048
G1 X114.119 Y128.896 E4.61927
G1 X114.189 Y128.526 E4.63373
G1 X114.21 Y128.232 E4.64506
G1 X114.215 Y128.591 E4.65885
G1 X114.262 Y128.965 E4.67333
G1 X114.355 Y129.33 E4.6878
G1 X114.494 Y129.68 E4.70227
G1 X114.676 Y130.01 E4.71674
G1 X114.95 Y130.388 E4.73468
G1 X115.366 Y130.78 E4.75664
G1 X115.845 Y131.083 E4.77841
G1 X116.367 Y131.29 E4.79998
G1 X116.927 Y131.397 E4.82188
G1 X117.492 Y131.397 E4.84359
G1 X118.052 Y131.289 E4.8655
G1 X118.572 Y131.083 E4.88698
G1 X119.05 Y130.781 E4.9087
G1 X119.396 Y130.456 E4.92694
G1 X119.636 Y130.166 E4.9414
G1 X119.838 Y129.848 E4.95587
G1 X120.039 Y129.42 E4.97404
G1 X120.156 Y128.965 E4.99209
G1 X120.196 Y128.663 E5.00379
G1 X120.206 Y128.664 E5.00417
G1 X120.179 Y129.109 E5.0213
G1 X120.25 Y129.67 E5.04302
G1 X120.396 Y130.118 E5.06112
G1 X120.556 Y130.459 E5.07559
G1 X120.758 Y130.777 E5.09007
G1 X120.998 Y131.067 E5.10453
G1 X121.273 Y131.325 E5.11901
G1 X121.578 Y131.546 E5.13348
G1 X121.908 Y131.728 E5.14796
G1 X122.342 Y131.9 E5.16589
G1 X122.809 Y131.99 E5.18416
G1 X123.185 Y132.013 E5.19863
G1 X123.561 Y131.99 E5.21311
G1 X124.027 Y131.901 E5.23133
G1 X124.463 Y131.728 E5.24935
G1 X124.877 Y131.5 E5.26751
G1 X125.239 Y131.2 E5.28557
G1 X125.497 Y130.926 E5.30003
G1 X125.718 Y130.621 E5.3145
G1 X125.946 Y130.207 E5.33265
G1 X126.091 Y129.759 E5.35074
G1 X126.152 Y129.449 E5.36288
G1 X126.167 Y129.452 E5.36347
G1 X126.133 Y129.889 E5.3803
G1 X126.157 Y130.265 E5.39478
G1 X126.228 Y130.635 E5.40925
G1 X126.344 Y130.993 E5.42371
G1 X126.504 Y131.334 E5.43818
G1 X126.706 Y131.652 E5.45265
G1 X127.007 Y132.015 E5.47076
G1 X127.37 Y132.316 E5.48888
G1 X127.688 Y132.518 E5.50335
G1 X128.029 Y132.678 E5.51782
G1 X128.476 Y132.824 E5.53589
G1 X128.945 Y132.883 E5.55405
G1 X129.322 Y132.883 E5.56853
G1 X129.789 Y132.824 E5.58661
G1 X130.238 Y132.678 E5.60475
G1 X130.579 Y132.518 E5.61922
G1 X130.897 Y132.316 E5.63369
G1 X131.187 Y132.076 E5.64815
G1 X131.445 Y131.801 E5.66264
G1 X131.666 Y131.496 E5.67711
G1 X131.848 Y131.166 E5.69158
G1 X132.02 Y130.732 E5.70952
G1 X132.11 Y130.265 E5.72779
G1 X132.131 Y129.957 E5.73965
G1 X132.204 Y130.33 E5.75425
G1 X132.321 Y130.689 E5.76875
G1 X132.52 Y131.114 E5.78678
G1 X132.798 Y131.497 E5.80496
G1 X133.122 Y131.841 E5.82311
G1 X133.503 Y132.117 E5.84119
G1 X133.916 Y132.345 E5.85931
G1 X134.364 Y132.49 E5.8774
G1 X134.734 Y132.561 E5.89187
G1 X135.11 Y132.584 E5.90634
G1 X135.486 Y132.561 E5.92081
G1 X135.856 Y132.49 E5.93529
G1 X136.303 Y132.345 E5.95334
G1 X136.718 Y132.117 E5.97153
G1 X137.099 Y131.84 E5.98963
G1 X137.422 Y131.497 E6.00773
G1 X137.643 Y131.192 E6.02219
