;FLAVOR:Marlin
;TIME:288.542
;Filament used:0.319585m
;Material Diameter:1.75
;Material Density:1.24
;Filament Cost:0.019064
;Filament Weight:0.953178
;Filament Length:0.319585
;Layer height:0.2
;MINX:2.062
;MINY:2.446
;MINZ:0.2
;MAXX:98.926
;MAXY:93.755
;MAXZ:20.401
;OuterWall Time:40.9029
;InnerWall Time:31.0668
;Skin Time:159.995
;Support Time:0
;SkirtBrim Time:5.64819
;Infill Time:8.66208
;Support Infills Time:0
;Combing Time:12.7246
;Retraction Time:29.5431
;PrimeTower Time:0
;;;;;;;;;;;;;;;;;;;;;;;;;;;;;;;;;;;;;;;;;;;;;;;;;;;;;;;;;;;;;;;;;;;;;;;;
;Creality Print GCode Generated by CXEngine
;CRSLICE_GIT_HASH:58ee74d
;Creality Print Version : V4.3.8.6984
;CXEngine Release Time:2023-12-04 18:16:29
;Gcode Generated Time:2024-09-03 18:29:38
;----------Machine Config--------------
;Machine Name:Ender-3 V3 SE
;Machine Height:250
;Machine Width:220
;Machine Depth:220
;Material Type:PLA
;Material Name:CR-PLA_1.75
;Number of Extruders:1
;ExtruderParams[0] Nozzle Diameter:1000
;----------Profile Config---------------
;Wall Thickness:0.8
;Top/Bottom Thickness:0.8
;Out Wall Line Width:0.42
;Inner Wall Line Width:0.45
;Inital Height:200
;Wall Line Count:2
;Infill Line Distance:8
;Infill Pattern:grid
;Infill Sparse Density:10
;Infill Wipe Distance:0
;Print Temperature:195
;Bed Temperature:60
;Support Enable:false
;Support Density:15
;Support Angle:60
;Adhesion Type:lace
;machine is belt:false
;machine belt offset:10
;machine belt offset Y:0
;Raft Base Line Spacing:1.6
;Wait Heatup Sync:true
;Enable Ironing:false
;Material Type:PLA
;Max volumetric speed:20
;Preview Img Type:png
;Screen Size:Sermoon D3
;----------Shell Config----------------
;Outer Wall Wipe Distance:2000
;Outer Inset First:false
;Infill Before Walls:false
;Infill Overlap:0.09
;Fill Gaps Between Walls:everywhere
;Minimum Infill Area:30
;Top Surface Skin Layer:0
;Top Layers:4
;Z Seam Alignment:sharpest_corner
;Seam Corner Preference:z_seam_corner_inner
;Z Seam X:110
;Z Seam Y:220
;Horizontal Expansion:0
;Top/Bottom Pattern:zigzag
;Ironing Pattern:zigzag
;Vase Model:false
;----------Support Config----------------
;Support Type:everywhere
;Support Pattern:zigzag
;Support Infill Layer Thickness:0.2
;Minimum Support Area:1
;Enable Support Roof:true
;Support Roof Thickness:0.8
;Support Roof Pattern:lines
;Connect Support Lines:0
;Connect Support ZigZags:1
;Minimum Support X/Y Distance:0.2
;Support Line Distance:2.67
; ---------PrintSpeed & Travel----------
;Enable Print Cool:true
;Avoid Printed Parts Traveling:true
;Enable Retraction:true
;Retraction Distance:1.2
;Retraction Speed:30
;Retraction Prime Speed:30
;Maximum Retraction Count:100
;Minimum Extrusion Distance Window:0.8
;Z Hop When Retracted:true
;Z Hop Height:0.4
;Retract Before Outer Wall:true

;Outer Wall Speed:60
;Inner Wall Speed:90
;Infill Speed:180
;Top/Bottom Speed:50
;Travel Speed:150
;Initial Layer Speed:20
;Skirt/Brim Speed:25
;Prime Tower Speed:60
;Outer Wall Acceleration:1000
;Inner Wall Acceleration:2000
;Infill Acceleration:2500
;Top/Bottom Acceleration:2500
;Travel Acceleration:2500
;Initial Layer Print Acceleration:500
;Initial Layer Travel Acceleration:500
;Skirt/Brim Acceleration:500
;Combing Mode:off
; --------SpecialModel&Mesh Fixes--------
;Union Overlapping Volum:true
;Remove All Holes:false
;Maximum Travel Resolution:0.25
;Maximum Deviation:0.05
;Maximum Model Angle:0.872665
;IS Mold Print:false
;Make Overhang Printable:false
;Enable Coasting:false
;Coasting Volumes:0.064
;Coasting Speed:0.9
;Raft AirGap:0.25
;Layer0 ZOverLap:0.13
;Adaptive Layers:0
;---------------------End of Head--------------------------
M140 S60
M105
M190 S60
M104 S195
M82 ;absolute extrusion mode
M220 S100 ;Reset Feedrate
M221 S100 ;Reset Flowrate

G28 ;Home

G92 E0 ;Reset Extruder
G1 Z2.0 F3000 ;Move Z Axis up
G1 X-2.1 Y20 Z0.28 F5000.0 ;Move to start position
M109 S195.000000
G1 X-2.1 Y145.0 Z0.28 F1500.0 E15 ;Draw the first line
G1 X-2.4 Y145.0 Z0.28 F5000.0 ;Move to side a little
G1 X-2.4 Y20 Z0.28 F1500.0 E30 ;Draw the second line
G92 E0  ;Reset Extruder
G1 E-1.0000 F1800 ;Retract a bit
G1 Z2.0 F3000 ;Move Z Axis up
G1 E0.0000 F1800 

G92 E0
G92 E0
G1 F1800 E-1.2
;LAYER_COUNT:15

;LAYER:0
M106 S0
M204 S500
;;retract;;
G1 F1800 E0
G1 F1800 E-1.2
G0 F4800 X2.062 Y2.446 Z20.401
G0 X65.165 Y77.327 Z0.6
;TYPE:SKIRT
G1 F600 Z0.2
G1 F1800 E0
G1 F1500 X64.89 Y77.585 E0.01449
G1 X64.65 Y77.876 E0.02898
G1 X64.448 Y78.194 E0.04345
G1 X64.288 Y78.535 E0.05792
G1 X64.142 Y78.982 E0.07598
G1 X64.083 Y79.451 E0.09414
G1 X64.083 Y79.827 E0.10859
G1 X64.142 Y80.296 E0.12674
G1 X64.288 Y80.743 E0.14481
G1 X64.448 Y81.084 E0.15928
G1 X64.65 Y81.402 E0.17375
G1 X64.89 Y81.693 E0.18824
G1 X65.165 Y81.951 E0.20273
G1 X65.546 Y82.227 E0.2208
G1 X65.926 Y82.408 E0.23697
G1 X65.926 Y82.776 E0.25111
G1 X65.363 Y82.847 E0.27291
G1 X64.908 Y82.964 E0.29095
G1 X64.48 Y83.165 E0.30912
G1 X64.162 Y83.367 E0.32359
G1 X63.872 Y83.607 E0.33805
G1 X63.547 Y83.953 E0.35629
G1 X63.245 Y84.431 E0.37801
G1 X63.039 Y84.951 E0.39949
G1 X62.931 Y85.511 E0.4214
G1 X62.931 Y86.076 E0.44311
G1 X63.02 Y86.54 E0.46126
G1 X63.136 Y86.899 E0.47575
G1 X63.297 Y87.24 E0.49024
G1 X63.498 Y87.558 E0.50469
G1 X63.739 Y87.848 E0.51917
G1 X64.013 Y88.106 E0.53363
G1 X64.318 Y88.327 E0.5481
G1 X64.648 Y88.509 E0.56258
G1 X65.082 Y88.682 E0.58053
G1 X65.55 Y88.771 E0.59883
G1 X65.926 Y88.794 E0.6133
G1 X65.926 Y88.942 E0.61898
G1 X65.717 Y89.237 E0.63287
G1 X65.48 Y89.744 E0.65437
G1 X65.363 Y90.198 E0.67238
G1 X65.316 Y90.572 E0.68686
G1 X65.316 Y90.949 E0.70135
G1 X65.363 Y91.323 E0.71583
G1 X65.48 Y91.778 E0.73387
G1 X65.681 Y92.206 E0.75204
G1 X65.883 Y92.524 E0.76651
G1 X66.123 Y92.814 E0.78097
G1 X66.469 Y93.139 E0.79921
G1 X66.947 Y93.441 E0.82093
G1 X67.467 Y93.647 E0.84241
G1 X68.027 Y93.755 E0.86432
G1 X68.592 Y93.755 E0.88603
G1 X69.056 Y93.666 E0.90418
G1 X69.415 Y93.55 E0.91867
G1 X69.756 Y93.389 E0.93316
G1 X70.074 Y93.188 E0.94761
G1 X70.364 Y92.947 E0.96209
G1 X70.622 Y92.673 E0.97655
G1 X70.843 Y92.368 E0.99102
G1 X71.025 Y92.038 E1.0055
G1 X71.197 Y91.604 E1.02343
G1 X71.287 Y91.137 E1.0417
G1 X71.304 Y90.855 E1.05256
G1 X71.363 Y91.323 E1.07068
G1 X71.48 Y91.778 E1.08872
G1 X71.681 Y92.206 E1.10689
G1 X71.883 Y92.524 E1.12136
G1 X72.123 Y92.814 E1.13582
G1 X72.469 Y93.139 E1.15406
G1 X72.947 Y93.441 E1.17578
G1 X73.467 Y93.647 E1.19726
G1 X74.027 Y93.755 E1.21917
G1 X74.592 Y93.755 E1.24088
G1 X75.056 Y93.666 E1.25903
G1 X75.415 Y93.55 E1.27352
G1 X75.756 Y93.389 E1.28801
G1 X76.074 Y93.188 E1.30246
G1 X76.364 Y92.947 E1.31694
G1 X76.622 Y92.673 E1.3314
G1 X76.843 Y92.368 E1.34587
G1 X77.025 Y92.038 E1.36035
G1 X77.197 Y91.604 E1.37828
G1 X77.287 Y91.137 E1.39655
G1 X77.304 Y90.855 E1.40741
G1 X77.363 Y91.323 E1.42553
G1 X77.48 Y91.778 E1.44357
G1 X77.681 Y92.206 E1.46174
G1 X77.883 Y92.524 E1.47621
G1 X78.123 Y92.814 E1.49067
G1 X78.469 Y93.139 E1.50891
G1 X78.947 Y93.441 E1.53063
G1 X79.467 Y93.647 E1.55211
G1 X80.027 Y93.755 E1.57402
G1 X80.592 Y93.755 E1.59573
G1 X81.056 Y93.666 E1.61388
G1 X81.415 Y93.55 E1.62837
G1 X81.756 Y93.389 E1.64286
G1 X82.074 Y93.188 E1.65731
G1 X82.364 Y92.947 E1.67179
G1 X82.622 Y92.673 E1.68625
G1 X82.843 Y92.368 E1.70072
G1 X83.025 Y92.038 E1.7152
G1 X83.197 Y91.604 E1.73313
G1 X83.287 Y91.137 E1.7514
G1 X83.304 Y90.855 E1.76226
G1 X83.363 Y91.323 E1.78038
G1 X83.48 Y91.778 E1.79842
G1 X83.681 Y92.206 E1.81659
G1 X83.883 Y92.524 E1.83106
G1 X84.123 Y92.814 E1.84552
G1 X84.469 Y93.139 E1.86376
G1 X84.947 Y93.441 E1.88548
G1 X85.467 Y93.647 E1.90696
G1 X86.027 Y93.755 E1.92887
G1 X86.592 Y93.755 E1.95058
G1 X87.056 Y93.666 E1.96873
G1 X87.415 Y93.55 E1.98322
G1 X87.756 Y93.389 E1.99771
G1 X88.074 Y93.188 E2.01216
G1 X88.364 Y92.947 E2.02664
G1 X88.622 Y92.673 E2.0411
G1 X88.843 Y92.368 E2.05557
G1 X89.025 Y92.038 E2.07005
G1 X89.197 Y91.604 E2.08798
G1 X89.287 Y91.137 E2.10625
G1 X89.304 Y90.855 E2.11711
G1 X89.363 Y91.323 E2.13523
G1 X89.48 Y91.778 E2.15327
G1 X89.681 Y92.206 E2.17144
G1 X89.883 Y92.524 E2.18591
G1 X90.123 Y92.814 E2.20037
G1 X90.469 Y93.139 E2.21861
G1 X90.947 Y93.441 E2.24033
G1 X91.467 Y93.647 E2.26181
G1 X92.027 Y93.755 E2.28372
G1 X92.592 Y93.755 E2.30543
G1 X93.056 Y93.666 E2.32358
G1 X93.415 Y93.55 E2.33807
G1 X93.756 Y93.389 E2.35256
G1 X94.074 Y93.188 E2.36701
G1 X94.364 Y92.947 E2.3815
G1 X94.622 Y92.673 E2.39595
G1 X94.843 Y92.368 E2.41042
G1 X95.025 Y92.038 E2.4249
G1 X95.197 Y91.604 E2.44283
G1 X95.287 Y91.137 E2.4611
G1 X95.308 Y90.786 E2.47461
G1 X95.926 Y90.824 E2.4984
G1 X96.302 Y90.801 E2.51287
G1 X96.672 Y90.73 E2.52734
G1 X97.12 Y90.585 E2.54543
G1 X97.533 Y90.357 E2.56355
G1 X97.838 Y90.136 E2.57802
G1 X98.112 Y89.878 E2.59248
G1 X98.409 Y89.52 E2.61035
G1 X98.64 Y89.102 E2.6287
G1 X98.813 Y88.666 E2.64672
G1 X98.902 Y88.2 E2.66494
G1 X98.926 Y87.824 E2.67941
G1 X98.902 Y87.448 E2.69389
G1 X98.812 Y86.981 E2.71216
G1 X98.606 Y86.461 E2.73364
G1 X98.304 Y85.983 E2.75536
G1 X97.979 Y85.637 E2.7736
G1 X97.689 Y85.397 E2.78806
G1 X97.371 Y85.195 E2.80253
G1 X97.03 Y85.035 E2.817
G1 X96.583 Y84.889 E2.83507
G1 X96.02 Y84.818 E2.85687
G1 X96.302 Y84.801 E2.86772
G1 X96.672 Y84.73 E2.88219
G1 X97.12 Y84.585 E2.90028
G1 X97.533 Y84.357 E2.9184
G1 X97.838 Y84.136 E2.93287
G1 X98.112 Y83.878 E2.94733
G1 X98.409 Y83.52 E2.9652
G1 X98.64 Y83.102 E2.98355
G1 X98.813 Y82.666 E3.00157
G1 X98.902 Y82.2 E3.01979
G1 X98.926 Y81.824 E3.03427
G1 X98.902 Y81.448 E3.04874
G1 X98.812 Y80.981 E3.06701
G1 X98.606 Y80.461 E3.0885
G1 X98.304 Y79.983 E3.11022
G1 X97.979 Y79.637 E3.12845
G1 X97.689 Y79.397 E3.14291
G1 X97.371 Y79.195 E3.15739
G1 X97.03 Y79.035 E3.17186
G1 X96.583 Y78.889 E3.18992
G1 X95.918 Y78.805 E3.21567
G1 X95.917 Y78.771 E3.21698
G1 X95.219 Y78.761 E3.24379
G1 X93.964 Y78.761 E3.292
G1 X93.893 Y78.198 E3.3138
G1 X93.776 Y77.743 E3.33185
G1 X93.575 Y77.315 E3.35002
G1 X93.373 Y76.997 E3.36449
G1 X93.133 Y76.707 E3.37895
G1 X92.787 Y76.382 E3.39718
G1 X92.309 Y76.08 E3.4189
G1 X91.789 Y75.874 E3.44039
G1 X91.229 Y75.766 E3.4623
G1 X90.664 Y75.766 E3.48401
G1 X90.2 Y75.855 E3.50215
G1 X89.841 Y75.971 E3.51665
G1 X89.5 Y76.132 E3.53113
G1 X89.182 Y76.333 E3.54559
G1 X88.892 Y76.574 E3.56007
G1 X88.634 Y76.848 E3.57453
G1 X88.413 Y77.153 E3.589
G1 X88.185 Y77.566 E3.60712
G1 X88.04 Y78.014 E3.62521
G1 X87.969 Y78.385 E3.63972
G1 X87.952 Y78.666 E3.65054
G1 X87.893 Y78.198 E3.66866
G1 X87.776 Y77.743 E3.6867
G1 X87.575 Y77.315 E3.70487
G1 X87.373 Y76.997 E3.71934
G1 X87.133 Y76.707 E3.7338
G1 X86.787 Y76.382 E3.75204
G1 X86.309 Y76.08 E3.77376
G1 X85.789 Y75.874 E3.79524
G1 X85.229 Y75.766 E3.81715
G1 X84.664 Y75.766 E3.83886
G1 X84.2 Y75.855 E3.85701
G1 X83.841 Y75.971 E3.8715
G1 X83.5 Y76.132 E3.88599
G1 X83.182 Y76.333 E3.90044
G1 X82.892 Y76.574 E3.91492
G1 X82.634 Y76.848 E3.92938
G1 X82.413 Y77.153 E3.94385
G1 X82.185 Y77.566 E3.96197
G1 X82.04 Y78.014 E3.98006
G1 X81.969 Y78.385 E3.99457
G1 X81.952 Y78.666 E4.00539
G1 X81.893 Y78.198 E4.02351
G1 X81.776 Y77.743 E4.04156
G1 X81.575 Y77.315 E4.05972
G1 X81.373 Y76.997 E4.07419
G1 X81.133 Y76.707 E4.08865
G1 X80.787 Y76.382 E4.10689
G1 X80.309 Y76.08 E4.12861
G1 X79.789 Y75.874 E4.1501
G1 X79.229 Y75.766 E4.17201
G1 X78.664 Y75.766 E4.19371
G1 X78.2 Y75.855 E4.21186
G1 X77.841 Y75.971 E4.22635
G1 X77.5 Y76.132 E4.24084
G1 X77.182 Y76.333 E4.25529
G1 X76.892 Y76.574 E4.26978
G1 X76.634 Y76.848 E4.28424
G1 X76.413 Y77.153 E4.2987
G1 X76.185 Y77.566 E4.31683
G1 X76.04 Y78.014 E4.33492
G1 X75.969 Y78.385 E4.34943
G1 X75.952 Y78.666 E4.36024
G1 X75.893 Y78.198 E4.37836
G1 X75.776 Y77.743 E4.39641
G1 X75.575 Y77.315 E4.41457
G1 X75.373 Y76.997 E4.42905
G1 X75.133 Y76.707 E4.44351
G1 X74.787 Y76.382 E4.46174
G1 X74.309 Y76.08 E4.48346
G1 X73.789 Y75.874 E4.50495
G1 X73.229 Y75.766 E4.52686
G1 X72.664 Y75.766 E4.54856
G1 X72.2 Y75.855 E4.56671
G1 X71.841 Y75.971 E4.58121
G1 X71.5 Y76.132 E4.59569
G1 X71.182 Y76.333 E4.61015
G1 X70.892 Y76.574 E4.62463
G1 X70.634 Y76.848 E4.63909
G1 X70.413 Y77.153 E4.65356
G1 X70.185 Y77.566 E4.67168
G1 X70.04 Y78.014 E4.68977
G1 X69.969 Y78.385 E4.70428
G1 X69.946 Y78.761 E4.71875
G1 X69.792 Y78.362 E4.73518
G1 X69.61 Y78.032 E4.74966
G1 X69.333 Y77.65 E4.76779
G1 X68.989 Y77.327 E4.78591
G1 X68.61 Y77.051 E4.80392
G1 X68.182 Y76.85 E4.82209
G1 X67.734 Y76.704 E4.84019
G1 X67.266 Y76.645 E4.85831
G1 X66.889 Y76.645 E4.87279
G1 X66.42 Y76.704 E4.89095
G1 X65.973 Y76.85 E4.90902
G1 X65.548 Y77.049 E4.92704
G1 X65.165 Y77.327 E4.94522
;;retract move;;
G1 F3840 X64.89 Y77.585 E4.75522
G1 X64.65 Y77.876 E4.56522
G1 X64.448 Y78.194 E4.37522
G1 X64.288 Y78.535 E4.18522
G1 X64.142 Y78.982 E3.99522
G1 X64.139 Y79.005 E3.80522
G1 F1800 E3.74522
G0 F4800 X67.162 Y80.052 Z0.6
;MESH:0_0
G0 X67.619 Y80.211
;TYPE:WALL-OUTER
G1 F600 Z0.2
G1 F1800 E4.94522
G1 F1200 X67.895 Y79.807 E4.96308
G1 X68.064 Y79.396 E4.9793
G1 X68.146 Y78.992 E4.99434
G1 X95.695 Y78.992 E5.99973
G1 X95.695 Y90.53 E6.42081
G1 X66.157 Y90.53 E7.49879
G1 X66.157 Y81.005 E7.8464
G1 X66.856 Y80.807 E7.87292
G1 X67.303 Y80.516 E7.89238
G1 X67.619 Y80.211 E7.90841
G0 F4800 X68.003 Y80.503
;TYPE:WALL-INNER
G1 F1200 X68.307 Y80.058 E7.92948
G1 X68.558 Y79.47 E7.95448
G1 X95.217 Y79.47 E8.99689
G1 X95.217 Y90.052 E9.41066
G1 X66.635 Y90.052 E10.52825
G1 X66.636 Y81.366 E10.86789
G1 X67.055 Y81.248 E10.88491
G1 X67.626 Y80.876 E10.91156
G1 X68.003 Y80.503 E10.93229
;;retract move;;
G1 F3840 X68.307 Y80.058 E10.55229
G1 X68.558 Y79.47 E10.17229
G1 X69.381 Y79.47 E9.79229
G1 F1800 E9.73229
G0 F4800 X68.334 Y80.743 Z0.6
;TYPE:SKIN
G1 F600 Z0.2
G1 F1800 E10.93229
G1 F1200 X67.868 Y81.206 E10.95753
G1 X67.35 Y81.542 E10.98125
G1 X67.045 Y81.682 E10.99414
G1 X67.043 Y89.644 E11.3
G1 X94.809 Y89.644 E12.36665
G1 X94.809 Y79.878 E12.74181
G1 X68.825 Y79.878 E13.74
G1 X68.664 Y80.259 E13.75589
G1 X68.334 Y80.743 E13.77839
;;retract move;;
G1 F3840 X68.664 Y80.259 E13.55039
G1 X68.825 Y79.878 E13.32239
G1 X69.827 Y79.878 E13.09439
G1 X68.825 Y79.878 E12.86639
G1 X68.664 Y80.259 E12.63839
G1 F1800 E12.57839
G0 F4800 X68.381 Y83.446 Z0.6
G0 X67.851 Y89.412
G1 F600 Z0.2
G1 F1800 E13.77839
G1 F1200 X67.274 Y88.835 E13.80974
G1 X67.274 Y88.181
G1 X68.504 Y89.412 E13.87659
G1 X69.157 Y89.412
G1 X67.274 Y87.528 E13.97892
G1 X67.274 Y86.875
G1 X69.811 Y89.412 E14.11675
G1 X70.464 Y89.412
G1 X67.274 Y86.222 E14.29005
G1 X67.274 Y85.569
G1 X71.117 Y89.412 E14.49883
G1 X71.771 Y89.412
G1 X67.274 Y84.915 E14.74314
G1 X67.275 Y84.263
G1 X72.424 Y89.412 E15.02288
G1 X73.078 Y89.412
G1 X67.275 Y83.609 E15.33814
G1 X67.275 Y82.956
G1 X73.731 Y89.412 E15.68888
G1 X74.384 Y89.412
G1 X67.275 Y82.302 E16.07512
G1 X67.404 Y81.779
G1 X75.038 Y89.412 E16.48983
G1 X75.691 Y89.412
G1 X67.801 Y81.522 E16.91848
G1 X68.17 Y81.237
G1 X76.344 Y89.412 E17.36258
G1 X76.998 Y89.412
G1 X68.497 Y80.911 E17.82442
G1 X68.762 Y80.523
G1 X77.651 Y89.412 E18.30734
G1 X78.305 Y89.412
G1 X69.001 Y80.108 E18.8128
G1 X69.654 Y80.108
G1 X78.958 Y89.412 E19.31827
G1 X79.611 Y89.412
G1 X70.308 Y80.108 E19.8237
G1 X70.961 Y80.108
G1 X80.265 Y89.412 E20.32917
G1 X80.918 Y89.412
G1 X71.615 Y80.108 E20.83461
G1 X72.268 Y80.108
G1 X81.571 Y89.412 E21.34004
G1 X82.225 Y89.412
G1 X72.921 Y80.108 E21.84551
G1 X73.575 Y80.108
G1 X82.878 Y89.412 E22.35095
G1 X83.531 Y89.412
G1 X74.228 Y80.108 E22.85638
G1 X74.881 Y80.108
G1 X84.185 Y89.412 E23.36185
G1 X84.838 Y89.412
G1 X75.535 Y80.108 E23.86728
G1 X76.188 Y80.108
G1 X85.492 Y89.412 E24.37275
G1 X86.145 Y89.412
G1 X76.842 Y80.108 E24.87819
G1 X77.495 Y80.108
G1 X86.798 Y89.412 E25.38362
G1 X87.452 Y89.412
G1 X78.148 Y80.108 E25.88909
G1 X78.802 Y80.108
G1 X88.105 Y89.412 E26.39453
G1 X88.758 Y89.412
G1 X79.455 Y80.108 E26.89996
G1 X80.108 Y80.108
G1 X89.412 Y89.412 E27.40543
G1 X90.065 Y89.412
G1 X80.762 Y80.108 E27.91087
G1 X81.415 Y80.108
G1 X90.718 Y89.412 E28.4163
G1 X91.372 Y89.412
G1 X82.068 Y80.108 E28.92177
G1 X82.722 Y80.108
G1 X92.025 Y89.412 E29.4272
G1 X92.679 Y89.412
G1 X83.375 Y80.108 E29.93267
G1 X84.029 Y80.108
G1 X93.332 Y89.412 E30.43811
G1 X93.985 Y89.412
G1 X84.682 Y80.108 E30.94354
G1 X85.335 Y80.108
