;FLAVOR:Marlin
;TIME:1666.11
;Filament used:1.75584m
;Material Diameter:1.75
;Material Density:1.24
;Filament Cost:0.104738
;Filament Weight:5.236885
;Filament Length:1.755841
;Layer height:0.2
;MINX:2.174
;MINY:2.347
;MINZ:0.2
;MAXX:137.994
;MAXY:128
;MAXZ:20.401
;OuterWall Time:246.117
;InnerWall Time:167.385
;Skin Time:886.036
;Support Time:0
;SkirtBrim Time:10.7202
;Infill Time:29.2777
;Support Infills Time:0
;Combing Time:125.453
;Retraction Time:201.125
;PrimeTower Time:0
;;;;;;;;;;;;;;;;;;;;;;;;;;;;;;;;;;;;;;;;;;;;;;;;;;;;;;;;;;;;;;;;;;;;;;;;;;;
;Creality Print GCode Generated by CXEngine
;CRSLICE_GIT_HASH:58ee74d
;Creality Print Version : V4.3.8.6984
;CXEngine Release Time:2023-12-04 18:16:29
;Gcode Generated Time:2025-04-10 21:40:04
;----------Machine Config--------------
;Machine Name:Ender-3 V3 SE
;Machine Height:250
;Machine Width:220
;Machine Depth:220
;Material Type:PLA
;Material Name:CR-PLA_1.75
;Number of Extruders:1
;ExtruderParams[0] Nozzle Diameter:1000
;----------Profile Config---------------
;Wall Thickness:0.8
;Top/Bottom Thickness:0.8
;Out Wall Line Width:0.42
;Inner Wall Line Width:0.45
;Inital Height:200
;Wall Line Count:2
;Infill Line Distance:8
;Infill Pattern:grid
;Infill Sparse Density:10
;Infill Wipe Distance:0
;Print Temperature:190
;Bed Temperature:60
;Support Enable:false
;Support Density:15
;Support Angle:60
;Adhesion Type:lace
;machine is belt:false
;machine belt offset:10
;machine belt offset Y:0
;Raft Base Line Spacing:1.6
;Wait Heatup Sync:true
;Enable Ironing:false
;Material Type:PLA
;Max volumetric speed:20
;Preview Img Type:png
;Screen Size:Sermoon D3
;----------Shell Config----------------
;Outer Wall Wipe Distance:2000
;Outer Inset First:false
;Infill Before Walls:false
;Infill Overlap:0.09
;Fill Gaps Between Walls:everywhere
;Minimum Infill Area:30
;Top Surface Skin Layer:0
;Top Layers:5
;Z Seam Alignment:sharpest_corner
;Seam Corner Preference:z_seam_corner_inner
;Z Seam X:110
;Z Seam Y:220
;Horizontal Expansion:0
;Top/Bottom Pattern:zigzag
;Ironing Pattern:zigzag
;Vase Model:false
;----------Support Config----------------
;Support Type:everywhere
;Support Pattern:zigzag
;Support Infill Layer Thickness:0.2
;Minimum Support Area:1
;Enable Support Roof:true
;Support Roof Thickness:0.8
;Support Roof Pattern:lines
;Connect Support Lines:0
;Connect Support ZigZags:1
;Minimum Support X/Y Distance:0.2
;Support Line Distance:2.67
; ---------PrintSpeed & Travel----------
;Enable Print Cool:true
;Avoid Printed Parts Traveling:true
;Enable Retraction:true
;Retraction Distance:1.2
;Retraction Speed:30
;Retraction Prime Speed:30
;Maximum Retraction Count:100
;Minimum Extrusion Distance Window:0.8
;Z Hop When Retracted:true
;Z Hop Height:0.4
;Retract Before Outer Wall:true

;Outer Wall Speed:60
;Inner Wall Speed:90
;Infill Speed:180
;Top/Bottom Speed:50
;Travel Speed:150
;Initial Layer Speed:20
;Skirt/Brim Speed:25
;Prime Tower Speed:60
;Outer Wall Acceleration:1000
;Inner Wall Acceleration:2000
;Infill Acceleration:2500
;Top/Bottom Acceleration:2500
;Travel Acceleration:2500
;Initial Layer Print Acceleration:500
;Initial Layer Travel Acceleration:500
;Skirt/Brim Acceleration:500
;Combing Mode:off
; --------SpecialModel&Mesh Fixes--------
;Union Overlapping Volum:true
;Remove All Holes:false
;Maximum Travel Resolution:0.25
;Maximum Deviation:0.05
;Maximum Model Angle:0.872665
;IS Mold Print:false
;Make Overhang Printable:false
;Enable Coasting:false
;Coasting Volumes:0.064
;Coasting Speed:0.9
;Raft AirGap:0.25
;Layer0 ZOverLap:0.13
;Adaptive Layers:0
;---------------------End of Head--------------------------
M140 S60
M105
M190 S60
M104 S190
M82 ;absolute extrusion mode
M220 S100 ;Reset Feedrate
M221 S100 ;Reset Flowrate

G28 ;Home

G92 E0 ;Reset Extruder
G1 Z2.0 F3000 ;Move Z Axis up
G1 X-2.1 Y20 Z0.28 F5000.0 ;Move to start position
M109 S190.000000
G1 X-2.1 Y145.0 Z0.28 F1500.0 E15 ;Draw the first line
G1 X-2.4 Y145.0 Z0.28 F5000.0 ;Move to side a little
G1 X-2.4 Y20 Z0.28 F1500.0 E30 ;Draw the second line
G92 E0  ;Reset Extruder
G1 E-1.0000 F1800 ;Retract a bit
G1 Z2.0 F3000 ;Move Z Axis up
G1 E0.0000 F1800 

G92 E0
G92 E0
G1 F1800 E-1.2
;LAYER_COUNT:23

;LAYER:0
M106 S0
M204 S500
;;retract;;
G1 F1800 E0
G1 F1800 E-1.2
G0 F4800 X2.174 Y2.347 Z20.401
G0 X85.949 Y92.813 Z0.6
;TYPE:SKIRT
G1 F600 Z0.2
G1 F1800 E0
G1 F1500 X85.691 Y93.087 E0.01446
G1 X85.47 Y93.392 E0.02893
G1 X85.242 Y93.805 E0.04705
G1 X85.097 Y94.253 E0.06514
G1 X85.01 Y94.71 E0.08301
G1 X85.007 Y95.156 E0.10014
G1 X84.342 Y95.24 E0.12589
G1 X83.895 Y95.386 E0.14396
G1 X83.47 Y95.585 E0.16198
G1 X83.087 Y95.863 E0.18017
G1 X82.813 Y96.121 E0.19462
G1 X82.572 Y96.412 E0.20914
G1 X82.319 Y96.812 E0.22732
G1 X82.113 Y97.332 E0.24881
G1 X82.005 Y97.892 E0.27072
G1 X82.005 Y98.458 E0.29246
G1 X82.113 Y99.018 E0.31437
G1 X82.285 Y99.452 E0.3323
G1 X82.513 Y99.867 E0.35049
G1 X82.813 Y100.229 E0.36855
G1 X83.087 Y100.487 E0.38301
G1 X83.47 Y100.765 E0.40119
G1 X83.895 Y100.964 E0.41922
G1 X84.342 Y101.11 E0.43728
G1 X84.857 Y101.175 E0.45722
G1 X84.342 Y101.24 E0.47716
G1 X83.895 Y101.386 E0.49523
G1 X83.47 Y101.585 E0.51326
G1 X83.087 Y101.863 E0.53144
G1 X82.813 Y102.121 E0.54589
G1 X82.572 Y102.412 E0.56041
G1 X82.319 Y102.812 E0.57859
G1 X82.113 Y103.332 E0.60008
G1 X82.005 Y103.892 E0.62199
G1 X82.005 Y104.458 E0.64373
G1 X82.113 Y105.018 E0.66564
G1 X82.285 Y105.452 E0.68357
G1 X82.513 Y105.867 E0.70176
G1 X82.813 Y106.229 E0.71982
G1 X83.087 Y106.487 E0.73428
G1 X83.47 Y106.765 E0.75246
G1 X83.895 Y106.964 E0.77049
G1 X84.342 Y107.11 E0.78855
G1 X84.857 Y107.175 E0.8085
G1 X84.342 Y107.24 E0.82844
G1 X83.895 Y107.386 E0.8465
G1 X83.47 Y107.585 E0.86453
G1 X83.087 Y107.863 E0.88271
G1 X82.813 Y108.121 E0.89717
G1 X82.572 Y108.412 E0.91168
G1 X82.319 Y108.812 E0.92986
G1 X82.113 Y109.332 E0.95135
G1 X82.005 Y109.892 E0.97326
G1 X82.005 Y110.458 E0.995
G1 X82.113 Y111.018 E1.01691
G1 X82.285 Y111.452 E1.03485
G1 X82.513 Y111.867 E1.05304
G1 X82.813 Y112.229 E1.0711
G1 X83.087 Y112.487 E1.08555
G1 X83.47 Y112.765 E1.10373
G1 X83.895 Y112.964 E1.12176
G1 X84.342 Y113.11 E1.13983
G1 X84.857 Y113.175 E1.15977
G1 X84.342 Y113.24 E1.17971
G1 X83.895 Y113.386 E1.19777
G1 X83.47 Y113.585 E1.2158
G1 X83.087 Y113.863 E1.23398
G1 X82.813 Y114.121 E1.24844
G1 X82.572 Y114.412 E1.26295
G1 X82.319 Y114.812 E1.28114
G1 X82.113 Y115.332 E1.30262
G1 X82.005 Y115.892 E1.32453
G1 X82.005 Y116.458 E1.34627
G1 X82.113 Y117.018 E1.36818
G1 X82.285 Y117.452 E1.38612
G1 X82.513 Y117.867 E1.40431
G1 X82.813 Y118.229 E1.42237
G1 X83.087 Y118.487 E1.43683
G1 X83.47 Y118.765 E1.45501
G1 X83.895 Y118.964 E1.47303
G1 X84.342 Y119.11 E1.4911
G1 X84.857 Y119.175 E1.51104
G1 X84.342 Y119.24 E1.53098
G1 X83.895 Y119.386 E1.54904
G1 X83.47 Y119.585 E1.56707
G1 X83.087 Y119.863 E1.58525
G1 X82.813 Y120.121 E1.59971
G1 X82.572 Y120.412 E1.61423
G1 X82.319 Y120.812 E1.63241
G1 X82.113 Y121.332 E1.65389
G1 X82.005 Y121.892 E1.6758
G1 X82.005 Y122.458 E1.69755
G1 X82.113 Y123.018 E1.71945
G1 X82.285 Y123.452 E1.73739
G1 X82.513 Y123.867 E1.75558
G1 X82.813 Y124.229 E1.77364
G1 X83.087 Y124.487 E1.7881
G1 X83.47 Y124.765 E1.80628
G1 X83.895 Y124.964 E1.82431
G1 X84.342 Y125.11 E1.84237
G1 X84.811 Y125.169 E1.86053
G1 X85.188 Y125.169 E1.87501
G1 X85.651 Y125.111 E1.89294
G1 X86.004 Y125 E1.90715
G1 X86.369 Y125 E1.92117
G1 X86.392 Y125.376 E1.93565
G1 X86.482 Y125.843 E1.95392
G1 X86.654 Y126.277 E1.97185
G1 X86.836 Y126.607 E1.98633
G1 X87.11 Y126.985 E2.00426
G1 X87.526 Y127.377 E2.02622
G1 X88.005 Y127.68 E2.04799
G1 X88.527 Y127.887 E2.06956
G1 X88.993 Y127.976 E2.08779
G1 X89.369 Y128 E2.10226
G1 X89.745 Y127.976 E2.11674
G1 X90.212 Y127.886 E2.13501
G1 X90.732 Y127.68 E2.15649
G1 X91.21 Y127.378 E2.17821
G1 X91.556 Y127.053 E2.19645
G1 X91.796 Y126.763 E2.21091
G1 X91.998 Y126.445 E2.22538
G1 X92.199 Y126.017 E2.24355
G1 X92.316 Y125.562 E2.2616
G1 X92.375 Y125.094 E2.27972
G1 X92.392 Y125.376 E2.29057
G1 X92.482 Y125.843 E2.30884
G1 X92.654 Y126.277 E2.32677
G1 X92.836 Y126.607 E2.34125
G1 X93.11 Y126.985 E2.35918
G1 X93.526 Y127.377 E2.38114
G1 X94.005 Y127.68 E2.40292
G1 X94.527 Y127.887 E2.42449
G1 X94.993 Y127.976 E2.44271
G1 X95.369 Y128 E2.45719
G1 X95.745 Y127.976 E2.47166
G1 X96.212 Y127.886 E2.48993
G1 X96.732 Y127.68 E2.51142
G1 X97.21 Y127.378 E2.53314
G1 X97.556 Y127.053 E2.55137
G1 X97.796 Y126.763 E2.56583
G1 X97.998 Y126.445 E2.58031
G1 X98.199 Y126.017 E2.59847
G1 X98.316 Y125.562 E2.61652
G1 X98.375 Y125.094 E2.63464
G1 X98.392 Y125.376 E2.64549
G1 X98.482 Y125.843 E2.66376
G1 X98.654 Y126.277 E2.6817
G1 X98.836 Y126.607 E2.69617
G1 X99.11 Y126.985 E2.71411
G1 X99.526 Y127.377 E2.73607
G1 X100.005 Y127.68 E2.75784
G1 X100.527 Y127.887 E2.77941
G1 X100.993 Y127.976 E2.79764
G1 X101.369 Y128 E2.81211
G1 X101.745 Y127.976 E2.82658
G1 X102.212 Y127.886 E2.84485
G1 X102.732 Y127.68 E2.86634
G1 X103.21 Y127.378 E2.88806
G1 X103.556 Y127.053 E2.9063
G1 X103.796 Y126.763 E2.92076
G1 X103.998 Y126.445 E2.93523
G1 X104.199 Y126.017 E2.9534
G1 X104.316 Y125.562 E2.97144
G1 X104.375 Y125.094 E2.98956
G1 X104.392 Y125.376 E3.00042
G1 X104.482 Y125.843 E3.01869
G1 X104.654 Y126.277 E3.03662
G1 X104.836 Y126.607 E3.0511
G1 X105.11 Y126.985 E3.06903
G1 X105.526 Y127.377 E3.09099
G1 X106.005 Y127.68 E3.11276
G1 X106.527 Y127.887 E3.13434
G1 X106.993 Y127.976 E3.15256
G1 X107.369 Y128 E3.16703
G1 X107.745 Y127.976 E3.18151
G1 X108.212 Y127.886 E3.19978
G1 X108.732 Y127.68 E3.22127
G1 X109.21 Y127.378 E3.24299
G1 X109.556 Y127.053 E3.26122
G1 X109.796 Y126.763 E3.27568
G1 X109.998 Y126.445 E3.29015
G1 X110.199 Y126.017 E3.30832
G1 X110.316 Y125.562 E3.32637
G1 X110.375 Y125.094 E3.34449
G1 X110.392 Y125.376 E3.35534
G1 X110.482 Y125.843 E3.37361
G1 X110.654 Y126.277 E3.39154
G1 X110.836 Y126.607 E3.40602
G1 X111.11 Y126.985 E3.42396
G1 X111.526 Y127.377 E3.44591
G1 X112.005 Y127.68 E3.46769
G1 X112.527 Y127.887 E3.48926
G1 X112.993 Y127.976 E3.50749
G1 X113.369 Y128 E3.52196
G1 X113.745 Y127.976 E3.53643
G1 X114.212 Y127.886 E3.5547
G1 X114.732 Y127.68 E3.57619
G1 X115.21 Y127.378 E3.59791
G1 X115.556 Y127.053 E3.61615
G1 X115.796 Y126.763 E3.63061
G1 X115.998 Y126.445 E3.64508
G1 X116.199 Y126.017 E3.66324
G1 X116.316 Y125.562 E3.68129
G1 X116.375 Y125.094 E3.69941
G1 X116.392 Y125.376 E3.71026
G1 X116.482 Y125.843 E3.72853
G1 X116.654 Y126.277 E3.74647
G1 X116.836 Y126.607 E3.76095
G1 X117.11 Y126.985 E3.77888
G1 X117.526 Y127.377 E3.80084
G1 X118.005 Y127.68 E3.82261
G1 X118.527 Y127.887 E3.84418
G1 X118.993 Y127.976 E3.86241
G1 X119.369 Y128 E3.87688
G1 X119.745 Y127.976 E3.89136
G1 X120.212 Y127.886 E3.90963
G1 X120.732 Y127.68 E3.93111
G1 X121.21 Y127.378 E3.95283
G1 X121.556 Y127.053 E3.97107
G1 X121.796 Y126.763 E3.98553
G1 X121.998 Y126.445 E4
G1 X122.199 Y126.017 E4.01817
G1 X122.316 Y125.562 E4.03621
G1 X122.375 Y125.094 E4.05434
G1 X122.392 Y125.376 E4.06519
G1 X122.482 Y125.843 E4.08346
G1 X122.654 Y126.277 E4.10139
G1 X122.836 Y126.607 E4.11587
G1 X123.11 Y126.985 E4.1338
G1 X123.526 Y127.377 E4.15576
G1 X124.005 Y127.68 E4.17754
G1 X124.527 Y127.887 E4.19911
G1 X124.993 Y127.976 E4.21733
G1 X125.369 Y128 E4.23181
G1 X125.745 Y127.976 E4.24628
G1 X126.212 Y127.886 E4.26455
G1 X126.732 Y127.68 E4.28604
G1 X127.21 Y127.378 E4.30776
G1 X127.556 Y127.053 E4.32599
G1 X127.796 Y126.763 E4.34045
G1 X127.998 Y126.445 E4.35493
G1 X128.199 Y126.017 E4.37309
G1 X128.316 Y125.562 E4.39114
G1 X128.375 Y125.094 E4.40926
G1 X128.392 Y125.376 E4.42011
G1 X128.482 Y125.843 E4.43838
G1 X128.654 Y126.277 E4.45632
G1 X128.836 Y126.607 E4.47079
G1 X129.11 Y126.985 E4.48873
G1 X129.526 Y127.377 E4.51069
G1 X130.005 Y127.68 E4.53246
G1 X130.527 Y127.887 E4.55403
G1 X130.993 Y127.976 E4.57226
G1 X131.369 Y128 E4.58673
G1 X131.745 Y127.976 E4.6012
G1 X132.212 Y127.886 E4.61947
G1 X132.732 Y127.68 E4.64096
G1 X133.21 Y127.378 E4.66268
G1 X133.556 Y127.053 E4.68092
G1 X133.796 Y126.763 E4.69538
G1 X133.998 Y126.445 E4.70985
G1 X134.199 Y126.017 E4.72801
G1 X134.316 Y125.562 E4.74606
G1 X134.383 Y125.028 E4.76674
G1 X135 Y125.067 E4.79049
G1 X135.376 Y125.043 E4.80496
G1 X135.843 Y124.953 E4.82323
G1 X136.277 Y124.781 E4.84116
G1 X136.691 Y124.554 E4.8593
G1 X137.053 Y124.253 E4.87739
G1 X137.377 Y123.909 E4.89554
G1 X137.68 Y123.43 E4.91731
G1 X137.886 Y122.91 E4.9388
G1 X137.994 Y122.35 E4.96071
G1 X137.994 Y121.878 E4.97884
G1 X137.946 Y121.504 E4.99333
G1 X137.853 Y121.139 E5.0078
G1 X137.68 Y120.703 E5.02582
G1 X137.427 Y120.303 E5.044
G1 X137.186 Y120.013 E5.05848
G1 X136.842 Y119.689 E5.07664
G1 X136.363 Y119.386 E5.09841
G1 X135.843 Y119.18 E5.1199
G1 X135.376 Y119.09 E5.13817
G1 X135 Y119.067 E5.15264
G1 X135.376 Y119.043 E5.16711
G1 X135.843 Y118.953 E5.18538
G1 X136.277 Y118.781 E5.20332
G1 X136.691 Y118.554 E5.22145
G1 X137.053 Y118.253 E5.23954
G1 X137.377 Y117.909 E5.25769
G1 X137.68 Y117.43 E5.27947
G1 X137.886 Y116.91 E5.30095
G1 X137.994 Y116.35 E5.32286
G1 X137.994 Y115.878 E5.34099
G1 X137.946 Y115.504 E5.35548
G1 X137.853 Y115.139 E5.36995
G1 X137.68 Y114.703 E5.38797
G1 X137.427 Y114.303 E5.40615
G1 X137.186 Y114.013 E5.42064
G1 X136.842 Y113.689 E5.43879
G1 X136.363 Y113.386 E5.46056
G1 X135.843 Y113.18 E5.48205
G1 X135.376 Y113.09 E5.50032
G1 X135 Y113.067 E5.51479
G1 X135.376 Y113.043 E5.52926
G1 X135.843 Y112.953 E5.54753
G1 X136.277 Y112.781 E5.56547
G1 X136.691 Y112.554 E5.58361
G1 X137.053 Y112.253 E5.60169
G1 X137.377 Y111.909 E5.61985
G1 X137.68 Y111.43 E5.64162
G1 X137.886 Y110.91 E5.66311
G1 X137.994 Y110.35 E5.68501
G1 X137.994 Y109.878 E5.70315
G1 X137.946 Y109.504 E5.71763
G1 X137.853 Y109.139 E5.7321
G1 X137.68 Y108.703 E5.75012
G1 X137.427 Y108.303 E5.7683
G1 X137.186 Y108.013 E5.78279
G1 X136.842 Y107.689 E5.80094
G1 X136.363 Y107.386 E5.82272
G1 X135.843 Y107.18 E5.8442
G1 X135.376 Y107.09 E5.86247
G1 X135 Y107.067 E5.87694
G1 X135.376 Y107.043 E5.89142
G1 X135.843 Y106.953 E5.90969
G1 X136.277 Y106.781 E5.92762
G1 X136.691 Y106.554 E5.94576
G1 X137.053 Y106.253 E5.96384
G1 X137.377 Y105.909 E5.982
G1 X137.68 Y105.43 E6.00377
G1 X137.886 Y104.91 E6.02526
G1 X137.994 Y104.35 E6.04717
G1 X137.994 Y103.878 E6.0653
G1 X137.946 Y103.504 E6.07978
G1 X137.853 Y103.139 E6.09425
G1 X137.68 Y102.703 E6.11227
G1 X137.427 Y102.303 E6.13045
G1 X137.186 Y102.013 E6.14494
G1 X136.842 Y101.689 E6.16309
G1 X136.363 Y101.386 E6.18487
G1 X135.843 Y101.18 E6.20635
G1 X135.376 Y101.09 E6.22462
G1 X135 Y101.067 E6.23909
G1 X135.376 Y101.043 E6.25357
G1 X135.843 Y100.953 E6.27184
G1 X136.277 Y100.781 E6.28977
G1 X136.691 Y100.554 E6.30791
G1 X137.053 Y100.253 E6.326
G1 X137.377 Y99.909 E6.34415
G1 X137.68 Y99.43 E6.36592
G1 X137.886 Y98.91 E6.38741
G1 X137.994 Y98.35 E6.40932
G1 X137.994 Y97.878 E6.42745
G1 X137.946 Y97.504 E6.44194
G1 X137.853 Y97.139 E6.45641
G1 X137.68 Y96.703 E6.47443
G1 X137.427 Y96.303 E6.49261
G1 X137.186 Y96.013 E6.50709
G1 X136.842 Y95.689 E6.52525
G1 X136.363 Y95.386 E6.54702
G1 X135.843 Y95.18 E6.56851
G1 X135.376 Y95.09 E6.58678
G1 X134.993 Y95.067 E6.60152
G1 X134.991 Y95.01 E6.60371
G1 X134.293 Y95 E6.63052
G1 X133.021 Y95 E6.67939
G1 X132.938 Y94.342 E6.70487
G1 X132.792 Y93.895 E6.72293
G1 X132.632 Y93.554 E6.7374
G1 X132.43 Y93.236 E6.75187
G1 X132.19 Y92.946 E6.76633
G1 X131.844 Y92.621 E6.78457
G1 X131.366 Y92.319 E6.80629
G1 X130.846 Y92.113 E6.82778
G1 X130.286 Y92.005 E6.84968
G1 X129.721 Y92.005 E6.87139
G1 X129.161 Y92.112 E6.89329
G1 X128.725 Y92.285 E6.91131
G1 X128.307 Y92.516 E6.92966
G1 X127.949 Y92.813 E6.94753
G1 X127.691 Y93.087 E6.96198
G1 X127.47 Y93.392 E6.97645
G1 X127.242 Y93.805 E6.99458
G1 X127.097 Y94.253 E7.01267
G1 X127.026 Y94.624 E7.02718
G1 X127.009 Y94.905 E7.03799
G1 X126.938 Y94.342 E7.05979
G1 X126.792 Y93.895 E7.07785
G1 X126.632 Y93.554 E7.09232
G1 X126.43 Y93.236 E7.1068
G1 X126.19 Y92.946 E7.12126
G1 X125.844 Y92.621 E7.13949
G1 X125.366 Y92.319 E7.16121
G1 X124.846 Y92.113 E7.1827
G1 X124.286 Y92.005 E7.20461
G1 X123.721 Y92.005 E7.22631
G1 X123.161 Y92.112 E7.24822
G1 X122.725 Y92.285 E7.26624
G1 X122.307 Y92.516 E7.28458
G1 X121.949 Y92.813 E7.30245
