;FLAVOR:Marlin
;TIME:3244.6
;Filament used:5.51023m
;Material Diameter:1.75
;Material Density:1.24
;Filament Cost:0.328691
;Filament Weight:16.434540
;Filament Length:5.510232
;Layer height:0.2
;MINX:2.616
;MINY:1.841
;MINZ:0.2
;MAXX:129.894
;MAXY:158.644
;MAXZ:20.401
;OuterWall Time:429.002
;InnerWall Time:533.404
;Skin Time:1568.54
;Support Time:0
;SkirtBrim Time:16.9574
;Infill Time:265.486
;Support Infills Time:0
;Combing Time:185.842
;Retraction Time:245.373
;PrimeTower Time:0
;;;;;;;;;;;;;;;;;;;;;;;;;;;;;;;;;;;;;;;;;;;;;;;;;;;;;;;;;;;;;;;;;;;;;;;
;Creality Print GCode Generated by CXEngine
;CRSLICE_GIT_HASH:58ee74d
;Creality Print Version : V4.3.8.6984
;CXEngine Release Time:2023-12-04 18:16:29
;Gcode Generated Time:2025-03-14 17:14:24
;----------Machine Config--------------
;Machine Name:Ender-3 V3 SE
;Machine Height:250
;Machine Width:220
;Machine Depth:220
;Material Type:PLA
;Material Name:CR-PLA_1.75
;Number of Extruders:1
;ExtruderParams[0] Nozzle Diameter:1000
;----------Profile Config---------------
;Wall Thickness:0.8
;Top/Bottom Thickness:0.8
;Out Wall Line Width:0.42
;Inner Wall Line Width:0.45
;Inital Height:200
;Wall Line Count:3
;Infill Line Distance:8
;Infill Pattern:grid
;Infill Sparse Density:10
;Infill Wipe Distance:0.11
;Print Temperature:190
;Bed Temperature:60
;Support Enable:false
;Support Density:15
;Support Angle:60
;Adhesion Type:lace
;machine is belt:false
;machine belt offset:10
;machine belt offset Y:0
;Raft Base Line Spacing:1.6
;Wait Heatup Sync:true
;Enable Ironing:false
;Material Type:PLA
;Max volumetric speed:20
;Preview Img Type:png
;Screen Size:Sermoon D3
;----------Shell Config----------------
;Outer Wall Wipe Distance:2000
;Outer Inset First:false
;Infill Before Walls:false
;Infill Overlap:0.09
;Fill Gaps Between Walls:everywhere
;Minimum Infill Area:30
;Top Surface Skin Layer:0
;Top Layers:5
;Z Seam Alignment:sharpest_corner
;Seam Corner Preference:z_seam_corner_inner
;Z Seam X:110
;Z Seam Y:220
;Horizontal Expansion:0
;Top/Bottom Pattern:zigzag
;Ironing Pattern:zigzag
;Vase Model:false
;----------Support Config----------------
;Support Type:everywhere
;Support Pattern:zigzag
;Support Infill Layer Thickness:0.2
;Minimum Support Area:1
;Enable Support Roof:true
;Support Roof Thickness:0.8
;Support Roof Pattern:lines
;Connect Support Lines:0
;Connect Support ZigZags:1
;Minimum Support X/Y Distance:0.2
;Support Line Distance:2.67
; ---------PrintSpeed & Travel----------
;Enable Print Cool:true
;Avoid Printed Parts Traveling:true
;Enable Retraction:true
;Retraction Distance:1.2
;Retraction Speed:30
;Retraction Prime Speed:30
;Maximum Retraction Count:100
;Minimum Extrusion Distance Window:0.8
;Z Hop When Retracted:true
;Z Hop Height:0.4
;Retract Before Outer Wall:true

;Outer Wall Speed:60
;Inner Wall Speed:90
;Infill Speed:180
;Top/Bottom Speed:50
;Travel Speed:150
;Initial Layer Speed:20
;Skirt/Brim Speed:25
;Prime Tower Speed:60
;Outer Wall Acceleration:1000
;Inner Wall Acceleration:2000
;Infill Acceleration:2500
;Top/Bottom Acceleration:2500
;Travel Acceleration:2500
;Initial Layer Print Acceleration:500
;Initial Layer Travel Acceleration:500
;Skirt/Brim Acceleration:500
;Combing Mode:off
; --------SpecialModel&Mesh Fixes--------
;Union Overlapping Volum:true
;Remove All Holes:false
;Maximum Travel Resolution:0.25
;Maximum Deviation:0.05
;Maximum Model Angle:0.872665
;IS Mold Print:false
;Make Overhang Printable:false
;Enable Coasting:false
;Coasting Volumes:0.064
;Coasting Speed:0.9
;Raft AirGap:0.25
;Layer0 ZOverLap:0.13
;Adaptive Layers:0
;---------------------End of Head--------------------------
M140 S60
M105
M190 S60
M104 S190
M82 ;absolute extrusion mode
M220 S100 ;Reset Feedrate
M221 S100 ;Reset Flowrate

G28 ;Home

G92 E0 ;Reset Extruder
G1 Z2.0 F3000 ;Move Z Axis up
G1 X-2.1 Y20 Z0.28 F5000.0 ;Move to start position
M109 S190.000000
G1 X-2.1 Y145.0 Z0.28 F1500.0 E15 ;Draw the first line
G1 X-2.4 Y145.0 Z0.28 F5000.0 ;Move to side a little
G1 X-2.4 Y20 Z0.28 F1500.0 E30 ;Draw the second line
G92 E0  ;Reset Extruder
G1 E-1.0000 F1800 ;Retract a bit
G1 Z2.0 F3000 ;Move Z Axis up
G1 E0.0000 F1800 

G92 E0
G92 E0
G1 F1800 E-1.2
;LAYER_COUNT:60

;LAYER:0
M106 S0
M204 S500
;;retract;;
G1 F1800 E0
G1 F1800 E-1.2
G0 F4800 X2.616 Y1.841 Z20.401
G0 X90.721 Y63.848 Z0.6
;TYPE:SKIRT
G1 F600 Z0.2
G1 F1800 E0
G1 F1500 X90.419 Y64.326 E0.02172
G1 X90.213 Y64.846 E0.04321
G1 X90.105 Y65.406 E0.06512
G1 X90.105 Y65.878 E0.08325
G1 X90.153 Y66.252 E0.09773
G1 X90.27 Y66.709 E0.11586
G1 X90.471 Y67.135 E0.13395
G1 X90.672 Y67.453 E0.1484
G1 X90.913 Y67.743 E0.16289
G1 X91.187 Y68.001 E0.17735
G1 X91.492 Y68.222 E0.19181
G1 X91.822 Y68.404 E0.20629
G1 X92.256 Y68.577 E0.22424
G1 X92.724 Y68.666 E0.24254
G1 X93.004 Y68.683 E0.25332
G1 X92.537 Y68.743 E0.2714
G1 X92.083 Y68.859 E0.28941
G1 X91.654 Y69.06 E0.3076
G1 X91.336 Y69.262 E0.32208
G1 X91.046 Y69.502 E0.33654
G1 X90.721 Y69.848 E0.35477
G1 X90.419 Y70.326 E0.37649
G1 X90.213 Y70.846 E0.39798
G1 X90.105 Y71.406 E0.41989
G1 X90.105 Y71.878 E0.43802
G1 X90.153 Y72.252 E0.45251
G1 X90.27 Y72.709 E0.47063
G1 X90.471 Y73.135 E0.48872
G1 X90.672 Y73.453 E0.50318
G1 X90.913 Y73.743 E0.51766
G1 X91.187 Y74.001 E0.53212
G1 X91.492 Y74.222 E0.54659
G1 X91.822 Y74.404 E0.56107
G1 X92.256 Y74.577 E0.57901
G1 X92.724 Y74.666 E0.59731
G1 X93.004 Y74.683 E0.60809
G1 X92.537 Y74.743 E0.62618
G1 X92.083 Y74.859 E0.64418
G1 X91.654 Y75.06 E0.66238
G1 X91.336 Y75.262 E0.67685
G1 X91.046 Y75.502 E0.69131
G1 X90.721 Y75.848 E0.70955
G1 X90.419 Y76.326 E0.73127
G1 X90.213 Y76.846 E0.75275
G1 X90.105 Y77.406 E0.77466
G1 X90.105 Y77.878 E0.7928
G1 X90.153 Y78.252 E0.80728
G1 X90.27 Y78.709 E0.8254
G1 X90.471 Y79.135 E0.8435
G1 X90.672 Y79.453 E0.85795
G1 X90.913 Y79.743 E0.87243
G1 X91.187 Y80.001 E0.88689
G1 X91.492 Y80.222 E0.90136
G1 X91.822 Y80.404 E0.91584
G1 X92.256 Y80.577 E0.93379
G1 X92.724 Y80.666 E0.95209
G1 X93.004 Y80.683 E0.96286
G1 X92.537 Y80.743 E0.98095
G1 X92.083 Y80.859 E0.99895
G1 X91.654 Y81.06 E1.01715
G1 X91.336 Y81.262 E1.03162
G1 X91.046 Y81.502 E1.04608
G1 X90.721 Y81.848 E1.06432
G1 X90.419 Y82.326 E1.08604
G1 X90.213 Y82.846 E1.10753
G1 X90.105 Y83.406 E1.12944
G1 X90.105 Y83.878 E1.14757
G1 X90.153 Y84.252 E1.16205
G1 X90.27 Y84.709 E1.18018
G1 X90.471 Y85.135 E1.19827
G1 X90.672 Y85.453 E1.21272
G1 X90.913 Y85.743 E1.22721
G1 X91.187 Y86.001 E1.24167
G1 X91.492 Y86.222 E1.25613
G1 X91.822 Y86.404 E1.27061
G1 X92.256 Y86.577 E1.28856
G1 X92.724 Y86.666 E1.30686
G1 X93.004 Y86.683 E1.31764
G1 X92.537 Y86.743 E1.33572
G1 X92.083 Y86.859 E1.35373
G1 X91.654 Y87.06 E1.37192
G1 X91.336 Y87.262 E1.3864
G1 X91.046 Y87.502 E1.40086
G1 X90.721 Y87.848 E1.41909
G1 X90.419 Y88.326 E1.44081
G1 X90.213 Y88.846 E1.4623
G1 X90.105 Y89.406 E1.48421
G1 X90.105 Y89.878 E1.50234
G1 X90.153 Y90.252 E1.51683
G1 X90.27 Y90.709 E1.53495
G1 X90.471 Y91.135 E1.55304
G1 X90.672 Y91.453 E1.5675
G1 X90.913 Y91.743 E1.58198
G1 X91.187 Y92.001 E1.59644
G1 X91.492 Y92.222 E1.61091
G1 X91.822 Y92.404 E1.62539
G1 X92.256 Y92.577 E1.64333
G1 X92.724 Y92.666 E1.66163
G1 X93.004 Y92.683 E1.67241
G1 X92.537 Y92.743 E1.6905
G1 X92.083 Y92.859 E1.7085
G1 X91.654 Y93.06 E1.7267
G1 X91.336 Y93.262 E1.74117
G1 X91.046 Y93.502 E1.75563
G1 X90.721 Y93.848 E1.77387
G1 X90.419 Y94.326 E1.79559
G1 X90.213 Y94.846 E1.81707
G1 X90.105 Y95.406 E1.83898
G1 X90.105 Y95.878 E1.85712
G1 X90.153 Y96.252 E1.8716
G1 X90.27 Y96.709 E1.88972
G1 X90.471 Y97.135 E1.90782
G1 X90.672 Y97.453 E1.92227
G1 X90.913 Y97.743 E1.93676
G1 X91.187 Y98.001 E1.95121
G1 X91.492 Y98.222 E1.96568
G1 X91.822 Y98.404 E1.98016
G1 X92.256 Y98.577 E1.99811
G1 X92.724 Y98.666 E2.01641
G1 X93.004 Y98.683 E2.02718
G1 X92.537 Y98.743 E2.04527
G1 X92.083 Y98.859 E2.06327
G1 X91.654 Y99.06 E2.08147
G1 X91.336 Y99.262 E2.09594
G1 X91.046 Y99.502 E2.11041
G1 X90.721 Y99.848 E2.12864
G1 X90.419 Y100.326 E2.15036
G1 X90.213 Y100.846 E2.17185
G1 X90.105 Y101.406 E2.19376
G1 X90.105 Y101.878 E2.21189
G1 X90.153 Y102.252 E2.22637
G1 X90.27 Y102.709 E2.2445
G1 X90.471 Y103.135 E2.26259
G1 X90.672 Y103.453 E2.27704
G1 X90.913 Y103.743 E2.29153
G1 X91.187 Y104.001 E2.30599
G1 X91.492 Y104.222 E2.32046
G1 X91.822 Y104.404 E2.33493
G1 X92.256 Y104.577 E2.35288
G1 X92.724 Y104.666 E2.37118
G1 X93.004 Y104.683 E2.38196
G1 X92.537 Y104.743 E2.40005
G1 X92.083 Y104.859 E2.41805
G1 X91.654 Y105.06 E2.43625
G1 X91.336 Y105.262 E2.45072
G1 X91.046 Y105.502 E2.46518
G1 X90.721 Y105.848 E2.48341
G1 X90.419 Y106.326 E2.50513
G1 X90.213 Y106.846 E2.52662
G1 X90.105 Y107.406 E2.54853
G1 X90.105 Y107.878 E2.56666
G1 X90.153 Y108.252 E2.58115
G1 X90.27 Y108.709 E2.59927
G1 X90.471 Y109.135 E2.61736
G1 X90.672 Y109.453 E2.63182
G1 X90.913 Y109.743 E2.6463
G1 X91.187 Y110.001 E2.66076
G1 X91.492 Y110.222 E2.67523
G1 X91.822 Y110.404 E2.68971
G1 X92.256 Y110.577 E2.70765
G1 X92.724 Y110.666 E2.72595
G1 X93.004 Y110.683 E2.73673
G1 X92.537 Y110.743 E2.75482
G1 X92.083 Y110.859 E2.77282
G1 X91.654 Y111.06 E2.79102
G1 X91.336 Y111.262 E2.80549
G1 X91.046 Y111.502 E2.81995
G1 X90.721 Y111.848 E2.83819
G1 X90.419 Y112.326 E2.85991
G1 X90.213 Y112.846 E2.88139
G1 X90.105 Y113.406 E2.9033
G1 X90.105 Y113.878 E2.92144
G1 X90.153 Y114.252 E2.93592
G1 X90.27 Y114.709 E2.95404
G1 X90.471 Y115.135 E2.97214
G1 X90.672 Y115.453 E2.98659
G1 X90.913 Y115.743 E3.00108
G1 X91.187 Y116.001 E3.01553
G1 X91.492 Y116.222 E3.03
G1 X91.822 Y116.404 E3.04448
G1 X92.256 Y116.577 E3.06243
G1 X92.724 Y116.666 E3.08073
G1 X93.004 Y116.683 E3.0915
G1 X92.537 Y116.743 E3.10959
G1 X92.083 Y116.859 E3.12759
G1 X91.654 Y117.06 E3.14579
G1 X91.336 Y117.262 E3.16026
G1 X91.046 Y117.502 E3.17473
G1 X90.721 Y117.848 E3.19296
G1 X90.419 Y118.326 E3.21468
G1 X90.213 Y118.846 E3.23617
G1 X90.105 Y119.406 E3.25808
G1 X90.105 Y119.878 E3.27621
G1 X90.153 Y120.252 E3.29069
G1 X90.27 Y120.709 E3.30882
G1 X90.471 Y121.135 E3.32691
G1 X90.672 Y121.453 E3.34136
G1 X90.913 Y121.743 E3.35585
G1 X91.187 Y122.001 E3.37031
G1 X91.492 Y122.222 E3.38478
G1 X91.822 Y122.404 E3.39925
G1 X92.256 Y122.577 E3.4172
G1 X92.724 Y122.666 E3.4355
G1 X93.004 Y122.683 E3.44628
G1 X92.537 Y122.743 E3.46437
G1 X92.083 Y122.859 E3.48237
G1 X91.654 Y123.06 E3.50057
G1 X91.336 Y123.262 E3.51504
G1 X91.046 Y123.502 E3.5295
G1 X90.721 Y123.848 E3.54773
G1 X90.419 Y124.326 E3.56946
G1 X90.213 Y124.846 E3.59094
G1 X90.105 Y125.406 E3.61285
G1 X90.105 Y125.878 E3.63098
G1 X90.153 Y126.252 E3.64547
G1 X90.27 Y126.709 E3.66359
G1 X90.471 Y127.135 E3.68169
G1 X90.672 Y127.453 E3.69614
G1 X90.913 Y127.743 E3.71062
G1 X91.187 Y128.001 E3.72508
G1 X91.492 Y128.222 E3.73955
G1 X91.822 Y128.404 E3.75403
G1 X92.256 Y128.577 E3.77197
G1 X92.724 Y128.666 E3.79028
G1 X93.004 Y128.683 E3.80105
G1 X92.537 Y128.743 E3.81914
G1 X92.083 Y128.859 E3.83714
G1 X91.654 Y129.06 E3.85534
G1 X91.336 Y129.262 E3.86981
G1 X91.046 Y129.502 E3.88427
G1 X90.721 Y129.848 E3.90251
G1 X90.419 Y130.326 E3.92423
G1 X90.213 Y130.846 E3.94572
G1 X90.105 Y131.406 E3.96762
G1 X90.105 Y131.878 E3.98576
G1 X90.153 Y132.252 E4.00024
G1 X90.27 Y132.709 E4.01836
G1 X90.471 Y133.135 E4.03646
G1 X90.672 Y133.453 E4.05091
G1 X90.913 Y133.743 E4.0654
G1 X91.187 Y134.001 E4.07985
G1 X91.492 Y134.222 E4.09432
G1 X91.822 Y134.404 E4.1088
G1 X92.256 Y134.577 E4.12675
G1 X92.724 Y134.666 E4.14505
G1 X93.004 Y134.683 E4.15582
G1 X92.537 Y134.743 E4.17391
G1 X92.083 Y134.859 E4.19191
G1 X91.654 Y135.06 E4.21011
G1 X91.336 Y135.262 E4.22459
G1 X91.046 Y135.502 E4.23905
G1 X90.721 Y135.848 E4.25728
G1 X90.419 Y136.326 E4.279
G1 X90.213 Y136.846 E4.30049
G1 X90.105 Y137.406 E4.3224
G1 X90.105 Y137.878 E4.34053
G1 X90.153 Y138.252 E4.35502
G1 X90.27 Y138.709 E4.37314
G1 X90.471 Y139.135 E4.39123
G1 X90.672 Y139.453 E4.40568
G1 X90.913 Y139.743 E4.42017
G1 X91.187 Y140.001 E4.43463
G1 X91.492 Y140.222 E4.4491
G1 X91.822 Y140.404 E4.46357
G1 X92.256 Y140.577 E4.48152
G1 X92.724 Y140.666 E4.49982
G1 X93.004 Y140.683 E4.5106
G1 X92.537 Y140.743 E4.52869
G1 X92.083 Y140.859 E4.54669
G1 X91.654 Y141.06 E4.56489
G1 X91.336 Y141.262 E4.57936
G1 X91.046 Y141.502 E4.59382
G1 X90.721 Y141.848 E4.61206
G1 X90.419 Y142.326 E4.63378
G1 X90.213 Y142.846 E4.65526
G1 X90.105 Y143.406 E4.67717
G1 X90.105 Y143.878 E4.6953
G1 X90.153 Y144.252 E4.70979
G1 X90.27 Y144.709 E4.72791
G1 X90.471 Y145.135 E4.74601
G1 X90.672 Y145.453 E4.76046
G1 X90.913 Y145.743 E4.77494
G1 X91.187 Y146.001 E4.7894
G1 X91.492 Y146.222 E4.80387
G1 X91.822 Y146.404 E4.81835
G1 X92.256 Y146.577 E4.8363
G1 X92.724 Y146.666 E4.8546
G1 X93.004 Y146.683 E4.86537
G1 X92.537 Y146.743 E4.88346
G1 X92.083 Y146.859 E4.90146
G1 X91.654 Y147.06 E4.91966
G1 X91.336 Y147.262 E4.93413
G1 X91.046 Y147.502 E4.94859
G1 X90.721 Y147.848 E4.96683
G1 X90.419 Y148.326 E4.98855
G1 X90.213 Y148.846 E5.01004
G1 X90.105 Y149.406 E5.03194
G1 X90.105 Y149.878 E5.05008
G1 X90.153 Y150.252 E5.06456
G1 X90.27 Y150.709 E5.08268
G1 X90.471 Y151.135 E5.10078
G1 X90.672 Y151.453 E5.11523
G1 X90.913 Y151.743 E5.12972
G1 X91.187 Y152.001 E5.14417
G1 X91.492 Y152.222 E5.15864
G1 X91.822 Y152.404 E5.17312
G1 X92.256 Y152.577 E5.19107
G1 X92.724 Y152.666 E5.20937
G1 X93.1 Y152.689 E5.22384
G1 X93.1 Y152.846 E5.22987
G1 X92.72 Y153.021 E5.24594
G1 X92.324 Y153.271 E5.26393
G1 X91.978 Y153.596 E5.28217
G1 X91.738 Y153.886 E5.29663
G1 X91.536 Y154.204 E5.3111
G1 X91.335 Y154.632 E5.32927
G1 X91.218 Y155.087 E5.34731
G1 X91.171 Y155.461 E5.3618
G1 X91.171 Y155.838 E5.37628
G1 X91.218 Y156.212 E5.39076
G1 X91.335 Y156.667 E5.40881
G1 X91.536 Y157.095 E5.42697
G1 X91.738 Y157.413 E5.44144
G1 X91.978 Y157.703 E5.4559
G1 X92.324 Y158.028 E5.47414
G1 X92.802 Y158.33 E5.49586
G1 X93.322 Y158.536 E5.51735
G1 X93.882 Y158.644 E5.53926
G1 X94.447 Y158.644 E5.56096
G1 X94.911 Y158.555 E5.57911
G1 X95.27 Y158.439 E5.5936
G1 X95.611 Y158.278 E5.60809
G1 X95.929 Y158.077 E5.62254
G1 X96.219 Y157.836 E5.63703
G1 X96.477 Y157.562 E5.65148
G1 X96.698 Y157.257 E5.66595
G1 X96.926 Y156.844 E5.68408
G1 X97.071 Y156.396 E5.70217
G1 X97.142 Y156.026 E5.71664
G1 X97.159 Y155.744 E5.72749
G1 X97.218 Y156.212 E5.74561
G1 X97.335 Y156.667 E5.76366
G1 X97.536 Y157.095 E5.78182
G1 X97.738 Y157.413 E5.7963
G1 X97.978 Y157.703 E5.81076
G1 X98.324 Y158.028 E5.82899
G1 X98.802 Y158.33 E5.85071
G1 X99.322 Y158.536 E5.8722
G1 X99.882 Y158.644 E5.89411
G1 X100.447 Y158.644 E5.91581
G1 X100.911 Y158.555 E5.93396
G1 X101.27 Y158.439 E5.94846
G1 X101.611 Y158.278 E5.96294
G1 X101.929 Y158.077 E5.9774
G1 X102.219 Y157.836 E5.99188
G1 X102.477 Y157.562 E6.00634
G1 X102.698 Y157.257 E6.02081
G1 X102.926 Y156.844 E6.03893
G1 X103.071 Y156.396 E6.05702
G1 X103.142 Y156.026 E6.07149
G1 X103.159 Y155.744 E6.08235
G1 X103.218 Y156.212 E6.10047
G1 X103.335 Y156.667 E6.11851
G1 X103.536 Y157.095 E6.13668
G1 X103.738 Y157.413 E6.15115
G1 X103.978 Y157.703 E6.16561
G1 X104.324 Y158.028 E6.18385
G1 X104.802 Y158.33 E6.20557
G1 X105.322 Y158.536 E6.22705
G1 X105.882 Y158.644 E6.24896
G1 X106.447 Y158.644 E6.27067
G1 X106.911 Y158.555 E6.28882
G1 X107.27 Y158.439 E6.30331
G1 X107.611 Y158.278 E6.3178
G1 X107.929 Y158.077 E6.33225
G1 X108.219 Y157.836 E6.34673
G1 X108.477 Y157.562 E6.36119
G1 X108.698 Y157.257 E6.37566
G1 X108.926 Y156.844 E6.39378
G1 X109.071 Y156.396 E6.41187
G1 X109.142 Y156.026 E6.42635
G1 X109.159 Y155.744 E6.4372
G1 X109.218 Y156.212 E6.45532
G1 X109.335 Y156.667 E6.47337
G1 X109.536 Y157.095 E6.49153
G1 X109.738 Y157.413 E6.506
G1 X109.978 Y157.703 E6.52046
G1 X110.324 Y158.028 E6.5387
G1 X110.802 Y158.33 E6.56042
G1 X111.322 Y158.536 E6.58191
G1 X111.882 Y158.644 E6.60382
G1 X112.447 Y158.644 E6.62552
G1 X112.911 Y158.555 E6.64367
G1 X113.27 Y158.439 E6.65816
G1 X113.611 Y158.278 E6.67265
G1 X113.929 Y158.077 E6.6871
G1 X114.219 Y157.836 E6.70159
G1 X114.477 Y157.562 E6.71605
G1 X114.698 Y157.257 E6.73051
G1 X114.926 Y156.844 E6.74864
G1 X115.071 Y156.396 E6.76673
G1 X115.142 Y156.026 E6.7812
G1 X115.159 Y155.744 E6.79205
G1 X115.218 Y156.212 E6.81017
G1 X115.335 Y156.667 E6.82822
G1 X115.536 Y157.095 E6.84639
G1 X115.738 Y157.413 E6.86086
