;FLAVOR:Marlin
;TIME:978.514
;Filament used:0.901982m
;Material Diameter:1.75
;Material Density:1.24
;Filament Cost:0.053804
;Filament Weight:2.690205
;Filament Length:0.901982
;Layer height:0.2
;MINX:1.851
;MINY:2.609
;MINZ:0.2
;MAXX:158.939
;MAXY:127.24
;MAXZ:20.401
;OuterWall Time:197.961
;InnerWall Time:147.288
;Skin Time:224.765
;Support Time:0
;SkirtBrim Time:172.308
;Infill Time:5.37032
;Support Infills Time:0
;Combing Time:79.2346
;Retraction Time:151.587
;PrimeTower Time:0
;;;;;;;;;;;;;;;;;;;;;;;;;;;;;;;;;;;;;;;;;;;;;;;;;;;;;;;;;;;;;;;;;;;;;;;
;Creality Print GCode Generated by CXEngine
;CRSLICE_GIT_HASH:58ee74d
;Creality Print Version : V4.3.8.6984
;CXEngine Release Time:2023-12-04 18:16:29
;Gcode Generated Time:2024-04-14 22:36:46
;----------Machine Config--------------
;Machine Name:Ender-3 V3 SE
;Machine Height:250
;Machine Width:220
;Machine Depth:220
;Material Type:PLA
;Material Name:CR-PLA_1.75
;Number of Extruders:1
;ExtruderParams[0] Nozzle Diameter:1000
;----------Profile Config---------------
;Wall Thickness:0.8
;Top/Bottom Thickness:0.8
;Out Wall Line Width:0.42
;Inner Wall Line Width:0.45
;Inital Height:200
;Wall Line Count:2
;Infill Line Distance:8
;Infill Pattern:grid
;Infill Sparse Density:10
;Infill Wipe Distance:0
;Print Temperature:195
;Bed Temperature:60
;Support Enable:false
;Support Density:15
;Support Angle:60
;Adhesion Type:brim
;machine is belt:false
;machine belt offset:10
;machine belt offset Y:0
;Raft Base Line Spacing:1.6
;Wait Heatup Sync:true
;Enable Ironing:false
;Material Type:PLA
;Max volumetric speed:20
;Preview Img Type:png
;Screen Size:Sermoon D3
;----------Shell Config----------------
;Outer Wall Wipe Distance:2000
;Outer Inset First:false
;Infill Before Walls:false
;Infill Overlap:0.09
;Fill Gaps Between Walls:everywhere
;Minimum Infill Area:30
;Top Surface Skin Layer:0
;Top Layers:4
;Z Seam Alignment:sharpest_corner
;Seam Corner Preference:z_seam_corner_inner
;Z Seam X:110
;Z Seam Y:220
;Horizontal Expansion:0
;Top/Bottom Pattern:zigzag
;Ironing Pattern:zigzag
;Vase Model:false
;----------Support Config----------------
;Support Type:everywhere
;Support Pattern:zigzag
;Support Infill Layer Thickness:0.2
;Minimum Support Area:1
;Enable Support Roof:true
;Support Roof Thickness:0.8
;Support Roof Pattern:lines
;Connect Support Lines:0
;Connect Support ZigZags:1
;Minimum Support X/Y Distance:0.2
;Support Line Distance:2.67
; ---------PrintSpeed & Travel----------
;Enable Print Cool:true
;Avoid Printed Parts Traveling:true
;Enable Retraction:true
;Retraction Distance:1.2
;Retraction Speed:30
;Retraction Prime Speed:30
;Maximum Retraction Count:100
;Minimum Extrusion Distance Window:0.8
;Z Hop When Retracted:true
;Z Hop Height:0.4
;Retract Before Outer Wall:true

;Outer Wall Speed:60
;Inner Wall Speed:90
;Infill Speed:180
;Top/Bottom Speed:50
;Travel Speed:150
;Initial Layer Speed:20
;Skirt/Brim Speed:25
;Prime Tower Speed:60
;Outer Wall Acceleration:1000
;Inner Wall Acceleration:2000
;Infill Acceleration:2500
;Top/Bottom Acceleration:2500
;Travel Acceleration:2500
;Initial Layer Print Acceleration:500
;Initial Layer Travel Acceleration:500
;Skirt/Brim Acceleration:500
;Combing Mode:off
; --------SpecialModel&Mesh Fixes--------
;Union Overlapping Volum:true
;Remove All Holes:false
;Maximum Travel Resolution:0.25
;Maximum Deviation:0.05
;Maximum Model Angle:0.872665
;IS Mold Print:false
;Make Overhang Printable:false
;Enable Coasting:false
;Coasting Volumes:0.064
;Coasting Speed:0.9
;Raft AirGap:0.25
;Layer0 ZOverLap:0.13
;Adaptive Layers:0
;---------------------End of Head--------------------------
M140 S60
M105
M190 S60
M104 S195
M82 ;absolute extrusion mode
M220 S100 ;Reset Feedrate
M221 S100 ;Reset Flowrate

G28 ;Home

G92 E0 ;Reset Extruder
G1 Z2.0 F3000 ;Move Z Axis up
G1 X-2.1 Y20 Z0.28 F5000.0 ;Move to start position
M109 S195.000000
G1 X-2.1 Y145.0 Z0.28 F1500.0 E15 ;Draw the first line
G1 X-2.4 Y145.0 Z0.28 F5000.0 ;Move to side a little
G1 X-2.4 Y20 Z0.28 F1500.0 E30 ;Draw the second line
G92 E0  ;Reset Extruder
G1 E-1.0000 F1800 ;Retract a bit
G1 Z2.0 F3000 ;Move Z Axis up
G1 E0.0000 F1800 

G92 E0
G92 E0
G1 F1800 E-1.2
;LAYER_COUNT:11

;LAYER:0
M106 S0
M204 S500
;;retract;;
G1 F1800 E0
G1 F1800 E-1.2
G0 F4800 X1.851 Y2.609 Z20.401
G0 X68.156 Y96.062 Z0.6
;TYPE:SKIRT
G1 F600 Z0.2
G1 F1800 E0
G1 F1500 X67.491 Y96.571 E0.03217
G1 X67 Y96.981 E0.05674
G1 X66.492 Y97.441 E0.08307
G1 X66.163 Y97.758 E0.10062
G1 X65.798 Y98.131 E0.12067
G1 X65.493 Y98.461 E0.13793
G1 X65.029 Y98.997 E0.16517
G1 X64.638 Y99.487 E0.18925
G1 X64.262 Y99.995 E0.21353
G1 X64.036 Y100.32 E0.22873
G1 X63.789 Y100.694 E0.24595
G1 X63.417 Y101.3 E0.27327
G1 X63.095 Y101.877 E0.29865
G1 X62.718 Y102.628 E0.33093
G1 X62.494 Y103.125 E0.35188
G1 X62.264 Y103.678 E0.37488
G1 X62.022 Y104.329 E0.40156
G1 X61.833 Y104.905 E0.42485
G1 X61.674 Y105.447 E0.44655
G1 X61.563 Y105.874 E0.4635
G1 X61.466 Y106.288 E0.47983
G1 X61.337 Y106.936 E0.50522
G1 X61.261 Y107.386 E0.52275
G1 X61.186 Y107.931 E0.54388
G1 X61.139 Y108.372 E0.56092
G1 X61.087 Y109.052 E0.58712
G1 X61.064 Y109.687 E0.61153
G1 X61.07 Y110.535 E0.6441
G1 X61.106 Y111.246 E0.67145
G1 X61.163 Y111.871 E0.69556
G1 X61.244 Y112.504 E0.72008
G1 X61.347 Y113.123 E0.74418
G1 X61.473 Y113.741 E0.76841
G1 X61.565 Y114.129 E0.78373
G1 X61.785 Y114.942 E0.81609
G1 X61.98 Y115.554 E0.84076
G1 X62.231 Y116.239 E0.86879
G1 X62.4 Y116.657 E0.88611
G1 X62.585 Y117.082 E0.90391
G1 X62.774 Y117.488 E0.92112
G1 X63.039 Y118.013 E0.94371
G1 X63.327 Y118.539 E0.96674
G1 X63.618 Y119.032 E0.98874
G1 X63.858 Y119.411 E1.00597
G1 X64.127 Y119.812 E1.02452
G1 X64.388 Y120.179 E1.04182
G1 X64.733 Y120.633 E1.06372
G1 X65.111 Y121.099 E1.08678
G1 X65.512 Y121.56 E1.11025
G1 X65.819 Y121.89 E1.12756
G1 X66.267 Y122.346 E1.15212
G1 X66.543 Y122.608 E1.16674
G1 X66.991 Y123.012 E1.18991
G1 X67.218 Y123.206 E1.20138
G1 X67.615 Y123.526 E1.22097
G1 X68.092 Y123.889 E1.244
G1 X68.468 Y124.16 E1.2618
G1 X69.085 Y124.569 E1.29024
G1 X69.468 Y124.804 E1.3075
G1 X70.043 Y125.133 E1.33295
G1 X70.388 Y125.317 E1.34797
G1 X70.987 Y125.61 E1.37359
G1 X71.397 Y125.796 E1.39088
G1 X72.068 Y126.074 E1.41879
G1 X72.679 Y126.297 E1.44377
G1 X73.113 Y126.438 E1.4613
G1 X73.688 Y126.609 E1.48435
G1 X74.142 Y126.731 E1.50241
G1 X74.837 Y126.889 E1.52979
G1 X75.503 Y127.01 E1.55579
G1 X76.322 Y127.125 E1.58756
G1 X76.953 Y127.187 E1.61192
G1 X77.613 Y127.226 E1.63732
G1 X78.183 Y127.239 E1.65922
G1 X149.93 Y127.24 E4.41541
G1 X150.496 Y127.222 E4.43717
G1 X151.34 Y127.129 E4.46978
G1 X152.171 Y126.957 E4.50238
G1 X152.982 Y126.707 E4.53499
G1 X153.766 Y126.382 E4.56759
G1 X154.516 Y125.985 E4.60019
G1 X155.226 Y125.519 E4.63281
G1 X155.888 Y124.988 E4.66541
G1 X156.498 Y124.398 E4.69802
G1 X157.049 Y123.752 E4.73063
G1 X157.537 Y123.058 E4.76322
G1 X157.957 Y122.321 E4.79581
G1 X158.306 Y121.547 E4.82843
G1 X158.581 Y120.744 E4.86103
G1 X158.779 Y119.919 E4.89363
G1 X158.899 Y119.079 E4.92622
G1 X158.939 Y118.231 E4.95884
G1 X158.939 Y101.769 E5.59123
G1 X158.921 Y101.203 E5.61299
G1 X158.828 Y100.359 E5.6456
G1 X158.656 Y99.528 E5.6782
G1 X158.406 Y98.717 E5.71081
G1 X158.081 Y97.933 E5.74341
G1 X157.684 Y97.183 E5.77601
G1 X157.218 Y96.473 E5.80863
G1 X156.687 Y95.811 E5.84123
G1 X156.097 Y95.201 E5.87384
G1 X155.451 Y94.65 E5.90645
G1 X154.757 Y94.162 E5.93904
G1 X154.02 Y93.742 E5.97163
G1 X153.246 Y93.393 E6.00425
G1 X152.443 Y93.118 E6.03685
G1 X151.618 Y92.92 E6.06945
G1 X150.778 Y92.8 E6.10204
G1 X149.93 Y92.76 E6.13466
G1 X78.301 Y92.76 E8.88632
G1 X77.674 Y92.773 E8.91041
G1 X77.129 Y92.803 E8.93138
G1 X76.532 Y92.854 E8.95439
G1 X75.961 Y92.921 E8.97648
G1 X75.515 Y92.988 E8.99381
G1 X74.934 Y93.095 E9.0165
G1 X74.347 Y93.223 E9.03958
G1 X73.911 Y93.329 E9.05682
G1 X73.274 Y93.509 E9.08225
G1 X72.988 Y93.599 E9.09376
G1 X72.512 Y93.764 E9.11312
G1 X71.95 Y93.976 E9.13619
G1 X71.257 Y94.265 E9.16504
G1 X70.679 Y94.537 E9.18958
G1 X70.219 Y94.774 E9.20945
G1 X69.694 Y95.065 E9.23251
G1 X69.159 Y95.387 E9.2565
G1 X68.655 Y95.714 E9.27958
G1 X68.156 Y96.062 E9.30295
G0 F4800 X68.433 Y96.432
G1 F1500 X67.784 Y96.929 E9.33435
G1 X67.306 Y97.327 E9.35825
G1 X66.813 Y97.774 E9.38381
G1 X66.484 Y98.091 E9.40136
G1 X66.137 Y98.445 E9.42041
G1 X65.576 Y99.065 E9.45253
G1 X65.185 Y99.537 E9.47607
G1 X65.001 Y99.772 E9.48754
G1 X64.636 Y100.266 E9.51113
G1 X64.175 Y100.949 E9.54279
G1 X63.968 Y101.278 E9.55772
G1 X63.644 Y101.834 E9.58244
G1 X63.332 Y102.426 E9.60815
G1 X63.134 Y102.831 E9.62547
G1 X62.92 Y103.303 E9.64537
G1 X62.69 Y103.856 E9.66838
G1 X62.461 Y104.473 E9.69366
G1 X62.272 Y105.049 E9.71695
G1 X62.121 Y105.564 E9.73757
G1 X62.01 Y105.991 E9.75452
G1 X61.918 Y106.383 E9.76999
G1 X61.792 Y107.013 E9.79467
G1 X61.716 Y107.463 E9.8122
G1 X61.645 Y107.98 E9.83225
G1 X61.598 Y108.421 E9.84928
G1 X61.548 Y109.081 E9.87471
G1 X61.526 Y109.699 E9.89847
G1 X61.532 Y110.527 E9.93027
G1 X61.567 Y111.217 E9.95682
G1 X61.623 Y111.825 E9.98027
G1 X61.661 Y112.145 E9.99265
G1 X61.75 Y112.747 E10.01603
G1 X61.861 Y113.349 E10.03954
G1 X62.012 Y114.013 E10.0657
G1 X62.227 Y114.807 E10.0973
G1 X62.416 Y115.401 E10.12125
G1 X62.659 Y116.066 E10.14845
G1 X62.828 Y116.484 E10.16577
G1 X63.003 Y116.887 E10.18265
G1 X63.192 Y117.293 E10.19985
G1 X63.444 Y117.791 E10.22129
G1 X63.732 Y118.317 E10.24433
G1 X64.008 Y118.785 E10.2652
G1 X64.248 Y119.164 E10.28243
G1 X64.504 Y119.544 E10.30003
G1 X64.765 Y119.911 E10.31733
G1 X65.092 Y120.342 E10.33812
G1 X65.47 Y120.808 E10.36117
G1 X65.85 Y121.246 E10.38344
G1 X66.157 Y121.576 E10.40076
G1 X66.593 Y122.018 E10.42461
G1 X67.076 Y122.471 E10.45005
G1 X67.518 Y122.854 E10.47251
G1 X67.895 Y123.158 E10.49112
G1 X68.372 Y123.521 E10.51415
G1 X68.729 Y123.779 E10.53107
G1 X69.327 Y124.175 E10.55862
G1 X69.71 Y124.41 E10.57588
G1 X70.268 Y124.73 E10.60059
G1 X70.596 Y124.904 E10.61486
G1 X71.178 Y125.19 E10.63977
G1 X71.959 Y125.534 E10.67255
G1 X72.55 Y125.762 E10.69689
G1 X73.245 Y125.995 E10.72504
G1 X73.82 Y126.166 E10.74809
G1 X74.251 Y126.282 E10.76524
G1 X74.925 Y126.436 E10.7918
G1 X75.571 Y126.553 E10.81702
G1 X76.017 Y126.62 E10.83434
G1 X76.668 Y126.698 E10.85953
G1 X77.284 Y126.747 E10.88327
G1 X77.627 Y126.764 E10.89646
G1 X78.183 Y126.777 E10.91782
G1 X149.93 Y126.778 E13.67402
G1 X150.948 Y126.717 E13.7132
G1 X151.764 Y126.579 E13.74499
G1 X152.561 Y126.363 E13.77671
G1 X153.335 Y126.071 E13.80849
G1 X154.076 Y125.705 E13.84024
G1 X154.779 Y125.27 E13.872
G1 X155.436 Y124.768 E13.90376
G1 X156.042 Y124.206 E13.93551
G1 X156.59 Y123.587 E13.96727
G1 X157.077 Y122.919 E13.99902
G1 X157.496 Y122.206 E14.03079
G1 X157.845 Y121.457 E14.06254
G1 X158.119 Y120.677 E14.0943
G1 X158.317 Y119.875 E14.12603
G1 X158.437 Y119.057 E14.15779
G1 X158.477 Y118.231 E14.18956
G1 X158.477 Y101.769 E14.82195
G1 X158.416 Y100.751 E14.86113
G1 X158.278 Y99.935 E14.89292
G1 X158.062 Y99.138 E14.92464
G1 X157.77 Y98.364 E14.95642
G1 X157.404 Y97.623 E14.98817
G1 X156.969 Y96.92 E15.01993
G1 X156.467 Y96.263 E15.05169
G1 X155.905 Y95.657 E15.08344
G1 X155.286 Y95.109 E15.1152
G1 X154.618 Y94.622 E15.14696
G1 X153.905 Y94.203 E15.17873
G1 X153.156 Y93.854 E15.21047
G1 X152.376 Y93.58 E15.24223
G1 X151.574 Y93.382 E15.27397
G1 X150.756 Y93.262 E15.30573
G1 X149.93 Y93.222 E15.33749
G1 X78.301 Y93.222 E18.08916
G1 X77.685 Y93.235 E18.11282
G1 X77.169 Y93.263 E18.13268
G1 X76.572 Y93.314 E18.15569
G1 X76.029 Y93.378 E18.1767
G1 X75.583 Y93.445 E18.19402
G1 X75.032 Y93.546 E18.21554
G1 X74.445 Y93.674 E18.23862
G1 X74.032 Y93.775 E18.25496
G1 X73.412 Y93.95 E18.2797
G1 X73.126 Y94.04 E18.29122
G1 X72.675 Y94.196 E18.30955
G1 X72.113 Y94.408 E18.33263
G1 X71.715 Y94.57 E18.34914
G1 X71.149 Y94.823 E18.37295
G1 X70.879 Y94.953 E18.38446
G1 X70.443 Y95.179 E18.40333
G1 X69.918 Y95.47 E18.42639
G1 X69.41 Y95.775 E18.44915
G1 X68.906 Y96.102 E18.47223
G1 X68.433 Y96.432 E18.49439
G0 F4800 X68.71 Y96.802
G1 F1500 X68.076 Y97.286 E18.52503
G1 X67.612 Y97.673 E18.54824
G1 X67.133 Y98.107 E18.57307
G1 X66.804 Y98.424 E18.59062
G1 X66.477 Y98.758 E18.60858
G1 X66.172 Y99.088 E18.62584
G1 X65.735 Y99.593 E18.65149
G1 X65.365 Y100.057 E18.67429
G1 X65.01 Y100.538 E18.69726
G1 X64.561 Y101.203 E18.72808
G1 X64.365 Y101.515 E18.74224
G1 X64.05 Y102.055 E18.76625
G1 X63.747 Y102.629 E18.79119
G1 X63.549 Y103.034 E18.8085
G1 X63.347 Y103.48 E18.82731
G1 X63.117 Y104.033 E18.85032
G1 X62.9 Y104.617 E18.87425
G1 X62.711 Y105.193 E18.89754
G1 X62.568 Y105.68 E18.91704
G1 X62.37 Y106.478 E18.94863
G1 X62.248 Y107.09 E18.9726
G1 X62.172 Y107.54 E18.99013
G1 X62.105 Y108.029 E19.00909
G1 X62.028 Y108.813 E19.03935
G1 X62.009 Y109.111 E19.05082
G1 X61.988 Y109.711 E19.07389
G1 X61.986 Y110.07 E19.08768
G1 X62.009 Y110.889 E19.11915
G1 X62.052 Y111.48 E19.14192
G1 X62.118 Y112.081 E19.16514
G1 X62.205 Y112.667 E19.1879
G1 X62.313 Y113.253 E19.21079
G1 X62.459 Y113.896 E19.23612
G1 X62.669 Y114.671 E19.26697
G1 X62.852 Y115.249 E19.29026
G1 X63.087 Y115.892 E19.31656
G1 X63.256 Y116.31 E19.33388
G1 X63.422 Y116.692 E19.34988
G1 X63.611 Y117.098 E19.36708
G1 X63.849 Y117.569 E19.38735
G1 X64.137 Y118.095 E19.41039
G1 X64.398 Y118.537 E19.43011
G1 X64.638 Y118.916 E19.44734
G1 X64.88 Y119.277 E19.46404
G1 X65.141 Y119.644 E19.48134
G1 X65.451 Y120.051 E19.50099
G1 X65.829 Y120.517 E19.52404
G1 X66.188 Y120.931 E19.54509
G1 X66.495 Y121.261 E19.56241
G1 X66.919 Y121.691 E19.58561
G1 X67.388 Y122.13 E19.61029
G1 X67.818 Y122.503 E19.63215
G1 X68.175 Y122.791 E19.64977
G1 X68.652 Y123.154 E19.6728
G1 X68.989 Y123.397 E19.68876
G1 X69.569 Y123.781 E19.71548
G1 X69.952 Y124.016 E19.73275
G1 X70.494 Y124.327 E19.75675
G1 X70.804 Y124.492 E19.77024
G1 X71.369 Y124.769 E19.79441
G1 X71.779 Y124.955 E19.81171
G1 X72.13 Y125.104 E19.82636
G1 X72.704 Y125.326 E19.85
G1 X73.376 Y125.553 E19.87725
G1 X73.951 Y125.724 E19.90029
G1 X74.359 Y125.833 E19.91652
G1 X75.012 Y125.982 E19.94225
G1 X75.64 Y126.096 E19.96677
G1 X76.421 Y126.206 E19.99706
G1 X77.018 Y126.265 E20.02011
G1 X77.641 Y126.302 E20.04409
G1 X78.183 Y126.315 E20.06491
G1 X149.93 Y126.316 E22.82111
G1 X150.564 Y126.291 E22.84548
G1 X151.362 Y126.188 E22.87639
G1 X152.145 Y126.007 E22.90726
G1 X152.906 Y125.748 E22.93814
G1 X153.638 Y125.415 E22.96904
G1 X154.333 Y125.012 E22.9999
G1 X154.985 Y124.541 E23.0308
G1 X155.587 Y124.007 E23.06171
G1 X156.133 Y123.417 E23.09259
G1 X156.617 Y122.775 E23.12348
G1 X157.035 Y122.089 E23.15434
G1 X157.383 Y121.364 E23.18523
G1 X157.658 Y120.608 E23.21614
G1 X157.855 Y119.829 E23.247
G1 X157.975 Y119.034 E23.27789
G1 X158.015 Y118.231 E23.30878
G1 X158.015 Y101.769 E23.94117
G1 X157.99 Y101.135 E23.96555
G1 X157.887 Y100.337 E23.99645
G1 X157.706 Y99.554 E24.02733
G1 X157.447 Y98.793 E24.05821
G1 X157.114 Y98.061 E24.0891
G1 X156.711 Y97.366 E24.11996
G1 X156.24 Y96.714 E24.15086
G1 X155.706 Y96.112 E24.18178
G1 X155.116 Y95.566 E24.21266
G1 X154.474 Y95.082 E24.24354
G1 X153.788 Y94.664 E24.2744
G1 X153.063 Y94.316 E24.3053
G1 X152.307 Y94.041 E24.3362
G1 X151.528 Y93.844 E24.36707
G1 X150.733 Y93.724 E24.39795
G1 X149.93 Y93.684 E24.42884
G1 X78.301 Y93.684 E27.1805
G1 X77.696 Y93.696 E27.20375
G1 X77.208 Y93.723 E27.22252
G1 X76.611 Y93.774 E27.24554
G1 X76.098 Y93.835 E27.26539
G1 X75.652 Y93.902 E27.28271
G1 X75.13 Y93.998 E27.3031
G1 X74.543 Y94.126 E27.32618
G1 X73.864 Y94.299 E27.3531
G1 X73.265 Y94.481 E27.37715
G1 X72.838 Y94.628 E27.3945
G1 X72.276 Y94.84 E27.41757
G1 X71.899 Y94.994 E27.43321
G1 X71.35 Y95.239 E27.45631
G1 X71.08 Y95.369 E27.46782
G1 X70.667 Y95.583 E27.48569
G1 X70.142 Y95.874 E27.50875
G1 X69.661 Y96.162 E27.53029
G1 X69.157 Y96.489 E27.55337
G1 X68.71 Y96.802 E27.57433
G0 F4800 X68.987 Y97.172
G1 F1500 X68.369 Y97.643 E27.60418
G1 X67.918 Y98.019 E27.62673
G1 X67.694 Y98.217 E27.63822
G1 X67.125 Y98.757 E27.66835
G1 X66.816 Y99.072 E27.68531
G1 X66.511 Y99.402 E27.70257
G1 X66.088 Y99.891 E27.72741
G1 X65.729 Y100.342 E27.74955
G1 X65.384 Y100.809 E27.77186
G1 X64.946 Y101.458 E27.80193
G1 X64.607 Y102.01 E27.82682
G1 X64.313 Y102.539 E27.85007
