;FLAVOR:Marlin
;TIME:1748.08
;Filament used:1.60817m
;Material Diameter:1.75
;Material Density:1.24
;Filament Cost:0.095929
;Filament Weight:4.796448
;Filament Length:1.608170
;Layer height:0.2
;MINX:60.475
;MINY:92.17
;MINZ:0.24
;MAXX:159.53
;MAXY:127.83
;MAXZ:3.49
;OuterWall Time:197.957
;InnerWall Time:147.3
;Skin Time:224.727
;Support Time:151.635
;SkirtBrim Time:0
;Infill Time:5.37003
;Support Infills Time:0
;Combing Time:79.1344
;Retraction Time:158.033
;PrimeTower Time:783.924
;;;;;;;;;;;;;;;;;;;;;;;;;;;;;;;;;;;;;;;;;;;;;;;;;;;;;;;;;;;;;;;;;;;;;
;Creality Print GCode Generated by CXEngine
;CRSLICE_GIT_HASH:58ee74d
;Creality Print Version : V4.3.8.6984
;CXEngine Release Time:2023-12-04 18:16:29
;Gcode Generated Time:2024-04-14 22:37:41
;----------Machine Config--------------
;Machine Name:Ender-3 V3 SE
;Machine Height:250
;Machine Width:220
;Machine Depth:220
;Material Type:PLA
;Material Name:CR-PLA_1.75
;Number of Extruders:1
;ExtruderParams[0] Nozzle Diameter:1000
;----------Profile Config---------------
;Wall Thickness:0.8
;Top/Bottom Thickness:0.8
;Out Wall Line Width:0.42
;Inner Wall Line Width:0.45
;Inital Height:200
;Wall Line Count:2
;Infill Line Distance:8
;Infill Pattern:grid
;Infill Sparse Density:10
;Infill Wipe Distance:0
;Print Temperature:195
;Bed Temperature:60
;Support Enable:false
;Support Density:15
;Support Angle:60
;Adhesion Type:raft
;machine is belt:false
;machine belt offset:10
;machine belt offset Y:0
;Raft Base Line Spacing:1.6
;Wait Heatup Sync:true
;Enable Ironing:false
;Material Type:PLA
;Max volumetric speed:20
;Preview Img Type:png
;Screen Size:Sermoon D3
;----------Shell Config----------------
;Outer Wall Wipe Distance:2000
;Outer Inset First:false
;Infill Before Walls:false
;Infill Overlap:0.09
;Fill Gaps Between Walls:everywhere
;Minimum Infill Area:30
;Top Surface Skin Layer:0
;Top Layers:4
;Z Seam Alignment:sharpest_corner
;Seam Corner Preference:z_seam_corner_inner
;Z Seam X:110
;Z Seam Y:220
;Horizontal Expansion:0
;Top/Bottom Pattern:zigzag
;Ironing Pattern:zigzag
;Vase Model:false
;----------Support Config----------------
;Support Type:everywhere
;Support Pattern:zigzag
;Support Infill Layer Thickness:0.2
;Minimum Support Area:1
;Enable Support Roof:true
;Support Roof Thickness:0.8
;Support Roof Pattern:lines
;Connect Support Lines:0
;Connect Support ZigZags:1
;Minimum Support X/Y Distance:0.2
;Support Line Distance:2.67
; ---------PrintSpeed & Travel----------
;Enable Print Cool:true
;Avoid Printed Parts Traveling:true
;Enable Retraction:true
;Retraction Distance:1.2
;Retraction Speed:30
;Retraction Prime Speed:30
;Maximum Retraction Count:100
;Minimum Extrusion Distance Window:0.8
;Z Hop When Retracted:true
;Z Hop Height:0.4
;Retract Before Outer Wall:true

;Outer Wall Speed:60
;Inner Wall Speed:90
;Infill Speed:180
;Top/Bottom Speed:50
;Travel Speed:150
;Initial Layer Speed:20
;Skirt/Brim Speed:25
;Prime Tower Speed:60
;Outer Wall Acceleration:1000
;Inner Wall Acceleration:2000
;Infill Acceleration:2500
;Top/Bottom Acceleration:2500
;Travel Acceleration:2500
;Initial Layer Print Acceleration:500
;Initial Layer Travel Acceleration:500
;Skirt/Brim Acceleration:500
;Combing Mode:off
; --------SpecialModel&Mesh Fixes--------
;Union Overlapping Volum:true
;Remove All Holes:false
;Maximum Travel Resolution:0.25
;Maximum Deviation:0.05
;Maximum Model Angle:0.872665
;IS Mold Print:false
;Make Overhang Printable:false
;Enable Coasting:false
;Coasting Volumes:0.064
;Coasting Speed:0.9
;Raft AirGap:0.25
;Layer0 ZOverLap:0.13
;Adaptive Layers:0
;---------------------End of Head--------------------------
M140 S60
M105
M190 S60
M104 S195
M82 ;absolute extrusion mode
M220 S100 ;Reset Feedrate
M221 S100 ;Reset Flowrate

G28 ;Home

G92 E0 ;Reset Extruder
G1 Z2.0 F3000 ;Move Z Axis up
G1 X-2.1 Y20 Z0.28 F5000.0 ;Move to start position
M109 S195.000000
G1 X-2.1 Y145.0 Z0.28 F1500.0 E15 ;Draw the first line
G1 X-2.4 Y145.0 Z0.28 F5000.0 ;Move to side a little
G1 X-2.4 Y20 Z0.28 F1500.0 E30 ;Draw the second line
G92 E0  ;Reset Extruder
G1 E-1.0000 F1800 ;Retract a bit
G1 Z2.0 F3000 ;Move Z Axis up
G1 E0.0000 F1800 

G92 E0
G92 E0
G1 F1800 E-1.2
;LAYER_COUNT:11

;LAYER:-6
M106 S0
M204 S2500
G0 F9000 X66.659 Y96.496 Z0.24
M204 S3000
;TYPE:SUPPORT-INTERFACE
G1 F1800 E0
G1 F1200 X66.349 Y96.77 E0.03303
G1 X65.789 Y97.3 E0.09457
G1 X65.398 Y97.696 E0.139
G1 X65.11 Y98.006 E0.17277
G1 X64.591 Y98.601 E0.2358
G1 X64.178 Y99.116 E0.28849
G1 X63.782 Y99.651 E0.34163
G1 X63.302 Y100.362 E0.4101
G1 X63.05 Y100.764 E0.44798
G1 X62.733 Y101.308 E0.49824
G1 X62.406 Y101.924 E0.55391
G1 X62.164 Y102.421 E0.59803
G1 X61.965 Y102.862 E0.63665
G1 X61.734 Y103.414 E0.68442
G1 X61.543 Y103.912 E0.72699
G1 X61.425 Y104.246 E0.75527
G1 X61.227 Y104.861 E0.80684
G1 X60.982 Y105.762 E0.88138
G1 X60.83 Y106.436 E0.93653
G1 X60.67 Y107.353 E1.01084
G1 X60.595 Y107.906 E1.05538
G1 X60.517 Y108.723 E1.1209
G1 X60.484 Y109.334 E1.16974
G1 X60.475 Y109.664 E1.19609
G1 X60.479 Y110.493 E1.26227
G1 X60.512 Y111.208 E1.3194
G1 X60.545 Y111.624 E1.35271
G1 X60.614 Y112.257 E1.40354
G1 X60.764 Y113.213 E1.48079
G1 X60.896 Y113.87 E1.53428
G1 X61.096 Y114.672 E1.60026
G1 X61.222 Y115.117 E1.63718
G1 X61.413 Y115.717 E1.68744
G1 X61.697 Y116.497 E1.7537
G1 X62.033 Y117.294 E1.82274
G1 X62.258 Y117.777 E1.86528
G1 X62.485 Y118.223 E1.90522
G1 X62.812 Y118.826 E1.95998
G1 X63.114 Y119.338 E2.00743
G1 X63.367 Y119.738 E2.04521
G1 X63.647 Y120.157 E2.08544
G1 X64.176 Y120.883 E2.15714
G1 X64.555 Y121.357 E2.20559
G1 X65.052 Y121.93 E2.26614
G1 X65.335 Y122.237 E2.29947
G1 X65.854 Y122.767 E2.35868
G1 X66.329 Y123.213 E2.41069
G1 X66.784 Y123.61 E2.45889
G1 X67.219 Y123.963 E2.50361
G1 X67.7 Y124.333 E2.55205
G1 X68.356 Y124.799 E2.61628
G1 X68.778 Y125.073 E2.65645
G1 X69.154 Y125.302 E2.69159
G1 X69.76 Y125.651 E2.74741
G1 X70.337 Y125.951 E2.79932
G1 X70.745 Y126.15 E2.83556
G1 X71.574 Y126.513 E2.9078
G1 X71.843 Y126.62 E2.93091
G1 X72.411 Y126.829 E2.97922
G1 X72.983 Y127.016 E3.02726
G1 X73.463 Y127.159 E3.06724
G1 X73.993 Y127.302 E3.11106
G1 X74.706 Y127.463 E3.16941
G1 X75.398 Y127.59 E3.22557
G1 X75.873 Y127.663 E3.26393
G1 X76.519 Y127.74 E3.31586
G1 X77.206 Y127.796 E3.37088
G1 X77.561 Y127.815 E3.39926
G1 X78.187 Y127.83 E3.44924
G1 X149.938 Y127.83 E9.17672
G1 X150.478 Y127.811 E9.21985
G1 X151.259 Y127.737 E9.28247
G1 X151.966 Y127.606 E9.33987
G1 X152.226 Y127.547 E9.36115
G1 X152.922 Y127.351 E9.41887
G1 X153.736 Y127.042 E9.48837
G1 X154.506 Y126.668 E9.5567
G1 X155.24 Y126.227 E9.62506
G1 X155.94 Y125.716 E9.69424
G1 X156.59 Y125.144 E9.76335
G1 X157.172 Y124.53 E9.83088
G1 X157.635 Y123.947 E9.89031
G1 X157.783 Y123.744 E9.91037
G1 X158.178 Y123.14 E9.96797
G1 X158.589 Y122.374 E10.03737
G1 X158.916 Y121.606 E10.104
G1 X159.188 Y120.767 E10.1744
G1 X159.359 Y120.015 E10.23596
G1 X159.491 Y119.094 E10.31023
G1 X159.53 Y118.154 E10.38533
G1 X159.53 Y101.777 E11.69261
G1 X159.51 Y101.22 E11.7371
G1 X159.436 Y100.438 E11.7998
G1 X159.305 Y99.733 E11.85704
G1 X159.246 Y99.473 E11.87833
G1 X159.05 Y98.777 E11.93604
G1 X158.741 Y97.963 E12.00555
G1 X158.367 Y97.193 E12.07388
G1 X157.926 Y96.459 E12.14223
G1 X157.415 Y95.759 E12.21141
G1 X156.843 Y95.109 E12.28053
G1 X156.233 Y94.53 E12.34766
G1 X155.55 Y93.988 E12.41726
G1 X154.835 Y93.518 E12.48556
G1 X154.073 Y93.11 E12.55456
G1 X153.313 Y92.785 E12.62054
G1 X152.466 Y92.511 E12.6916
G1 X151.714 Y92.34 E12.75316
G1 X150.795 Y92.208 E12.82727
G1 X149.988 Y92.172 E12.89176
G1 X78.305 Y92.17 E18.6138
G1 X77.641 Y92.183 E18.66682
G1 X77.075 Y92.215 E18.71207
G1 X76.433 Y92.27 E18.7635
G1 X75.882 Y92.336 E18.8078
G1 X75.401 Y92.411 E18.84666
G1 X74.813 Y92.517 E18.89435
G1 X74.253 Y92.637 E18.94007
G1 X73.74 Y92.763 E18.98224
G1 X72.862 Y93.02 E19.05526
G1 X72.329 Y93.203 E19.10025
G1 X71.815 Y93.394 E19.14402
G1 X71.279 Y93.612 E19.19021
G1 X70.445 Y93.994 E19.26343
G1 X69.969 Y94.24 E19.3062
G1 X69.466 Y94.517 E19.35204
G1 X68.897 Y94.856 E19.40491
G1 X68.38 Y95.188 E19.45396
G1 X67.859 Y95.55 E19.5046
G1 X67.442 Y95.859 E19.54603
G1 X67.076 Y96.148 E19.58325
G1 X66.659 Y96.496 E19.62661
G1 X67.172 Y96.587
G1 X98.013 Y127.429 E23.10826
M204 S2500
;;retract move;;
G1 F7200 X96.577 Y126.038 E21.96826
G1 F1800 E21.90826
G0 F9000 X95.75 Y127.429 Z0.64
M204 S3000
G1 F600 Z0.24
G1 F1800 E23.10826
G1 F1200 X65.987 Y97.666 E26.46817
M204 S2500
G0 F9000 X64.906 Y98.847
M204 S3000
G1 F1200 X93.488 Y127.429 E29.69475
M204 S2500
;;retract;;
G1 F1800 E28.49475
G0 F9000 X91.225 Y127.429 Z0.64
M204 S3000
G1 F600 Z0.24
G1 F1800 E29.69475
G1 F1200 X63.934 Y100.138 E32.7756
M204 S2500
G0 F9000 X63.066 Y101.532
M204 S3000
G1 F1200 X88.962 Y127.429 E35.69902
M204 S2500
;;retract;;
G1 F1800 E34.49902
G0 F9000 X86.699 Y127.429 Z0.64
M204 S3000
G1 F600 Z0.24
G1 F1800 E35.69902
G1 F1200 X62.319 Y103.048 E38.4513
M204 S2500
G0 F9000 X61.701 Y104.693
M204 S3000
G1 F1200 X84.437 Y127.429 E41.01793
M204 S2500
;;retract;;
G1 F1800 E39.81793
G0 F9000 X82.174 Y127.429 Z0.64
M204 S3000
G1 F600 Z0.24
G1 F1800 E41.01793
G1 F1200 X61.228 Y106.483 E43.3825
M204 S2500
G0 F9000 X60.943 Y108.46
M204 S3000
G1 F1200 X79.911 Y127.429 E45.52383
M204 S2500
;;retract;;
G1 F1800 E44.32383
G0 F9000 X77.635 Y127.415 Z0.64
M204 S3000
G1 F600 Z0.24
G1 F1800 E45.52383
G1 F1200 X60.886 Y110.667 E47.41454
M204 S2500
;;retract;;
G1 F1800 E46.21454
G0 F9000 X61.172 Y113.215 Z0.64
M204 S3000
G1 F600 Z0.24
G1 F1800 E47.41454
G1 F1200 X75.081 Y127.124 E48.98471
M204 S2500
;;retract;;
G1 F1800 E47.78471
G0 F9000 X71.902 Y126.208 Z0.64
M204 S3000
G1 F600 Z0.24
G1 F1800 E48.98471
G1 F1200 X62.085 Y116.391 E50.09294
M204 S2500
;;retract;;
G1 F1800 E48.89294
G0 F9000 X63.846 Y110.656 Z0.64
G0 X68.464 Y95.617
M204 S3000
G1 F600 Z0.24
G1 F1800 E50.09294
G1 F1200 X100.276 Y127.429 E53.68415
M204 S2500
;;retract;;
G1 F1800 E52.48415
G0 F9000 X102.538 Y127.429 Z0.64
M204 S3000
G1 F600 Z0.24
G1 F1800 E53.68415
G1 F1200 X69.863 Y94.753 E57.37285
M204 S2500
G0 F9000 X71.378 Y94.006
M204 S3000
G1 F1200 X104.801 Y127.429 E61.14592
M204 S2500
;;retract;;
G1 F1800 E59.94592
G0 F9000 X107.064 Y127.429 Z0.64
M204 S3000
G1 F600 Z0.24
G1 F1800 E61.14592
G1 F1200 X73.024 Y93.389 E64.98865
M204 S2500
G0 F9000 X74.821 Y92.923
M204 S3000
G1 F1200 X109.327 Y127.429 E68.88399
M204 S2500
;;retract;;
G1 F1800 E67.68399
G0 F9000 X111.589 Y127.429 Z0.64
M204 S3000
G1 F600 Z0.24
G1 F1800 E68.88399
G1 F1200 X76.8 Y92.639 E72.81133
M204 S2500
;;retract;;
G1 F1800 E71.61133
G0 F9000 X78.995 Y92.572 Z0.64
M204 S3000
G1 F600 Z0.24
G1 F1800 E72.81133
G1 F1200 X113.852 Y127.429 E76.74629
M204 S2500
;;retract;;
G1 F1800 E75.54629
G0 F9000 X116.115 Y127.429 Z0.64
M204 S3000
G1 F600 Z0.24
G1 F1800 E76.74629
G1 F1200 X81.258 Y92.572 E80.68125
M204 S2500
;;retract;;
G1 F1800 E79.48125
G0 F9000 X83.521 Y92.572 Z0.64
M204 S3000
G1 F600 Z0.24
G1 F1800 E80.68125
G1 F1200 X118.378 Y127.429 E84.61621
M204 S2500
;;retract;;
G1 F1800 E83.41621
G0 F9000 X120.64 Y127.429 Z0.64
M204 S3000
G1 F600 Z0.24
G1 F1800 E84.61621
G1 F1200 X85.784 Y92.572 E88.55111
M204 S2500
;;retract;;
G1 F1800 E87.35111
G0 F9000 X88.046 Y92.572 Z0.64
M204 S3000
G1 F600 Z0.24
G1 F1800 E88.55111
G1 F1200 X122.903 Y127.429 E92.48607
M204 S2500
;;retract;;
G1 F1800 E91.28607
G0 F9000 X125.166 Y127.429 Z0.64
M204 S3000
G1 F600 Z0.24
G1 F1800 E92.48607
G1 F1200 X90.309 Y92.572 E96.42103
M204 S2500
;;retract;;
G1 F1800 E95.22103
G0 F9000 X92.572 Y92.572 Z0.64
M204 S3000
G1 F600 Z0.24
G1 F1800 E96.42103
G1 F1200 X127.429 Y127.429 E100.35599
M204 S2500
;;retract;;
G1 F1800 E99.15599
G0 F9000 X129.691 Y127.429 Z0.64
M204 S3000
G1 F600 Z0.24
G1 F1800 E100.35599
G1 F1200 X94.835 Y92.572 E104.29089
M204 S2500
;;retract;;
G1 F1800 E103.09089
G0 F9000 X97.097 Y92.572 Z0.64
M204 S3000
G1 F600 Z0.24
G1 F1800 E104.29089
G1 F1200 X131.954 Y127.429 E108.22585
M204 S2500
;;retract;;
G1 F1800 E107.02585
G0 F9000 X134.217 Y127.429 Z0.64
M204 S3000
G1 F600 Z0.24
G1 F1800 E108.22585
G1 F1200 X99.36 Y92.572 E112.16081
M204 S2500
;;retract;;
G1 F1800 E110.96081
G0 F9000 X101.623 Y92.572 Z0.64
M204 S3000
G1 F600 Z0.24
G1 F1800 E112.16081
G1 F1200 X136.48 Y127.429 E116.09577
M204 S2500
;;retract;;
G1 F1800 E114.89577
G0 F9000 X138.742 Y127.429 Z0.64
M204 S3000
G1 F600 Z0.24
G1 F1800 E116.09577
G1 F1200 X103.886 Y92.572 E120.03067
M204 S2500
;;retract;;
G1 F1800 E118.83067
G0 F9000 X106.148 Y92.572 Z0.64
M204 S3000
G1 F600 Z0.24
G1 F1800 E120.03067
G1 F1200 X141.005 Y127.429 E123.96563
M204 S2500
;;retract;;
G1 F1800 E122.76563
G0 F9000 X143.268 Y127.429 Z0.64
M204 S3000
G1 F600 Z0.24
G1 F1800 E123.96563
G1 F1200 X108.411 Y92.572 E127.90059
M204 S2500
;;retract;;
G1 F1800 E126.70059
G0 F9000 X110.674 Y92.572 Z0.64
M204 S3000
G1 F600 Z0.24
G1 F1800 E127.90059
G1 F1200 X145.531 Y127.429 E131.83555
M204 S2500
;;retract;;
G1 F1800 E130.63555
G0 F9000 X147.793 Y127.429 Z0.64
M204 S3000
G1 F600 Z0.24
G1 F1800 E131.83555
G1 F1200 X112.936 Y92.572 E135.77051
M204 S2500
;;retract;;
G1 F1800 E134.57051
G0 F9000 X115.199 Y92.572 Z0.64
M204 S3000
G1 F600 Z0.24
G1 F1800 E135.77051
G1 F1200 X150.053 Y127.425 E139.70507
M204 S2500
;;retract;;
G1 F1800 E138.50507
G0 F9000 X152.065 Y127.175 Z0.64
M204 S3000
G1 F600 Z0.24
G1 F1800 E139.70507
G1 F1200 X117.462 Y92.572 E143.61136
M204 S2500
;;retract;;
G1 F1800 E142.41136
G0 F9000 X119.725 Y92.572 Z0.64
M204 S3000
G1 F600 Z0.24
G1 F1800 E143.61136
G1 F1200 X153.744 Y126.591 E147.45172
M204 S2500
G0 F9000 X155.185 Y125.77
M204 S3000
G1 F1200 X121.987 Y92.572 E151.19939
M204 S2500
;;retract;;
G1 F1800 E149.99939
G0 F9000 X124.25 Y92.572 Z0.64
M204 S3000
G1 F600 Z0.24
G1 F1800 E151.19939
G1 F1200 X156.419 Y124.741 E154.83091
M204 S2500
G0 F9000 X157.455 Y123.514
M204 S3000
G1 F1200 X126.513 Y92.572 E158.32391
M204 S2500
;;retract;;
G1 F1800 E157.12391
G0 F9000 X128.776 Y92.572 Z0.64
M204 S3000
G1 F600 Z0.24
G1 F1800 E158.32391
G1 F1200 X158.28 Y122.077 E161.65463
M204 S2500
G0 F9000 X158.862 Y120.395
M204 S3000
G1 F1200 X131.038 Y92.572 E164.79559
M204 S2500
;;retract;;
G1 F1800 E163.59559
G0 F9000 X133.301 Y92.572 Z0.64
M204 S3000
G1 F600 Z0.24
G1 F1800 E164.79559
G1 F1200 X159.119 Y118.39 E167.71015
M204 S2500
;;retract;;
G1 F1800 E166.51015
G0 F9000 X159.129 Y116.137 Z0.64
M204 S3000
G1 F600 Z0.24
G1 F1800 E167.71015
G1 F1200 X135.564 Y92.572 E170.37037
M204 S2500
;;retract;;
G1 F1800 E169.17037
G0 F9000 X137.827 Y92.572 Z0.64
M204 S3000
G1 F600 Z0.24
G1 F1800 E170.37037
G1 F1200 X159.129 Y113.874 E172.77512
M204 S2500
;;retract;;
G1 F1800 E171.57512
G0 F9000 X159.129 Y111.611 Z0.64
M204 S3000
G1 F600 Z0.24
G1 F1800 E172.77512
G1 F1200 X140.089 Y92.572 E174.92447
M204 S2500
;;retract;;
G1 F1800 E173.72447
G0 F9000 X142.352 Y92.572 Z0.64
M204 S3000
G1 F600 Z0.24
G1 F1800 E174.92447
G1 F1200 X159.129 Y109.349 E176.8184
M204 S2500
;;retract;;
G1 F1800 E175.6184
G0 F9000 X159.129 Y107.086 Z0.64
M204 S3000
G1 F600 Z0.24
G1 F1800 E176.8184
G1 F1200 X144.615 Y92.572 E178.45686
M204 S2500
;;retract;;
G1 F1800 E177.25686
G0 F9000 X146.878 Y92.572 Z0.64
M204 S3000
G1 F600 Z0.24
G1 F1800 E178.45686
G1 F1200 X159.129 Y104.823 E179.83986
M204 S2500
;;retract;;
G1 F1800 E178.63986
G0 F9000 X159.129 Y102.56 Z0.64
M204 S3000
G1 F600 Z0.24
G1 F1800 E179.83986
G1 F1200 X149.14 Y92.572 E180.96745
M204 S2500
;;retract;;
G1 F1800 E179.76745
G0 F9000 X151.553 Y92.722 Z0.64
M204 S3000
G1 F600 Z0.24
G1 F1800 E180.96745
G1 F1200 X158.973 Y100.141 E181.80503
M204 S2500
;;retract;;
G1 F1800 E180.60503
G0 F9000 X157.092 Y95.998 Z0.64
M204 S3000
G1 F600 Z0.24
G1 F1800 E181.80503
G1 F1200 X155.759 Y94.665 E181.95551
M204 S2500
;;retract;;
G1 F1800 E180.75551
G0 F9000 X155.964 Y100.661 Z0.64
G0 X156.783 Y124.503
;TIME_ELAPSED:123.881748

;LAYER:-5
G0 X156.783 Y124.503 Z0.87
M204 S3000
;TYPE:SUPPORT
G1 F600 Z0.47
G1 F1800 E181.95551
G1 F1500 X156.195 Y125.091 E182.01117
G1 X156.375 Y124.932 E182.02725
G1 X156.946 Y124.331 E182.08274
G1 X157.464 Y123.68 E182.13842
G1 X157.92 Y122.986 E182.19401
G1 X158.323 Y122.232 E182.25123
G1 X158.726 Y121.288 E182.31994
G1 X152.992 Y127.021 E182.86268
