;FLAVOR:Marlin
;TIME:1723.06
;Filament used:0.843567m
;Material Diameter:1.75
;Material Density:1.24
;Filament Cost:0.050320
;Filament Weight:2.515981
;Filament Length:0.843567
;Layer height:0.1
;MINX:1.855
;MINY:2.606
;MINZ:0.1
;MAXX:158.939
;MAXY:127.24
;MAXZ:20.401
;OuterWall Time:384.732
;InnerWall Time:291.426
;Skin Time:418.414
;Support Time:0
;SkirtBrim Time:172.302
;Infill Time:12.5752
;Support Infills Time:0
;Combing Time:150.355
;Retraction Time:293.253
;PrimeTower Time:0
;;;;;;;;;;;;;;;;;;;;;;;;;;;;;;;;;;;;;;;;;;;;;;;;;;;;;;;;;;;;;;;;;;;;;;;
;Creality Print GCode Generated by CXEngine
;CRSLICE_GIT_HASH:58ee74d
;Creality Print Version : V4.3.8.6984
;CXEngine Release Time:2023-12-04 18:16:29
;Gcode Generated Time:2024-04-14 21:02:01
;----------Machine Config--------------
;Machine Name:Ender-3 V3 SE
;Machine Height:250
;Machine Width:220
;Machine Depth:220
;Material Type:PLA
;Material Name:CR-PLA_1.75
;Number of Extruders:1
;ExtruderParams[0] Nozzle Diameter:1000
;----------Profile Config---------------
;Wall Thickness:0.8
;Top/Bottom Thickness:0.8
;Out Wall Line Width:0.42
;Inner Wall Line Width:0.45
;Inital Height:100
;Wall Line Count:2
;Infill Line Distance:8
;Infill Pattern:grid
;Infill Sparse Density:10
;Infill Wipe Distance:0
;Print Temperature:195
;Bed Temperature:60
;Support Enable:false
;Support Density:15
;Support Angle:60
;Adhesion Type:brim
;machine is belt:false
;machine belt offset:10
;machine belt offset Y:0
;Raft Base Line Spacing:1.6
;Wait Heatup Sync:true
;Enable Ironing:false
;Material Type:PLA
;Max volumetric speed:20
;Preview Img Type:png
;Screen Size:Sermoon D3
;----------Shell Config----------------
;Outer Wall Wipe Distance:2000
;Outer Inset First:false
;Infill Before Walls:false
;Infill Overlap:0.09
;Fill Gaps Between Walls:everywhere
;Minimum Infill Area:30
;Top Surface Skin Layer:0
;Top Layers:8
;Z Seam Alignment:sharpest_corner
;Seam Corner Preference:z_seam_corner_inner
;Z Seam X:110
;Z Seam Y:220
;Horizontal Expansion:0
;Top/Bottom Pattern:zigzag
;Ironing Pattern:zigzag
;Vase Model:false
;----------Support Config----------------
;Support Type:everywhere
;Support Pattern:zigzag
;Support Infill Layer Thickness:0.2
;Minimum Support Area:1
;Enable Support Roof:true
;Support Roof Thickness:0.8
;Support Roof Pattern:lines
;Connect Support Lines:0
;Connect Support ZigZags:1
;Minimum Support X/Y Distance:0.2
;Support Line Distance:2.67
; ---------PrintSpeed & Travel----------
;Enable Print Cool:true
;Avoid Printed Parts Traveling:true
;Enable Retraction:true
;Retraction Distance:1.2
;Retraction Speed:30
;Retraction Prime Speed:30
;Maximum Retraction Count:100
;Minimum Extrusion Distance Window:0.8
;Z Hop When Retracted:true
;Z Hop Height:0.4
;Retract Before Outer Wall:true

;Outer Wall Speed:60
;Inner Wall Speed:90
;Infill Speed:180
;Top/Bottom Speed:50
;Travel Speed:150
;Initial Layer Speed:20
;Skirt/Brim Speed:25
;Prime Tower Speed:60
;Outer Wall Acceleration:1000
;Inner Wall Acceleration:2000
;Infill Acceleration:2500
;Top/Bottom Acceleration:2500
;Travel Acceleration:2500
;Initial Layer Print Acceleration:500
;Initial Layer Travel Acceleration:500
;Skirt/Brim Acceleration:500
;Combing Mode:off
; --------SpecialModel&Mesh Fixes--------
;Union Overlapping Volum:true
;Remove All Holes:false
;Maximum Travel Resolution:0.25
;Maximum Deviation:0.05
;Maximum Model Angle:0.872665
;IS Mold Print:false
;Make Overhang Printable:false
;Enable Coasting:false
;Coasting Volumes:0.064
;Coasting Speed:0.9
;Raft AirGap:0.25
;Layer0 ZOverLap:0.13
;Adaptive Layers:0
;---------------------End of Head--------------------------
M140 S60
M105
M190 S60
M104 S195
M82 ;absolute extrusion mode
M220 S100 ;Reset Feedrate
M221 S100 ;Reset Flowrate

G28 ;Home

G92 E0 ;Reset Extruder
G1 Z2.0 F3000 ;Move Z Axis up
G1 X-2.1 Y20 Z0.28 F5000.0 ;Move to start position
M109 S195.000000
G1 X-2.1 Y145.0 Z0.28 F1500.0 E15 ;Draw the first line
G1 X-2.4 Y145.0 Z0.28 F5000.0 ;Move to side a little
G1 X-2.4 Y20 Z0.28 F1500.0 E30 ;Draw the second line
G92 E0  ;Reset Extruder
G1 E-1.0000 F1800 ;Retract a bit
G1 Z2.0 F3000 ;Move Z Axis up
G1 E0.0000 F1800 

G92 E0
G92 E0
G1 F1800 E-1.2
;LAYER_COUNT:23

;LAYER:0
M106 S0
M204 S500
;;retract;;
G1 F1800 E0
G1 F1800 E-1.2
G0 F4800 X1.855 Y2.606 Z20.401
G0 X68.305 Y95.955 Z0.5
;TYPE:SKIRT
G1 F600 Z0.1
G1 F1800 E0
G1 F1500 X67.913 Y96.242 E0.00933
G1 X67.556 Y96.519 E0.01801
G1 X67.027 Y96.957 E0.0312
G1 X66.741 Y97.21 E0.03854
G1 X66.26 Y97.664 E0.05124
G1 X65.94 Y97.984 E0.05993
G1 X65.431 Y98.529 E0.07426
G1 X65.029 Y98.997 E0.08611
G1 X64.638 Y99.487 E0.09815
G1 X64.262 Y99.995 E0.11029
G1 X64.036 Y100.32 E0.11789
G1 X63.789 Y100.694 E0.1265
G1 X63.417 Y101.3 E0.14016
G1 X63.095 Y101.877 E0.15285
G1 X62.718 Y102.628 E0.16899
G1 X62.494 Y103.125 E0.17946
G1 X62.264 Y103.678 E0.19097
G1 X62.066 Y104.199 E0.20167
G1 X61.833 Y104.908 E0.21601
G1 X61.665 Y105.486 E0.22757
G1 X61.518 Y106.063 E0.239
G1 X61.348 Y106.872 E0.25488
G1 X61.243 Y107.503 E0.26717
G1 X61.202 Y107.801 E0.27295
G1 X61.134 Y108.421 E0.28493
G1 X61.106 Y108.757 E0.2914
G1 X61.072 Y109.385 E0.30348
G1 X61.062 Y110.085 E0.31693
G1 X61.07 Y110.536 E0.3256
G1 X61.106 Y111.247 E0.33927
G1 X61.163 Y111.874 E0.35136
G1 X61.244 Y112.501 E0.36351
G1 X61.295 Y112.828 E0.36986
G1 X61.406 Y113.43 E0.38162
G1 X61.468 Y113.723 E0.38737
G1 X61.619 Y114.347 E0.3997
G1 X61.724 Y114.731 E0.40735
G1 X61.853 Y115.162 E0.41599
G1 X62.079 Y115.837 E0.42966
G1 X62.395 Y116.646 E0.44635
G1 X62.554 Y117.016 E0.45408
G1 X62.823 Y117.592 E0.46629
G1 X63.145 Y118.214 E0.47975
G1 X63.364 Y118.606 E0.48837
G1 X63.618 Y119.032 E0.4979
G1 X63.858 Y119.411 E0.50651
G1 X64.168 Y119.868 E0.51712
G1 X64.52 Y120.355 E0.52866
G1 X64.897 Y120.841 E0.54048
G1 X65.185 Y121.187 E0.54912
G1 X65.648 Y121.709 E0.56253
G1 X65.979 Y122.054 E0.57171
G1 X66.403 Y122.473 E0.58316
G1 X66.832 Y122.871 E0.5944
G1 X67.171 Y123.165 E0.60302
G1 X67.618 Y123.528 E0.61408
G1 X68.095 Y123.891 E0.62559
G1 X68.478 Y124.167 E0.63466
G1 X68.997 Y124.514 E0.64665
G1 X69.605 Y124.885 E0.66033
G1 X69.996 Y125.107 E0.66897
G1 X70.518 Y125.381 E0.68029
G1 X71.057 Y125.642 E0.6918
G1 X71.589 Y125.879 E0.70298
G1 X72.007 Y126.049 E0.71165
G1 X72.399 Y126.198 E0.7197
G1 X72.971 Y126.395 E0.73132
G1 X73.256 Y126.485 E0.73707
G1 X73.846 Y126.654 E0.74885
G1 X74.485 Y126.812 E0.7615
G1 X75.315 Y126.978 E0.77776
G1 X75.812 Y127.058 E0.78742
G1 X76.258 Y127.117 E0.79607
G1 X76.737 Y127.168 E0.80532
G1 X77.185 Y127.203 E0.81395
G1 X77.616 Y127.226 E0.82224
G1 X78.186 Y127.239 E0.83319
G1 X149.93 Y127.24 E2.21123
G1 X150.496 Y127.222 E2.22211
G1 X151.34 Y127.129 E2.23842
G1 X152.171 Y126.957 E2.25472
G1 X152.982 Y126.707 E2.27102
G1 X153.766 Y126.382 E2.28732
G1 X154.516 Y125.985 E2.30362
G1 X155.226 Y125.519 E2.31993
G1 X155.888 Y124.988 E2.33623
G1 X156.498 Y124.398 E2.35253
G1 X157.049 Y123.752 E2.36884
G1 X157.537 Y123.058 E2.38514
G1 X157.957 Y122.321 E2.40143
G1 X158.306 Y121.547 E2.41774
G1 X158.581 Y120.744 E2.43404
G1 X158.779 Y119.919 E2.45034
G1 X158.899 Y119.079 E2.46664
G1 X158.939 Y118.231 E2.48294
G1 X158.939 Y101.769 E2.79914
G1 X158.921 Y101.202 E2.81004
G1 X158.828 Y100.358 E2.82635
G1 X158.656 Y99.527 E2.84265
G1 X158.406 Y98.716 E2.85895
G1 X158.081 Y97.932 E2.87525
G1 X157.684 Y97.182 E2.89155
G1 X157.218 Y96.473 E2.90784
G1 X156.687 Y95.811 E2.92414
G1 X156.096 Y95.201 E2.94046
G1 X155.451 Y94.65 E2.95675
G1 X154.757 Y94.162 E2.97305
G1 X154.019 Y93.742 E2.98936
G1 X153.246 Y93.392 E3.00566
G1 X152.443 Y93.118 E3.02195
G1 X151.618 Y92.919 E3.03826
G1 X150.777 Y92.8 E3.05457
G1 X149.929 Y92.76 E3.07088
G1 X78.042 Y92.764 E4.45166
G1 X77.595 Y92.775 E4.46025
G1 X76.877 Y92.821 E4.47407
G1 X76.431 Y92.864 E4.48268
G1 X75.958 Y92.922 E4.49183
G1 X75.512 Y92.989 E4.50049
G1 X74.945 Y93.093 E4.51156
G1 X74.358 Y93.22 E4.5231
G1 X73.88 Y93.337 E4.53255
G1 X73.271 Y93.51 E4.54471
G1 X72.985 Y93.6 E4.55047
G1 X72.509 Y93.765 E4.56015
G1 X71.947 Y93.977 E4.57169
G1 X71.431 Y94.19 E4.58241
G1 X71.022 Y94.374 E4.59102
G1 X70.373 Y94.692 E4.6049
G1 X69.826 Y94.989 E4.61686
G1 X69.116 Y95.412 E4.63273
G1 X68.673 Y95.7 E4.64288
G1 X68.305 Y95.955 E4.65148
G0 F4800 X68.568 Y96.335
G1 F1500 X68.197 Y96.607 E4.66032
G1 X67.84 Y96.884 E4.669
G1 X67.325 Y97.31 E4.68184
G1 X67.054 Y97.55 E4.68879
G1 X66.586 Y97.99 E4.70113
G1 X66.266 Y98.31 E4.70982
G1 X65.773 Y98.839 E4.72371
G1 X65.382 Y99.295 E4.73525
G1 X65.001 Y99.772 E4.74697
G1 X64.636 Y100.266 E4.75877
G1 X64.175 Y100.949 E4.7746
G1 X63.968 Y101.278 E4.78206
G1 X63.644 Y101.834 E4.79442
G1 X63.332 Y102.426 E4.80728
G1 X63.134 Y102.831 E4.81594
G1 X62.92 Y103.303 E4.82589
G1 X62.69 Y103.856 E4.8374
G1 X62.503 Y104.35 E4.84754
G1 X62.277 Y105.036 E4.86141
G1 X62.109 Y105.614 E4.87298
G1 X61.969 Y106.162 E4.88384
G1 X61.803 Y106.952 E4.89935
G1 X61.701 Y107.566 E4.9113
G1 X61.623 Y108.17 E4.923
G1 X61.593 Y108.467 E4.92873
G1 X61.548 Y109.086 E4.94065
G1 X61.526 Y109.696 E4.95238
G1 X61.532 Y110.528 E4.96836
G1 X61.567 Y111.218 E4.98163
G1 X61.623 Y111.828 E4.99339
G1 X61.701 Y112.438 E5.00521
G1 X61.802 Y113.044 E5.01701
G1 X61.92 Y113.627 E5.02843
G1 X62.067 Y114.234 E5.04043
G1 X62.296 Y115.03 E5.05634
G1 X62.515 Y115.684 E5.06959
G1 X62.823 Y116.473 E5.08585
G1 X62.974 Y116.824 E5.09319
G1 X63.236 Y117.385 E5.10509
G1 X63.548 Y117.989 E5.11814
G1 X63.767 Y118.381 E5.12677
G1 X64.008 Y118.785 E5.1358
G1 X64.248 Y119.164 E5.14442
G1 X64.542 Y119.598 E5.15449
G1 X64.894 Y120.085 E5.16603
G1 X65.252 Y120.546 E5.17724
G1 X65.54 Y120.892 E5.18589
G1 X65.989 Y121.398 E5.19888
G1 X66.303 Y121.725 E5.20759
G1 X66.727 Y122.144 E5.21904
G1 X67.135 Y122.522 E5.22972
G1 X67.474 Y122.816 E5.23834
G1 X67.898 Y123.16 E5.24883
G1 X68.375 Y123.523 E5.26034
G1 X68.738 Y123.785 E5.26894
G1 X69.244 Y124.123 E5.28063
G1 X69.833 Y124.484 E5.2939
G1 X70.224 Y124.706 E5.30254
G1 X70.719 Y124.966 E5.31328
G1 X71.258 Y125.227 E5.32478
G1 X71.763 Y125.451 E5.33539
G1 X72.181 Y125.621 E5.34406
G1 X72.836 Y125.863 E5.35747
G1 X73.395 Y126.044 E5.36876
G1 X73.969 Y126.209 E5.38023
G1 X74.591 Y126.362 E5.39253
G1 X75.401 Y126.524 E5.4084
G1 X75.872 Y126.6 E5.41756
G1 X76.318 Y126.659 E5.4262
G1 X76.773 Y126.707 E5.43499
G1 X77.221 Y126.742 E5.44362
G1 X77.63 Y126.764 E5.45149
G1 X78.186 Y126.777 E5.46217
G1 X149.93 Y126.778 E6.84021
G1 X150.948 Y126.717 E6.8598
G1 X151.764 Y126.579 E6.8757
G1 X152.561 Y126.363 E6.89156
G1 X153.335 Y126.071 E6.90745
G1 X154.076 Y125.705 E6.92332
G1 X154.779 Y125.27 E6.9392
G1 X155.436 Y124.768 E6.95508
G1 X156.042 Y124.206 E6.97096
G1 X156.59 Y123.587 E6.98684
G1 X157.077 Y122.919 E7.00271
G1 X157.496 Y122.206 E7.0186
G1 X157.845 Y121.457 E7.03447
G1 X158.119 Y120.677 E7.05035
G1 X158.317 Y119.875 E7.06622
G1 X158.437 Y119.057 E7.0821
G1 X158.477 Y118.231 E7.09798
G1 X158.477 Y101.769 E7.41418
G1 X158.416 Y100.75 E7.43379
G1 X158.278 Y99.935 E7.44966
G1 X158.062 Y99.137 E7.46554
G1 X157.769 Y98.364 E7.48142
G1 X157.404 Y97.622 E7.4973
G1 X156.968 Y96.92 E7.51318
G1 X156.467 Y96.263 E7.52905
G1 X155.904 Y95.657 E7.54494
G1 X155.286 Y95.108 E7.56081
G1 X154.617 Y94.622 E7.5767
G1 X153.905 Y94.203 E7.59256
G1 X153.156 Y93.854 E7.60844
G1 X152.376 Y93.579 E7.62432
G1 X151.573 Y93.381 E7.64021
G1 X150.755 Y93.262 E7.65608
G1 X149.93 Y93.222 E7.67195
G1 X78.043 Y93.226 E9.05274
G1 X77.618 Y93.237 E9.0609
G1 X76.922 Y93.28 E9.0743
G1 X76.476 Y93.323 E9.0829
G1 X76.026 Y93.379 E9.09161
G1 X75.58 Y93.446 E9.10028
G1 X75.043 Y93.544 E9.11076
G1 X74.456 Y93.671 E9.1223
G1 X74.002 Y93.782 E9.13127
G1 X73.714 Y93.861 E9.13701
G1 X73.123 Y94.041 E9.14888
G1 X72.672 Y94.197 E9.15804
G1 X72.11 Y94.409 E9.16958
G1 X71.62 Y94.611 E9.17976
G1 X71.211 Y94.795 E9.18837
G1 X70.582 Y95.104 E9.20183
G1 X70.049 Y95.393 E9.21348
G1 X69.356 Y95.806 E9.22898
G1 X68.936 Y96.08 E9.23861
G1 X68.568 Y96.335 E9.24721
G0 F4800 X68.831 Y96.715
G1 F1500 X68.48 Y96.972 E9.25556
G1 X67.853 Y97.468 E9.27092
G1 X67.367 Y97.889 E9.28327
G1 X66.913 Y98.317 E9.29525
G1 X66.593 Y98.637 E9.30395
G1 X66.317 Y98.928 E9.31165
G1 X65.929 Y99.363 E9.32285
G1 X65.735 Y99.593 E9.32863
G1 X65.365 Y100.057 E9.34003
G1 X65.01 Y100.538 E9.35151
G1 X64.561 Y101.203 E9.36692
G1 X64.365 Y101.515 E9.374
G1 X64.05 Y102.055 E9.386
G1 X63.747 Y102.629 E9.39847
G1 X63.549 Y103.034 E9.40713
G1 X63.347 Y103.48 E9.41654
G1 X63.117 Y104.033 E9.42804
G1 X62.939 Y104.501 E9.43766
G1 X62.72 Y105.165 E9.45109
G1 X62.552 Y105.743 E9.46265
G1 X62.42 Y106.261 E9.47292
G1 X62.258 Y107.032 E9.48805
G1 X62.158 Y107.629 E9.49967
G1 X62.117 Y107.927 E9.50545
G1 X62.053 Y108.513 E9.51678
G1 X62.009 Y109.115 E9.52837
G1 X61.988 Y109.709 E9.53979
G1 X61.994 Y110.519 E9.55534
G1 X62.028 Y111.188 E9.56821
G1 X62.083 Y111.782 E9.57967
G1 X62.118 Y112.078 E9.58539
G1 X62.205 Y112.668 E9.59685
G1 X62.31 Y113.239 E9.608
G1 X62.372 Y113.532 E9.61375
G1 X62.515 Y114.122 E9.62541
G1 X62.738 Y114.897 E9.6409
G1 X62.951 Y115.532 E9.65377
G1 X63.252 Y116.3 E9.66961
G1 X63.518 Y116.905 E9.68231
G1 X63.784 Y117.446 E9.69389
G1 X64.171 Y118.155 E9.7094
G1 X64.398 Y118.537 E9.71794
G1 X64.638 Y118.916 E9.72655
G1 X64.916 Y119.327 E9.73608
G1 X65.268 Y119.814 E9.74763
G1 X65.607 Y120.25 E9.75823
G1 X65.895 Y120.596 E9.76688
G1 X66.331 Y121.087 E9.77949
G1 X66.628 Y121.397 E9.78774
G1 X67.052 Y121.816 E9.79919
G1 X67.438 Y122.173 E9.80929
G1 X67.777 Y122.467 E9.81791
G1 X68.178 Y122.793 E9.82783
G1 X68.655 Y123.156 E9.83935
G1 X68.998 Y123.403 E9.84747
G1 X69.49 Y123.732 E9.85883
G1 X70.061 Y124.082 E9.8717
G1 X70.452 Y124.304 E9.88033
G1 X70.92 Y124.55 E9.89049
G1 X71.459 Y124.811 E9.90199
G1 X71.937 Y125.023 E9.91204
G1 X72.707 Y125.327 E9.92794
G1 X73.249 Y125.514 E9.93895
G1 X73.534 Y125.604 E9.94469
G1 X74.093 Y125.764 E9.95586
G1 X74.697 Y125.913 E9.96781
G1 X75.487 Y126.07 E9.98328
G1 X75.933 Y126.142 E9.99196
G1 X76.379 Y126.201 E10.0006
G1 X76.809 Y126.246 E10.0089
G1 X77.644 Y126.302 E10.02498
G1 X78.186 Y126.315 E10.03539
G1 X149.93 Y126.316 E11.41343
G1 X150.564 Y126.291 E11.42562
G1 X151.362 Y126.188 E11.44107
G1 X152.145 Y126.007 E11.45651
G1 X152.906 Y125.748 E11.47195
G1 X153.638 Y125.415 E11.4874
G1 X154.333 Y125.012 E11.50283
G1 X154.985 Y124.541 E11.51828
G1 X155.587 Y124.007 E11.53373
G1 X156.133 Y123.417 E11.54917
G1 X156.617 Y122.775 E11.56462
G1 X157.035 Y122.089 E11.58005
G1 X157.383 Y121.364 E11.59549
G1 X157.658 Y120.608 E11.61094
G1 X157.855 Y119.829 E11.62638
G1 X157.975 Y119.034 E11.64182
G1 X158.015 Y118.231 E11.65726
G1 X158.015 Y101.769 E11.97346
G1 X157.99 Y101.134 E11.98567
G1 X157.887 Y100.337 E12.0011
G1 X157.706 Y99.554 E12.01654
G1 X157.447 Y98.792 E12.032
G1 X157.114 Y98.06 E12.04745
G1 X156.71 Y97.365 E12.06289
G1 X156.239 Y96.714 E12.07832
G1 X155.706 Y96.112 E12.09376
G1 X155.116 Y95.566 E12.10921
G1 X154.474 Y95.082 E12.12465
G1 X153.787 Y94.664 E12.14009
G1 X153.063 Y94.316 E12.15552
G1 X152.307 Y94.041 E12.17098
G1 X151.528 Y93.843 E12.18641
G1 X150.733 Y93.724 E12.20185
G1 X149.93 Y93.684 E12.2173
G1 X78.043 Y93.688 E13.59808
G1 X77.641 Y93.698 E13.60581
G1 X76.966 Y93.74 E13.6188
G1 X76.52 Y93.783 E13.6274
G1 X76.095 Y93.836 E13.63563
G1 X75.649 Y93.903 E13.64429
G1 X75.14 Y93.996 E13.65423
G1 X74.553 Y94.123 E13.66577
G1 X73.836 Y94.307 E13.67999
G1 X73.262 Y94.482 E13.69151
G1 X72.835 Y94.629 E13.70019
G1 X72.273 Y94.841 E13.71172
G1 X71.81 Y95.033 E13.72135
G1 X71.401 Y95.217 E13.72997
G1 X70.791 Y95.516 E13.74301
G1 X70.273 Y95.797 E13.75433
G1 X69.597 Y96.201 E13.76946
G1 X69.199 Y96.46 E13.77858
G1 X68.831 Y96.715 E13.78718
G0 F4800 X69.094 Y97.094
G1 F1500 X68.763 Y97.337 E13.79507
G1 X68.406 Y97.614 E13.80375
G1 X67.923 Y98.015 E13.8158
G1 X67.681 Y98.229 E13.82201
G1 X67.24 Y98.644 E13.83364
G1 X66.92 Y98.964 E13.84233
G1 X66.659 Y99.238 E13.8496
G1 X66.282 Y99.661 E13.86049
G1 X66.088 Y99.891 E13.86627
G1 X65.729 Y100.342 E13.87734
G1 X65.384 Y100.809 E13.88849
G1 X64.946 Y101.458 E13.90353
G1 X64.607 Y102.01 E13.91597
G1 X64.313 Y102.539 E13.9276
G1 X63.964 Y103.237 E13.94259
G1 X63.774 Y103.658 E13.95146
G1 X63.544 Y104.211 E13.96296
