;FLAVOR:Marlin
;TIME:1068.88
;Filament used:0.478027m
;Material Diameter:1.75
;Material Density:1.24
;Filament Cost:0.028515
;Filament Weight:1.425741
;Filament Length:0.478027
;Layer height:0.1
;MINX:1.948
;MINY:2.538
;MINZ:0.1
;MAXX:150.953
;MAXY:125.594
;MAXZ:20.401
;OuterWall Time:269.678
;InnerWall Time:153.882
;Skin Time:229.778
;Support Time:0
;SkirtBrim Time:142.62
;Infill Time:2.35314
;Support Infills Time:0
;Combing Time:101.637
;Retraction Time:168.928
;PrimeTower Time:0
;;;;;;;;;;;;;;;;;;;;;;;;;;;;;;;;;;;;;;;;;;;;;;;;;;;;;;;;;;;;;;;;;;;;;;;
;Creality Print GCode Generated by CXEngine
;CRSLICE_GIT_HASH:58ee74d
;Creality Print Version : V4.3.8.6984
;CXEngine Release Time:2023-12-04 18:16:29
;Gcode Generated Time:2024-04-13 14:06:00
;----------Machine Config--------------
;Machine Name:Ender-3 V3 SE
;Machine Height:250
;Machine Width:220
;Machine Depth:220
;Material Type:PLA
;Material Name:CR-PLA_1.75
;Number of Extruders:1
;ExtruderParams[0] Nozzle Diameter:1000
;----------Profile Config---------------
;Wall Thickness:0.8
;Top/Bottom Thickness:0.8
;Out Wall Line Width:0.42
;Inner Wall Line Width:0.45
;Inital Height:100
;Wall Line Count:2
;Infill Line Distance:8
;Infill Pattern:grid
;Infill Sparse Density:10
;Infill Wipe Distance:0
;Print Temperature:195
;Bed Temperature:60
;Support Enable:false
;Support Density:15
;Support Angle:60
;Adhesion Type:brim
;machine is belt:false
;machine belt offset:10
;machine belt offset Y:0
;Raft Base Line Spacing:1.6
;Wait Heatup Sync:true
;Enable Ironing:false
;Material Type:PLA
;Max volumetric speed:20
;Preview Img Type:png
;Screen Size:Sermoon D3
;----------Shell Config----------------
;Outer Wall Wipe Distance:2000
;Outer Inset First:false
;Infill Before Walls:false
;Infill Overlap:0.09
;Fill Gaps Between Walls:everywhere
;Minimum Infill Area:30
;Top Surface Skin Layer:0
;Top Layers:8
;Z Seam Alignment:sharpest_corner
;Seam Corner Preference:z_seam_corner_inner
;Z Seam X:110
;Z Seam Y:220
;Horizontal Expansion:0
;Top/Bottom Pattern:zigzag
;Ironing Pattern:zigzag
;Vase Model:false
;----------Support Config----------------
;Support Type:everywhere
;Support Pattern:zigzag
;Support Infill Layer Thickness:0.2
;Minimum Support Area:1
;Enable Support Roof:true
;Support Roof Thickness:0.8
;Support Roof Pattern:lines
;Connect Support Lines:0
;Connect Support ZigZags:1
;Minimum Support X/Y Distance:0.2
;Support Line Distance:2.67
; ---------PrintSpeed & Travel----------
;Enable Print Cool:true
;Avoid Printed Parts Traveling:true
;Enable Retraction:true
;Retraction Distance:1.2
;Retraction Speed:30
;Retraction Prime Speed:30
;Maximum Retraction Count:100
;Minimum Extrusion Distance Window:0.8
;Z Hop When Retracted:true
;Z Hop Height:0.4
;Retract Before Outer Wall:true

;Outer Wall Speed:60
;Inner Wall Speed:90
;Infill Speed:180
;Top/Bottom Speed:50
;Travel Speed:150
;Initial Layer Speed:20
;Skirt/Brim Speed:25
;Prime Tower Speed:60
;Outer Wall Acceleration:1000
;Inner Wall Acceleration:2000
;Infill Acceleration:2500
;Top/Bottom Acceleration:2500
;Travel Acceleration:2500
;Initial Layer Print Acceleration:500
;Initial Layer Travel Acceleration:500
;Skirt/Brim Acceleration:500
;Combing Mode:off
; --------SpecialModel&Mesh Fixes--------
;Union Overlapping Volum:true
;Remove All Holes:false
;Maximum Travel Resolution:0.25
;Maximum Deviation:0.05
;Maximum Model Angle:0.872665
;IS Mold Print:false
;Make Overhang Printable:false
;Enable Coasting:false
;Coasting Volumes:0.064
;Coasting Speed:0.9
;Raft AirGap:0.25
;Layer0 ZOverLap:0.13
;Adaptive Layers:0
;---------------------End of Head--------------------------
M140 S60
M105
M190 S60
M104 S195
M82 ;absolute extrusion mode
M220 S100 ;Reset Feedrate
M221 S100 ;Reset Flowrate

G28 ;Home

G92 E0 ;Reset Extruder
G1 Z2.0 F3000 ;Move Z Axis up
G1 X-2.1 Y20 Z0.28 F5000.0 ;Move to start position
M109 S195.000000
G1 X-2.1 Y145.0 Z0.28 F1500.0 E15 ;Draw the first line
G1 X-2.4 Y145.0 Z0.28 F5000.0 ;Move to side a little
G1 X-2.4 Y20 Z0.28 F1500.0 E30 ;Draw the second line
G92 E0  ;Reset Extruder
G1 E-1.0000 F1800 ;Retract a bit
G1 Z2.0 F3000 ;Move Z Axis up
G1 E0.0000 F1800 

G92 E0
G92 E0
G1 F1800 E-1.2
;LAYER_COUNT:18

;LAYER:0
M106 S0
M204 S500
;;retract;;
G1 F1800 E0
G1 F1800 E-1.2
G0 F4800 X1.948 Y2.538 Z20.401
G0 X75.017 Y97.73 Z0.5
;TYPE:SKIRT
G1 F600 Z0.1
G1 F1800 E0
G1 F1500 X74.563 Y98.103 E0.01129
G1 X74.127 Y98.485 E0.02242
G1 X73.863 Y98.732 E0.02936
G1 X73.522 Y99.069 E0.03857
G1 X73.178 Y99.427 E0.04811
G1 X72.587 Y100.107 E0.06541
G1 X72.226 Y100.567 E0.07665
G1 X71.831 Y101.111 E0.08956
G1 X71.503 Y101.6 E0.10087
G1 X71.04 Y102.37 E0.11813
G1 X70.755 Y102.903 E0.12974
G1 X70.416 Y103.611 E0.14481
G1 X70.225 Y104.058 E0.15415
G1 X70.029 Y104.555 E0.16441
G1 X69.907 Y104.895 E0.17135
G1 X69.735 Y105.428 E0.18211
G1 X69.601 Y105.89 E0.19135
G1 X69.439 Y106.538 E0.20418
G1 X69.315 Y107.125 E0.2157
G1 X69.165 Y108.084 E0.23435
G1 X69.094 Y108.789 E0.24796
G1 X69.049 Y109.692 E0.26532
G1 X69.049 Y110.31 E0.27719
G1 X69.094 Y111.211 E0.29452
G1 X69.165 Y111.917 E0.30815
G1 X69.32 Y112.904 E0.32734
G1 X69.446 Y113.492 E0.33889
G1 X69.598 Y114.099 E0.35091
G1 X69.73 Y114.557 E0.36006
G1 X69.907 Y115.105 E0.37112
G1 X70.029 Y115.445 E0.37806
G1 X70.221 Y115.933 E0.38814
G1 X70.411 Y116.379 E0.39745
G1 X70.758 Y117.103 E0.41287
G1 X71.042 Y117.633 E0.42442
G1 X71.496 Y118.389 E0.44136
G1 X71.826 Y118.882 E0.45275
G1 X72.224 Y119.431 E0.46578
G1 X72.584 Y119.89 E0.47698
G1 X73.168 Y120.563 E0.4941
G1 X73.511 Y120.921 E0.50362
G1 X73.876 Y121.281 E0.51347
G1 X74.138 Y121.525 E0.52034
G1 X74.498 Y121.843 E0.52957
G1 X74.773 Y122.073 E0.53646
G1 X75.214 Y122.419 E0.54722
G1 X75.6 Y122.703 E0.55643
G1 X76.139 Y123.07 E0.56895
G1 X76.633 Y123.381 E0.58016
G1 X77.433 Y123.829 E0.59778
G1 X77.879 Y124.05 E0.60734
G1 X78.387 Y124.283 E0.61807
G1 X78.827 Y124.468 E0.62724
G1 X79.395 Y124.684 E0.63891
G1 X79.736 Y124.801 E0.64584
G1 X80.182 Y124.941 E0.65481
G1 X80.528 Y125.04 E0.66173
G1 X80.975 Y125.156 E0.6706
G1 X81.325 Y125.237 E0.6775
G1 X81.859 Y125.344 E0.68796
G1 X82.215 Y125.404 E0.69489
G1 X82.772 Y125.48 E0.70569
G1 X83.363 Y125.542 E0.7171
G1 X84.303 Y125.591 E0.73518
G1 X141.944 Y125.594 E1.84234
G1 X142.51 Y125.576 E1.85321
G1 X143.354 Y125.483 E1.86952
G1 X144.185 Y125.311 E1.88582
G1 X144.996 Y125.061 E1.90212
G1 X145.78 Y124.736 E1.91843
G1 X146.53 Y124.339 E1.93473
G1 X147.24 Y123.873 E1.95104
G1 X147.902 Y123.342 E1.96734
G1 X148.512 Y122.752 E1.98364
G1 X149.063 Y122.106 E1.99995
G1 X149.551 Y121.412 E2.01624
G1 X149.971 Y120.675 E2.03254
G1 X150.32 Y119.901 E2.04885
G1 X150.595 Y119.098 E2.06515
G1 X150.793 Y118.273 E2.08145
G1 X150.913 Y117.433 E2.09774
G1 X150.953 Y116.585 E2.11405
G1 X150.953 Y103.415 E2.36702
G1 X150.935 Y102.848 E2.37791
G1 X150.842 Y102.005 E2.3942
G1 X150.67 Y101.173 E2.41052
G1 X150.42 Y100.362 E2.42682
G1 X150.095 Y99.578 E2.44312
G1 X149.698 Y98.828 E2.45942
G1 X149.232 Y98.119 E2.47572
G1 X148.701 Y97.457 E2.49202
G1 X148.11 Y96.847 E2.50833
G1 X147.465 Y96.296 E2.52463
G1 X146.771 Y95.808 E2.54092
G1 X146.033 Y95.388 E2.55723
G1 X145.26 Y95.038 E2.57353
G1 X144.457 Y94.764 E2.58983
G1 X143.632 Y94.565 E2.60613
G1 X142.791 Y94.446 E2.62244
G1 X141.944 Y94.406 E2.63873
G1 X84.434 Y94.409 E3.74337
G1 X83.812 Y94.43 E3.75532
G1 X83.335 Y94.463 E3.76451
G1 X82.781 Y94.519 E3.7752
G1 X82.424 Y94.566 E3.78212
G1 X81.923 Y94.647 E3.79187
G1 X81.427 Y94.741 E3.80156
G1 X80.561 Y94.949 E3.81867
G1 X79.888 Y95.147 E3.83214
G1 X78.934 Y95.488 E3.8516
G1 X78.388 Y95.718 E3.86298
G1 X77.896 Y95.942 E3.87337
G1 X77.572 Y96.102 E3.88031
G1 X77.065 Y96.373 E3.89135
G1 X76.65 Y96.612 E3.90055
G1 X76.166 Y96.912 E3.91149
G1 X75.756 Y97.184 E3.92094
G1 X75.017 Y97.73 E3.93859
G0 F4800 X75.31 Y98.087
G1 F1500 X74.856 Y98.46 E3.94987
G1 X74.443 Y98.823 E3.96043
G1 X74.179 Y99.07 E3.96738
G1 X73.855 Y99.389 E3.97611
G1 X73.511 Y99.747 E3.98565
G1 X72.95 Y100.392 E4.00207
G1 X72.589 Y100.852 E4.0133
G1 X72.215 Y101.368 E4.02554
G1 X71.887 Y101.857 E4.03685
G1 X71.448 Y102.588 E4.05323
G1 X71.163 Y103.121 E4.06484
G1 X70.84 Y103.793 E4.07916
G1 X70.649 Y104.24 E4.08849
G1 X70.464 Y104.711 E4.09821
G1 X70.342 Y105.051 E4.10515
G1 X70.178 Y105.557 E4.11537
G1 X70.044 Y106.019 E4.12461
G1 X69.891 Y106.633 E4.13676
G1 X69.767 Y107.22 E4.14829
G1 X69.625 Y108.131 E4.166
G1 X69.554 Y108.836 E4.17961
G1 X69.511 Y109.692 E4.19607
G1 X69.511 Y110.31 E4.20794
G1 X69.554 Y111.165 E4.22438
G1 X69.625 Y111.871 E4.23801
G1 X69.772 Y112.807 E4.25621
G1 X69.898 Y113.395 E4.26776
G1 X70.042 Y113.971 E4.27916
G1 X70.174 Y114.429 E4.28832
G1 X70.342 Y114.949 E4.29882
G1 X70.464 Y115.289 E4.30575
G1 X70.646 Y115.752 E4.31531
G1 X70.836 Y116.198 E4.32462
G1 X71.165 Y116.885 E4.33925
G1 X71.449 Y117.415 E4.3508
G1 X71.88 Y118.132 E4.36687
G1 X72.21 Y118.625 E4.37827
G1 X72.588 Y119.146 E4.39063
G1 X72.948 Y119.605 E4.40183
G1 X73.501 Y120.243 E4.41805
G1 X73.844 Y120.601 E4.42757
G1 X74.191 Y120.943 E4.43693
G1 X74.453 Y121.187 E4.44381
G1 X74.795 Y121.488 E4.45256
G1 X75.07 Y121.718 E4.45945
G1 X75.488 Y122.046 E4.46965
G1 X75.874 Y122.33 E4.47886
G1 X76.385 Y122.679 E4.49074
G1 X76.879 Y122.99 E4.50195
G1 X77.638 Y123.415 E4.51866
G1 X78.084 Y123.636 E4.52822
G1 X78.566 Y123.857 E4.53841
G1 X79.006 Y124.042 E4.54758
G1 X79.545 Y124.247 E4.55865
G1 X79.886 Y124.364 E4.56558
G1 X80.309 Y124.497 E4.5741
G1 X81.079 Y124.706 E4.58942
G1 X81.429 Y124.787 E4.59632
G1 X81.936 Y124.888 E4.60625
G1 X82.292 Y124.948 E4.61318
G1 X82.82 Y125.02 E4.62342
G1 X83.411 Y125.082 E4.63483
G1 X84.303 Y125.129 E4.65199
G1 X141.944 Y125.132 E5.75914
G1 X142.962 Y125.071 E5.77873
G1 X143.778 Y124.933 E5.79463
G1 X144.575 Y124.717 E5.81049
G1 X145.349 Y124.425 E5.82638
G1 X146.09 Y124.059 E5.84225
G1 X146.793 Y123.624 E5.85813
G1 X147.45 Y123.122 E5.87401
G1 X148.056 Y122.56 E5.88989
G1 X148.604 Y121.941 E5.90577
G1 X149.091 Y121.273 E5.92165
G1 X149.51 Y120.56 E5.93753
G1 X149.859 Y119.811 E5.9534
G1 X150.133 Y119.031 E5.96928
G1 X150.331 Y118.229 E5.98515
G1 X150.451 Y117.411 E6.00103
G1 X150.491 Y116.585 E6.01691
G1 X150.491 Y103.415 E6.26988
G1 X150.43 Y102.396 E6.28949
G1 X150.292 Y101.581 E6.30537
G1 X150.076 Y100.783 E6.32124
G1 X149.783 Y100.01 E6.33712
G1 X149.418 Y99.268 E6.35301
G1 X148.982 Y98.566 E6.36888
G1 X148.481 Y97.909 E6.38475
G1 X147.918 Y97.303 E6.40064
G1 X147.3 Y96.754 E6.41651
G1 X146.631 Y96.268 E6.4324
G1 X145.919 Y95.849 E6.44827
G1 X145.17 Y95.5 E6.46414
G1 X144.39 Y95.225 E6.48002
G1 X143.587 Y95.027 E6.49591
G1 X142.769 Y94.908 E6.51179
G1 X141.944 Y94.868 E6.52765
G1 X84.434 Y94.871 E7.63229
G1 X83.844 Y94.891 E7.64363
G1 X83.367 Y94.924 E7.65281
G1 X82.841 Y94.977 E7.66297
G1 X82.484 Y95.024 E7.66988
G1 X82.009 Y95.1 E7.67912
G1 X81.513 Y95.194 E7.68882
G1 X80.692 Y95.392 E7.70504
G1 X80.019 Y95.59 E7.71851
G1 X79.113 Y95.913 E7.73699
G1 X78.567 Y96.143 E7.74837
G1 X78.101 Y96.357 E7.75822
G1 X77.777 Y96.517 E7.76516
G1 X77.296 Y96.773 E7.77563
G1 X76.881 Y97.012 E7.78482
G1 X76.421 Y97.297 E7.79522
G1 X76.011 Y97.569 E7.80467
G1 X75.31 Y98.087 E7.82141
G0 F4800 X75.604 Y98.444
G1 F1500 X75.15 Y98.817 E7.8327
G1 X74.758 Y99.16 E7.8427
G1 X74.494 Y99.407 E7.84965
G1 X74.188 Y99.709 E7.8579
G1 X73.844 Y100.067 E7.86744
G1 X73.314 Y100.678 E7.88298
G1 X72.953 Y101.138 E7.89421
G1 X72.599 Y101.625 E7.90577
G1 X72.271 Y102.114 E7.91708
G1 X71.855 Y102.806 E7.93259
G1 X71.57 Y103.339 E7.9442
G1 X71.265 Y103.974 E7.95773
G1 X71.074 Y104.421 E7.96707
G1 X70.899 Y104.867 E7.97627
G1 X70.777 Y105.207 E7.98321
G1 X70.622 Y105.686 E7.99288
G1 X70.488 Y106.148 E8.00212
G1 X70.343 Y106.729 E8.01362
G1 X70.219 Y107.316 E8.02514
G1 X70.085 Y108.177 E8.04188
G1 X70.014 Y108.882 E8.05549
G1 X69.973 Y109.692 E8.07107
G1 X69.973 Y110.31 E8.08294
G1 X70.014 Y111.119 E8.0985
G1 X70.085 Y111.825 E8.11213
G1 X70.223 Y112.71 E8.12933
G1 X70.349 Y113.298 E8.14088
G1 X70.486 Y113.843 E8.15168
G1 X70.618 Y114.301 E8.16083
G1 X70.777 Y114.793 E8.17076
G1 X70.899 Y115.133 E8.1777
G1 X71.071 Y115.571 E8.18674
G1 X71.261 Y116.017 E8.19605
G1 X71.573 Y116.667 E8.2099
G1 X71.857 Y117.197 E8.22145
G1 X72.264 Y117.875 E8.23664
G1 X72.594 Y118.368 E8.24803
G1 X72.951 Y118.861 E8.25972
G1 X73.311 Y119.32 E8.27093
G1 X73.835 Y119.923 E8.28627
G1 X74.178 Y120.281 E8.2958
G1 X74.506 Y120.605 E8.30465
G1 X74.768 Y120.849 E8.31153
G1 X75.091 Y121.134 E8.3198
G1 X75.366 Y121.364 E8.32669
G1 X75.762 Y121.674 E8.33635
G1 X76.148 Y121.958 E8.34555
G1 X76.632 Y122.288 E8.35681
G1 X77.126 Y122.599 E8.36802
G1 X77.843 Y123.001 E8.38381
G1 X78.289 Y123.222 E8.39337
G1 X78.745 Y123.431 E8.403
G1 X79.185 Y123.616 E8.41217
G1 X79.695 Y123.81 E8.42265
G1 X80.436 Y124.053 E8.43763
G1 X81.183 Y124.256 E8.4525
G1 X81.533 Y124.337 E8.4594
G1 X82.012 Y124.433 E8.46878
G1 X82.368 Y124.493 E8.47572
G1 X82.868 Y124.561 E8.48541
G1 X83.459 Y124.623 E8.49682
G1 X84.303 Y124.667 E8.51306
G1 X141.944 Y124.67 E9.62021
G1 X142.578 Y124.645 E9.6324
G1 X143.376 Y124.542 E9.64785
G1 X144.159 Y124.361 E9.66329
G1 X144.92 Y124.102 E9.67873
G1 X145.652 Y123.769 E9.69417
G1 X146.347 Y123.366 E9.70961
G1 X146.999 Y122.895 E9.72505
G1 X147.601 Y122.361 E9.74051
G1 X148.147 Y121.771 E9.75595
G1 X148.631 Y121.129 E9.7714
G1 X149.049 Y120.443 E9.78682
G1 X149.397 Y119.718 E9.80227
G1 X149.672 Y118.962 E9.81772
G1 X149.869 Y118.183 E9.83316
G1 X149.989 Y117.388 E9.8486
G1 X150.029 Y116.585 E9.86404
G1 X150.029 Y103.415 E10.11701
G1 X150.004 Y102.78 E10.12922
G1 X149.901 Y101.983 E10.14465
G1 X149.72 Y101.2 E10.16009
G1 X149.461 Y100.438 E10.17555
G1 X149.128 Y99.706 E10.19099
G1 X148.724 Y99.011 E10.20643
G1 X148.253 Y98.36 E10.22187
G1 X147.72 Y97.758 E10.23731
G1 X147.13 Y97.212 E10.25275
G1 X146.488 Y96.728 E10.2682
G1 X145.801 Y96.31 E10.28364
G1 X145.077 Y95.962 E10.29907
G1 X144.321 Y95.687 E10.31452
G1 X143.542 Y95.489 E10.32996
G1 X142.747 Y95.37 E10.3454
G1 X141.944 Y95.33 E10.36084
G1 X84.434 Y95.333 E11.46548
G1 X83.876 Y95.352 E11.47621
G1 X83.399 Y95.385 E11.48539
G1 X82.902 Y95.435 E11.49498
G1 X82.545 Y95.482 E11.5019
G1 X82.095 Y95.554 E11.51065
G1 X81.599 Y95.648 E11.52035
G1 X80.822 Y95.836 E11.53571
G1 X80.149 Y96.034 E11.54918
G1 X79.292 Y96.339 E11.56665
G1 X78.746 Y96.569 E11.57803
G1 X78.305 Y96.771 E11.58735
G1 X77.981 Y96.931 E11.59429
G1 X77.526 Y97.174 E11.6042
G1 X77.111 Y97.413 E11.6134
G1 X76.676 Y97.682 E11.62322
G1 X76.266 Y97.954 E11.63267
G1 X75.604 Y98.444 E11.64849
G0 F4800 X75.897 Y98.801
G1 F1500 X75.443 Y99.174 E11.65978
G1 X75.074 Y99.497 E11.6692
G1 X74.81 Y99.744 E11.67614
G1 X74.521 Y100.029 E11.68394
G1 X74.177 Y100.387 E11.69347
G1 X73.677 Y100.963 E11.70812
G1 X73.316 Y101.423 E11.71935
G1 X72.982 Y101.883 E11.73027
G1 X72.654 Y102.372 E11.74158
G1 X72.263 Y103.024 E11.75619
G1 X71.978 Y103.557 E11.7678
G1 X71.69 Y104.156 E11.78056
G1 X71.499 Y104.603 E11.7899
G1 X71.334 Y105.023 E11.79857
G1 X71.212 Y105.363 E11.8055
G1 X71.066 Y105.815 E11.81463
G1 X70.932 Y106.277 E11.82387
G1 X70.795 Y106.824 E11.8347
G1 X70.671 Y107.411 E11.84622
G1 X70.544 Y108.223 E11.86201
G1 X70.473 Y108.928 E11.87562
G1 X70.435 Y109.692 E11.89031
G1 X70.435 Y110.31 E11.90218
G1 X70.473 Y111.073 E11.91686
G1 X70.544 Y111.779 E11.93048
G1 X70.675 Y112.613 E11.9467
G1 X70.801 Y113.201 E11.95825
G1 X70.93 Y113.715 E11.96843
G1 X71.062 Y114.173 E11.97759
G1 X71.212 Y114.637 E11.98695
G1 X71.334 Y114.977 E11.99389
G1 X71.496 Y115.39 E12.00241
G1 X71.686 Y115.836 E12.01172
G1 X71.98 Y116.448 E12.02476
G1 X72.264 Y116.978 E12.03631
G1 X72.648 Y117.618 E12.05065
G1 X72.978 Y118.111 E12.06204
G1 X73.315 Y118.575 E12.07306
G1 X73.675 Y119.034 E12.08426
G1 X74.169 Y119.604 E12.09875
G1 X74.512 Y119.962 E12.10828
G1 X74.821 Y120.266 E12.1166
G1 X75.387 Y120.779 E12.13127
G1 X75.662 Y121.009 E12.13816
G1 X76.035 Y121.302 E12.14727
G1 X76.421 Y121.586 E12.15648
G1 X76.878 Y121.897 E12.16709
G1 X77.372 Y122.208 E12.17831
G1 X78.048 Y122.587 E12.19319
G1 X78.494 Y122.808 E12.20275
G1 X78.924 Y123.005 E12.21184
G1 X79.364 Y123.19 E12.221
G1 X79.845 Y123.373 E12.23089
