;FLAVOR:Marlin
;TIME:788.333
;Filament used:0.304853m
;Material Diameter:1.75
;Material Density:1.24
;Filament Cost:0.018185
;Filament Weight:0.909239
;Filament Length:0.304853
;Layer height:0.1
;MINX:2.009
;MINY:2.489
;MINZ:0.1
;MAXX:145.629
;MAXY:124.497
;MAXZ:20.401
;OuterWall Time:193.486
;InnerWall Time:110.24
;Skin Time:122.833
;Support Time:0
;SkirtBrim Time:122.813
;Infill Time:0
;Support Infills Time:0
;Combing Time:90.602
;Retraction Time:148.359
;PrimeTower Time:0

;;;;;;;;;;;;;;;;;;;;;;;;;;;;;;;;;;;;;;;;;;;;;;;;;;;;;;;;;;;;;;;;;;;;;;;;;;;;
;Creality Print GCode Generated by CXEngine
;CRSLICE_GIT_HASH:58ee74d
;Creality Print Version : V4.3.8.6984
;CXEngine Release Time:2023-12-04 18:16:29
;Gcode Generated Time:2024-04-14 20:15:29
;----------Machine Config--------------
;Machine Name:Ender-3 V3 SE
;Machine Height:250
;Machine Width:220
;Machine Depth:220
;Material Type:PLA
;Material Name:CR-PLA_1.75
;Number of Extruders:1
;ExtruderParams[0] Nozzle Diameter:1000
;----------Profile Config---------------
;Wall Thickness:0.8
;Top/Bottom Thickness:0.8
;Out Wall Line Width:0.42
;Inner Wall Line Width:0.45
;Inital Height:100
;Wall Line Count:2
;Infill Line Distance:8
;Infill Pattern:grid
;Infill Sparse Density:10
;Infill Wipe Distance:0
;Print Temperature:195
;Bed Temperature:60
;Support Enable:false
;Support Density:15
;Support Angle:60
;Adhesion Type:brim
;machine is belt:false
;machine belt offset:10
;machine belt offset Y:0
;Raft Base Line Spacing:1.6
;Wait Heatup Sync:true
;Enable Ironing:false
;Material Type:PLA
;Max volumetric speed:20
;Preview Img Type:png
;Screen Size:Sermoon D3
;----------Shell Config----------------
;Outer Wall Wipe Distance:2000
;Outer Inset First:false
;Infill Before Walls:false
;Infill Overlap:0.09
;Fill Gaps Between Walls:everywhere
;Minimum Infill Area:30
;Top Surface Skin Layer:0
;Top Layers:8
;Z Seam Alignment:sharpest_corner
;Seam Corner Preference:z_seam_corner_inner
;Z Seam X:110
;Z Seam Y:220
;Horizontal Expansion:0
;Top/Bottom Pattern:zigzag
;Ironing Pattern:zigzag
;Vase Model:false
;----------Support Config----------------
;Support Type:everywhere
;Support Pattern:zigzag
;Support Infill Layer Thickness:0.2
;Minimum Support Area:1
;Enable Support Roof:true
;Support Roof Thickness:0.8
;Support Roof Pattern:lines
;Connect Support Lines:0
;Connect Support ZigZags:1
;Minimum Support X/Y Distance:0.2
;Support Line Distance:2.67
; ---------PrintSpeed & Travel----------
;Enable Print Cool:true
;Avoid Printed Parts Traveling:true
;Enable Retraction:true
;Retraction Distance:1.2
;Retraction Speed:30
;Retraction Prime Speed:30
;Maximum Retraction Count:100
;Minimum Extrusion Distance Window:0.8
;Z Hop When Retracted:true
;Z Hop Height:0.4
;Retract Before Outer Wall:true

;Outer Wall Speed:60
;Inner Wall Speed:90
;Infill Speed:180
;Top/Bottom Speed:50
;Travel Speed:150
;Initial Layer Speed:20
;Skirt/Brim Speed:25
;Prime Tower Speed:60
;Outer Wall Acceleration:1000
;Inner Wall Acceleration:2000
;Infill Acceleration:2500
;Top/Bottom Acceleration:2500
;Travel Acceleration:2500
;Initial Layer Print Acceleration:500
;Initial Layer Travel Acceleration:500
;Skirt/Brim Acceleration:500
;Combing Mode:off
; --------SpecialModel&Mesh Fixes--------
;Union Overlapping Volum:true
;Remove All Holes:false
;Maximum Travel Resolution:0.25
;Maximum Deviation:0.05
;Maximum Model Angle:0.872665
;IS Mold Print:false
;Make Overhang Printable:false
;Enable Coasting:false
;Coasting Volumes:0.064
;Coasting Speed:0.9
;Raft AirGap:0.25
;Layer0 ZOverLap:0.13
;Adaptive Layers:0
;---------------------End of Head--------------------------
M140 S60
M105
M190 S60
M104 S195
M82 ;absolute extrusion mode
M220 S100 ;Reset Feedrate
M221 S100 ;Reset Flowrate

G28 ;Home

G92 E0 ;Reset Extruder
G1 Z2.0 F3000 ;Move Z Axis up
G1 X-2.1 Y20 Z0.28 F5000.0 ;Move to start position
M109 S195.000000
G1 X-2.1 Y145.0 Z0.28 F1500.0 E15 ;Draw the first line
G1 X-2.4 Y145.0 Z0.28 F5000.0 ;Move to side a little
G1 X-2.4 Y20 Z0.28 F1500.0 E30 ;Draw the second line
G92 E0  ;Reset Extruder
G1 E-1.0000 F1800 ;Retract a bit
G1 Z2.0 F3000 ;Move Z Axis up
G1 E0.0000 F1800 

G92 E0
G92 E0
G1 F1800 E-1.2
;LAYER_COUNT:15

;LAYER:0
M106 S0
M204 S500
;;retract;;
G1 F1800 E0
G1 F1800 E-1.2
G0 F4800 X2.009 Y2.489 Z20.401
G0 X79.719 Y98.758 Z0.5
;TYPE:SKIRT
G1 F600 Z0.1
G1 F1800 E0
G1 F1500 X79.157 Y99.241 E0.01423
G1 X78.786 Y99.588 E0.02399
G1 X78.28 Y100.101 E0.03783
G1 X78.014 Y100.393 E0.04542
G1 X77.636 Y100.836 E0.0566
G1 X77.449 Y101.07 E0.06236
G1 X77.111 Y101.522 E0.0732
G1 X76.881 Y101.85 E0.08089
G1 X76.51 Y102.424 E0.09402
G1 X76.253 Y102.857 E0.10369
G1 X75.802 Y103.72 E0.1224
G1 X75.597 Y104.17 E0.13189
G1 X75.342 Y104.788 E0.14473
G1 X75.203 Y105.165 E0.15245
G1 X75.006 Y105.766 E0.1646
G1 X74.894 Y106.151 E0.1723
G1 X74.729 Y106.809 E0.18533
G1 X74.647 Y107.198 E0.19297
G1 X74.539 Y107.813 E0.20496
G1 X74.472 Y108.294 E0.21429
G1 X74.392 Y109.208 E0.23191
G1 X74.373 Y109.728 E0.24191
G1 X74.385 Y110.625 E0.25914
G1 X74.416 Y111.116 E0.26859
G1 X74.484 Y111.787 E0.28154
G1 X74.539 Y112.183 E0.28922
G1 X74.634 Y112.74 E0.30008
G1 X74.8 Y113.495 E0.31492
G1 X74.875 Y113.785 E0.32068
G1 X75.038 Y114.34 E0.33179
G1 X75.193 Y114.812 E0.34133
G1 X75.555 Y115.74 E0.36046
G1 X75.763 Y116.196 E0.37009
G1 X76.071 Y116.807 E0.38323
G1 X76.264 Y117.157 E0.39091
G1 X76.517 Y117.587 E0.40049
G1 X76.676 Y117.841 E0.40625
G1 X76.981 Y118.297 E0.41679
G1 X77.449 Y118.93 E0.43191
G1 X77.636 Y119.164 E0.43766
G1 X77.97 Y119.558 E0.44758
G1 X78.242 Y119.861 E0.4554
G1 X78.848 Y120.474 E0.47196
G1 X79.209 Y120.806 E0.48138
G1 X79.715 Y121.238 E0.49416
G1 X80.027 Y121.485 E0.5018
G1 X80.554 Y121.872 E0.51436
G1 X80.96 Y122.148 E0.52379
G1 X81.717 Y122.61 E0.54082
G1 X82.077 Y122.806 E0.5487
G1 X82.603 Y123.07 E0.56
G1 X82.964 Y123.237 E0.56764
G1 X83.488 Y123.46 E0.57858
G1 X83.769 Y123.569 E0.58437
G1 X84.327 Y123.765 E0.59573
G1 X84.709 Y123.885 E0.60342
G1 X85.304 Y124.05 E0.61528
G1 X85.691 Y124.143 E0.62293
G1 X86.384 Y124.281 E0.6365
G1 X86.781 Y124.344 E0.64422
G1 X87.403 Y124.42 E0.65625
G1 X87.869 Y124.461 E0.66524
G1 X88.659 Y124.496 E0.68043
G1 X136.62 Y124.497 E1.60165
G1 X137.186 Y124.479 E1.61253
G1 X138.03 Y124.386 E1.62884
G1 X138.861 Y124.214 E1.64514
G1 X139.672 Y123.964 E1.66144
G1 X140.456 Y123.639 E1.67774
G1 X141.206 Y123.242 E1.69404
G1 X141.916 Y122.776 E1.71035
G1 X142.578 Y122.245 E1.72665
G1 X143.188 Y121.655 E1.74295
G1 X143.739 Y121.009 E1.75926
G1 X144.227 Y120.315 E1.77556
G1 X144.647 Y119.578 E1.79185
G1 X144.996 Y118.804 E1.80816
G1 X145.271 Y118.001 E1.82446
G1 X145.469 Y117.176 E1.84076
G1 X145.589 Y116.336 E1.85706
G1 X145.629 Y115.488 E1.87336
G1 X145.629 Y104.513 E2.08417
G1 X145.611 Y103.947 E2.09504
G1 X145.518 Y103.103 E2.11135
G1 X145.346 Y102.272 E2.12765
G1 X145.096 Y101.461 E2.14395
G1 X144.771 Y100.677 E2.16026
G1 X144.374 Y99.927 E2.17656
G1 X143.908 Y99.217 E2.19287
G1 X143.377 Y98.555 E2.20917
G1 X142.787 Y97.945 E2.22547
G1 X142.141 Y97.394 E2.24178
G1 X141.447 Y96.906 E2.25807
G1 X140.71 Y96.486 E2.27437
G1 X139.936 Y96.137 E2.29068
G1 X139.133 Y95.862 E2.30698
G1 X138.308 Y95.664 E2.32328
G1 X137.468 Y95.544 E2.33957
G1 X136.62 Y95.504 E2.35588
G1 X88.665 Y95.504 E3.27699
G1 X87.875 Y95.539 E3.29218
G1 X87.409 Y95.58 E3.30116
G1 X86.787 Y95.656 E3.3132
G1 X86.39 Y95.719 E3.32092
G1 X85.74 Y95.847 E3.33364
G1 X85.353 Y95.938 E3.34128
G1 X84.715 Y96.113 E3.35399
G1 X84.333 Y96.233 E3.36168
G1 X83.775 Y96.429 E3.37304
G1 X83.494 Y96.538 E3.37883
G1 X82.987 Y96.753 E3.3894
G1 X82.624 Y96.92 E3.39708
G1 X81.96 Y97.259 E3.4114
G1 X81.526 Y97.504 E3.42097
G1 X80.901 Y97.891 E3.43509
G1 X80.569 Y98.116 E3.44279
G1 X80.031 Y98.511 E3.45561
G1 X79.719 Y98.758 E3.46326
G0 F4800 X80.006 Y99.12
G1 F1500 X79.473 Y99.579 E3.47677
G1 X79.102 Y99.926 E3.48653
G1 X78.622 Y100.412 E3.49965
G1 X78.356 Y100.704 E3.50723
G1 X77.997 Y101.124 E3.51785
G1 X77.81 Y101.358 E3.5236
G1 X77.489 Y101.787 E3.53389
G1 X77.259 Y102.115 E3.54159
G1 X76.907 Y102.66 E3.55405
G1 X76.65 Y103.093 E3.56372
G1 X76.222 Y103.912 E3.58147
G1 X76.017 Y104.362 E3.59097
G1 X75.776 Y104.948 E3.60314
G1 X75.637 Y105.325 E3.61085
G1 X75.449 Y105.895 E3.62238
G1 X75.337 Y106.28 E3.63008
G1 X75.181 Y106.904 E3.64244
G1 X75.099 Y107.293 E3.65008
G1 X74.997 Y107.877 E3.66146
G1 X74.93 Y108.358 E3.67079
G1 X74.854 Y109.225 E3.68751
G1 X74.835 Y109.745 E3.6975
G1 X74.846 Y110.596 E3.71385
G1 X74.877 Y111.087 E3.7233
G1 X74.941 Y111.724 E3.7356
G1 X74.996 Y112.12 E3.74328
G1 X75.086 Y112.647 E3.75354
G1 X75.146 Y112.942 E3.75933
G1 X75.322 Y113.669 E3.77369
G1 X75.477 Y114.196 E3.78425
G1 X75.632 Y114.668 E3.79379
G1 X75.976 Y115.548 E3.81194
G1 X76.184 Y116.004 E3.82156
G1 X76.476 Y116.584 E3.83404
G1 X76.669 Y116.934 E3.84171
G1 X76.908 Y117.342 E3.85079
G1 X77.067 Y117.596 E3.85655
G1 X77.357 Y118.029 E3.86656
G1 X77.81 Y118.642 E3.8812
G1 X77.997 Y118.876 E3.88695
G1 X78.314 Y119.25 E3.89637
G1 X78.586 Y119.553 E3.90419
G1 X79.16 Y120.134 E3.91988
G1 X79.521 Y120.466 E3.9293
G1 X80.002 Y120.876 E3.94144
G1 X80.314 Y121.123 E3.94908
G1 X80.814 Y121.49 E3.961
G1 X81.22 Y121.766 E3.97043
G1 X81.938 Y122.205 E3.98659
G1 X82.298 Y122.401 E3.99446
G1 X82.796 Y122.651 E4.00517
G1 X83.157 Y122.818 E4.01281
G1 X83.655 Y123.03 E4.0232
G1 X83.936 Y123.139 E4.02899
G1 X84.465 Y123.324 E4.03976
G1 X84.847 Y123.444 E4.04745
G1 X85.412 Y123.6 E4.05871
G1 X85.799 Y123.693 E4.06635
G1 X86.456 Y123.824 E4.07922
G1 X86.853 Y123.887 E4.08694
G1 X87.444 Y123.96 E4.09838
G1 X87.91 Y124.001 E4.10736
G1 X88.659 Y124.034 E4.12176
G1 X136.62 Y124.035 E5.04299
G1 X137.638 Y123.974 E5.06257
G1 X138.454 Y123.836 E5.07847
G1 X139.251 Y123.62 E5.09433
G1 X140.025 Y123.328 E5.11022
G1 X140.766 Y122.962 E5.1261
G1 X141.469 Y122.527 E5.14197
G1 X142.126 Y122.025 E5.15786
G1 X142.732 Y121.463 E5.17373
G1 X143.28 Y120.844 E5.18961
G1 X143.767 Y120.176 E5.20549
G1 X144.186 Y119.463 E5.22137
G1 X144.535 Y118.714 E5.23725
G1 X144.809 Y117.934 E5.25313
G1 X145.007 Y117.132 E5.26899
G1 X145.127 Y116.314 E5.28487
G1 X145.167 Y115.488 E5.30076
G1 X145.167 Y104.513 E5.51156
G1 X145.106 Y103.495 E5.53115
G1 X144.968 Y102.679 E5.54705
G1 X144.752 Y101.882 E5.56291
G1 X144.46 Y101.108 E5.5788
G1 X144.094 Y100.367 E5.59467
G1 X143.659 Y99.664 E5.61055
G1 X143.157 Y99.007 E5.62643
G1 X142.595 Y98.401 E5.64231
G1 X141.976 Y97.853 E5.65819
G1 X141.308 Y97.366 E5.67406
G1 X140.595 Y96.947 E5.68995
G1 X139.846 Y96.598 E5.70582
G1 X139.066 Y96.324 E5.7217
G1 X138.264 Y96.126 E5.73757
G1 X137.446 Y96.006 E5.75345
G1 X136.62 Y95.966 E5.76933
G1 X88.665 Y95.966 E6.69044
G1 X87.916 Y95.999 E6.70484
G1 X87.45 Y96.04 E6.71382
G1 X86.859 Y96.113 E6.72526
G1 X86.462 Y96.176 E6.73298
G1 X85.846 Y96.297 E6.74504
G1 X85.459 Y96.388 E6.75268
G1 X84.853 Y96.554 E6.76475
G1 X84.471 Y96.674 E6.77244
G1 X83.942 Y96.859 E6.7832
G1 X83.661 Y96.968 E6.78899
G1 X83.18 Y97.172 E6.79903
G1 X82.817 Y97.339 E6.8067
G1 X82.187 Y97.661 E6.82029
G1 X81.753 Y97.906 E6.82986
G1 X81.16 Y98.274 E6.84327
G1 X80.828 Y98.499 E6.85097
G1 X80.318 Y98.873 E6.86312
G1 X80.006 Y99.12 E6.87076
G0 F4800 X80.293 Y99.482
G1 F1500 X79.788 Y99.916 E6.88355
G1 X79.417 Y100.263 E6.89331
G1 X78.963 Y100.723 E6.90572
G1 X78.697 Y101.015 E6.91331
G1 X78.358 Y101.413 E6.92335
G1 X78.171 Y101.647 E6.92911
G1 X77.867 Y102.052 E6.93883
G1 X77.637 Y102.38 E6.94653
G1 X77.304 Y102.895 E6.95831
G1 X77.047 Y103.328 E6.96798
G1 X76.642 Y104.103 E6.98478
G1 X76.437 Y104.553 E6.99427
G1 X76.209 Y105.108 E7.0058
G1 X76.07 Y105.485 E7.01352
G1 X75.893 Y106.024 E7.02441
G1 X75.781 Y106.409 E7.03211
G1 X75.633 Y106.999 E7.0438
G1 X75.551 Y107.388 E7.05143
G1 X75.454 Y107.941 E7.06222
G1 X75.387 Y108.422 E7.07155
G1 X75.315 Y109.242 E7.08736
G1 X75.296 Y109.762 E7.09735
G1 X75.307 Y110.566 E7.1128
G1 X75.338 Y111.057 E7.12225
G1 X75.399 Y111.66 E7.13389
G1 X75.454 Y112.056 E7.14157
G1 X75.539 Y112.555 E7.15129
G1 X75.599 Y112.85 E7.15707
G1 X75.77 Y113.553 E7.17097
G1 X75.916 Y114.052 E7.18096
G1 X76.071 Y114.524 E7.1905
G1 X76.396 Y115.356 E7.20765
G1 X76.604 Y115.812 E7.21728
G1 X76.88 Y116.361 E7.22908
G1 X77.073 Y116.711 E7.23676
G1 X77.459 Y117.351 E7.25112
G1 X77.733 Y117.76 E7.26057
G1 X78.171 Y118.353 E7.27473
G1 X78.358 Y118.587 E7.28049
G1 X78.658 Y118.941 E7.2894
G1 X78.93 Y119.244 E7.29722
G1 X79.473 Y119.794 E7.31207
G1 X79.834 Y120.126 E7.32149
G1 X80.289 Y120.514 E7.33297
G1 X80.601 Y120.761 E7.34062
G1 X81.074 Y121.108 E7.35188
G1 X81.48 Y121.384 E7.36131
G1 X82.159 Y121.799 E7.3766
G1 X82.519 Y121.995 E7.38447
G1 X82.99 Y122.232 E7.3946
G1 X83.351 Y122.399 E7.40224
G1 X83.822 Y122.599 E7.41207
G1 X84.103 Y122.708 E7.41786
G1 X84.604 Y122.883 E7.42805
G1 X84.986 Y123.003 E7.43574
G1 X85.52 Y123.151 E7.44638
G1 X85.907 Y123.244 E7.45403
G1 X86.529 Y123.368 E7.46621
G1 X86.926 Y123.431 E7.47393
G1 X87.484 Y123.5 E7.48473
G1 X87.95 Y123.541 E7.49372
G1 X88.659 Y123.572 E7.50735
G1 X136.62 Y123.573 E8.42857
G1 X137.254 Y123.548 E8.44076
G1 X138.052 Y123.445 E8.45621
G1 X138.835 Y123.264 E8.47165
G1 X139.596 Y123.005 E8.48709
G1 X140.328 Y122.672 E8.50254
G1 X141.023 Y122.269 E8.51797
G1 X141.675 Y121.798 E8.53342
G1 X142.277 Y121.264 E8.54887
G1 X142.823 Y120.674 E8.56431
G1 X143.307 Y120.032 E8.57976
G1 X143.725 Y119.346 E8.59519
G1 X144.073 Y118.621 E8.61063
G1 X144.348 Y117.865 E8.62609
G1 X144.545 Y117.086 E8.64152
G1 X144.665 Y116.291 E8.65696
G1 X144.705 Y115.488 E8.67241
G1 X144.705 Y104.513 E8.88321
G1 X144.68 Y103.879 E8.8954
G1 X144.577 Y103.081 E8.91085
G1 X144.396 Y102.298 E8.92629
G1 X144.137 Y101.537 E8.94173
G1 X143.804 Y100.805 E8.95718
G1 X143.401 Y100.11 E8.97261
G1 X142.93 Y99.458 E8.98806
G1 X142.396 Y98.856 E9.00351
G1 X141.806 Y98.31 E9.01895
G1 X141.164 Y97.826 E9.0344
G1 X140.478 Y97.408 E9.04983
G1 X139.753 Y97.06 E9.06527
G1 X138.997 Y96.785 E9.08073
G1 X138.218 Y96.588 E9.09616
G1 X137.423 Y96.468 E9.1116
G1 X136.62 Y96.428 E9.12704
G1 X88.665 Y96.428 E10.04815
G1 X87.956 Y96.459 E10.06178
G1 X87.49 Y96.5 E10.07077
G1 X86.932 Y96.569 E10.08157
G1 X86.535 Y96.632 E10.08929
G1 X85.951 Y96.747 E10.10072
G1 X85.564 Y96.838 E10.10836
G1 X84.992 Y96.995 E10.11975
G1 X84.61 Y97.115 E10.12744
G1 X84.109 Y97.29 E10.13763
G1 X83.828 Y97.399 E10.14342
G1 X83.373 Y97.592 E10.15292
G1 X83.01 Y97.759 E10.16059
G1 X82.414 Y98.063 E10.17344
G1 X81.98 Y98.308 E10.18302
G1 X81.419 Y98.656 E10.1957
G1 X81.087 Y98.881 E10.2034
G1 X80.605 Y99.235 E10.21489
G1 X80.293 Y99.482 E10.22253
G0 F4800 X80.579 Y99.844
G1 F1500 X80.104 Y100.254 E10.23458
G1 X79.733 Y100.601 E10.24434
G1 X79.305 Y101.034 E10.25603
G1 X79.039 Y101.326 E10.26362
G1 X78.719 Y101.701 E10.27309
G1 X78.532 Y101.935 E10.27884
G1 X78.246 Y102.317 E10.28801
G1 X78.016 Y102.645 E10.2957
G1 X77.702 Y103.131 E10.30682
G1 X77.445 Y103.564 E10.31649
G1 X77.063 Y104.295 E10.33233
G1 X76.858 Y104.745 E10.34183
G1 X76.643 Y105.268 E10.35269
G1 X76.504 Y105.645 E10.36041
G1 X76.336 Y106.153 E10.37069
G1 X76.224 Y106.538 E10.37839
G1 X76.085 Y107.095 E10.38941
G1 X76.003 Y107.484 E10.39705
G1 X75.912 Y108.004 E10.40719
G1 X75.845 Y108.485 E10.41652
G1 X75.777 Y109.259 E10.43144
G1 X75.758 Y109.779 E10.44144
G1 X75.768 Y110.537 E10.456
G1 X75.799 Y111.028 E10.46545
G1 X75.856 Y111.597 E10.47643
G1 X75.911 Y111.993 E10.48411
G1 X75.992 Y112.463 E10.49327
G1 X76.142 Y113.148 E10.50674
G1 X76.217 Y113.438 E10.51249
G1 X76.355 Y113.907 E10.52188
G1 X76.51 Y114.379 E10.53143
G1 X76.816 Y115.165 E10.54763
G1 X77.024 Y115.621 E10.55725
G1 X77.285 Y116.138 E10.56838
G1 X77.478 Y116.488 E10.57606
G1 X77.851 Y117.106 E10.58992
G1 X78.109 Y117.492 E10.59884
G1 X78.284 Y117.737 E10.60462
G1 X78.719 Y118.299 E10.61827
G1 X79.001 Y118.632 E10.62665
G1 X79.273 Y118.935 E10.63447
G1 X79.786 Y119.454 E10.64849
G1 X80.147 Y119.786 E10.65791
G1 X80.575 Y120.152 E10.66873
G1 X80.887 Y120.399 E10.67637
G1 X81.333 Y120.726 E10.68699
G1 X81.739 Y121.002 E10.69642
G1 X82.38 Y121.393 E10.71085
G1 X82.74 Y121.589 E10.71872
G1 X83.184 Y121.813 E10.72827
G1 X83.545 Y121.98 E10.73591
G1 X83.989 Y122.168 E10.74517
