;FLAVOR:Marlin
;TIME:878.184
;Filament used:0.823155m
;Material Diameter:1.75
;Material Density:1.24
;Filament Cost:0.049102
;Filament Weight:2.455101
;Filament Length:0.823155
;Layer height:0.2
;MINX:1.843
;MINY:2.615
;MINZ:0.2
;MAXX:150.778
;MAXY:120.975
;MAXZ:20.401
;OuterWall Time:216.745
;InnerWall Time:138.206
;Skin Time:276.641
;Support Time:0
;SkirtBrim Time:12.4998
;Infill Time:10.9684
;Support Infills Time:0
;Combing Time:77.7573
;Retraction Time:145.367
;PrimeTower Time:0
;;;;;;;;;;;;;;;;;;;;;;;;;;;;;;;;;;;;;;;;;;;;;;;;;;;;;;;;;;;;;;;;;;;;;;
;Creality Print GCode Generated by CXEngine
;CRSLICE_GIT_HASH:58ee74d
;Creality Print Version : V4.3.8.6984
;CXEngine Release Time:2023-12-04 18:16:29
;Gcode Generated Time:2024-04-07 23:33:18
;----------Machine Config--------------
;Machine Name:Ender-3 V3 SE
;Machine Height:250
;Machine Width:220
;Machine Depth:220
;Material Type:PLA
;Material Name:CR-PLA_1.75
;Number of Extruders:1
;ExtruderParams[0] Nozzle Diameter:1000
;----------Profile Config---------------
;Wall Thickness:0.8
;Top/Bottom Thickness:0.8
;Out Wall Line Width:0.42
;Inner Wall Line Width:0.45
;Inital Height:200
;Wall Line Count:2
;Infill Line Distance:8
;Infill Pattern:grid
;Infill Sparse Density:10
;Infill Wipe Distance:0
;Print Temperature:195
;Bed Temperature:60
;Support Enable:false
;Support Density:15
;Support Angle:60
;Adhesion Type:lace
;machine is belt:false
;machine belt offset:10
;machine belt offset Y:0
;Raft Base Line Spacing:1.6
;Wait Heatup Sync:true
;Enable Ironing:false
;Material Type:PLA
;Max volumetric speed:20
;Preview Img Type:png
;Screen Size:Sermoon D3
;----------Shell Config----------------
;Outer Wall Wipe Distance:2000
;Outer Inset First:false
;Infill Before Walls:false
;Infill Overlap:0.09
;Fill Gaps Between Walls:everywhere
;Minimum Infill Area:30
;Top Surface Skin Layer:0
;Top Layers:4
;Z Seam Alignment:sharpest_corner
;Seam Corner Preference:z_seam_corner_inner
;Z Seam X:110
;Z Seam Y:220
;Horizontal Expansion:0
;Top/Bottom Pattern:zigzag
;Ironing Pattern:zigzag
;Vase Model:false
;----------Support Config----------------
;Support Type:everywhere
;Support Pattern:zigzag
;Support Infill Layer Thickness:0.2
;Minimum Support Area:1
;Enable Support Roof:true
;Support Roof Thickness:0.8
;Support Roof Pattern:lines
;Connect Support Lines:0
;Connect Support ZigZags:1
;Minimum Support X/Y Distance:0.2
;Support Line Distance:2.67
; ---------PrintSpeed & Travel----------
;Enable Print Cool:true
;Avoid Printed Parts Traveling:true
;Enable Retraction:true
;Retraction Distance:1.2
;Retraction Speed:30
;Retraction Prime Speed:30
;Maximum Retraction Count:100
;Minimum Extrusion Distance Window:0.8
;Z Hop When Retracted:true
;Z Hop Height:0.4
;Retract Before Outer Wall:true

;Outer Wall Speed:60
;Inner Wall Speed:90
;Infill Speed:180
;Top/Bottom Speed:50
;Travel Speed:150
;Initial Layer Speed:20
;Skirt/Brim Speed:25
;Prime Tower Speed:60
;Outer Wall Acceleration:1000
;Inner Wall Acceleration:2000
;Infill Acceleration:2500
;Top/Bottom Acceleration:2500
;Travel Acceleration:2500
;Initial Layer Print Acceleration:500
;Initial Layer Travel Acceleration:500
;Skirt/Brim Acceleration:500
;Combing Mode:off
; --------SpecialModel&Mesh Fixes--------
;Union Overlapping Volum:true
;Remove All Holes:false
;Maximum Travel Resolution:0.25
;Maximum Deviation:0.05
;Maximum Model Angle:0.872665
;IS Mold Print:false
;Make Overhang Printable:false
;Enable Coasting:false
;Coasting Volumes:0.064
;Coasting Speed:0.9
;Raft AirGap:0.25
;Layer0 ZOverLap:0.13
;Adaptive Layers:0
;---------------------End of Head--------------------------
M140 S60
M105
M190 S60
M104 S195
M82 ;absolute extrusion mode
M220 S100 ;Reset Feedrate
M221 S100 ;Reset Flowrate

G28 ;Home

G92 E0 ;Reset Extruder
G1 Z2.0 F3000 ;Move Z Axis up
G1 X-2.1 Y20 Z0.28 F5000.0 ;Move to start position
M109 S195.000000
G1 X-2.1 Y145.0 Z0.28 F1500.0 E15 ;Draw the first line
G1 X-2.4 Y145.0 Z0.28 F5000.0 ;Move to side a little
G1 X-2.4 Y20 Z0.28 F1500.0 E30 ;Draw the second line
G92 E0  ;Reset Extruder
G1 E-1.0000 F1800 ;Retract a bit
G1 Z2.0 F3000 ;Move Z Axis up
G1 E0.0000 F1800 

G92 E0
G92 E0
G1 F1800 E-1.2
;LAYER_COUNT:13

;LAYER:0
M106 S0
M204 S500
;;retract;;
G1 F1800 E0
G1 F1800 E-1.2
G0 F4800 X1.843 Y2.615 Z20.401
G0 X70.692 Y100.309 Z0.6
;TYPE:SKIRT
G1 F600 Z0.2
G1 F1800 E0
G1 F1500 X70.309 Y100.587 E0.01818
G1 X70.035 Y100.845 E0.03264
G1 X69.794 Y101.136 E0.04715
G1 X69.541 Y101.536 E0.06533
G1 X69.335 Y102.056 E0.08682
G1 X69.227 Y102.616 E0.10873
G1 X69.227 Y103.182 E0.13047
G1 X69.335 Y103.742 E0.15238
G1 X69.541 Y104.262 E0.17387
G1 X69.794 Y104.662 E0.19205
G1 X70.035 Y104.953 E0.20657
G1 X70.309 Y105.211 E0.22102
G1 X70.692 Y105.489 E0.2392
G1 X71.117 Y105.688 E0.25723
G1 X71.564 Y105.834 E0.2753
G1 X72.079 Y105.899 E0.29524
G1 X71.564 Y105.964 E0.31518
G1 X71.117 Y106.11 E0.33324
G1 X70.692 Y106.309 E0.35127
G1 X70.309 Y106.587 E0.36945
G1 X70.035 Y106.845 E0.38391
G1 X69.794 Y107.136 E0.39842
G1 X69.541 Y107.536 E0.4166
G1 X69.335 Y108.056 E0.43809
G1 X69.227 Y108.616 E0.46
G1 X69.227 Y109.182 E0.48174
G1 X69.335 Y109.742 E0.50365
G1 X69.541 Y110.262 E0.52514
G1 X69.794 Y110.662 E0.54332
G1 X70.035 Y110.953 E0.55784
G1 X70.309 Y111.211 E0.57229
G1 X70.692 Y111.489 E0.59047
G1 X71.117 Y111.688 E0.6085
G1 X71.564 Y111.834 E0.62657
G1 X72.079 Y111.899 E0.64651
G1 X71.564 Y111.964 E0.66645
G1 X71.117 Y112.11 E0.68451
G1 X70.692 Y112.309 E0.70254
G1 X70.309 Y112.587 E0.72072
G1 X70.035 Y112.845 E0.73518
G1 X69.794 Y113.136 E0.74969
G1 X69.541 Y113.536 E0.76787
G1 X69.335 Y114.056 E0.78936
G1 X69.227 Y114.616 E0.81127
G1 X69.227 Y115.182 E0.83301
G1 X69.335 Y115.742 E0.85492
G1 X69.541 Y116.262 E0.87641
G1 X69.794 Y116.662 E0.89459
G1 X70.035 Y116.953 E0.90911
G1 X70.309 Y117.211 E0.92356
G1 X70.692 Y117.489 E0.94174
G1 X71.117 Y117.688 E0.95977
G1 X71.564 Y117.834 E0.97784
G1 X72.23 Y117.918 E1.00362
G1 X72.231 Y117.966 E1.00547
G1 X72.911 Y117.975 E1.03159
G1 X72.934 Y118.351 E1.04606
G1 X73.005 Y118.721 E1.06054
G1 X73.15 Y119.169 E1.07863
G1 X73.378 Y119.582 E1.09675
G1 X73.652 Y119.96 E1.11468
G1 X74.068 Y120.352 E1.13664
G1 X74.547 Y120.655 E1.15841
G1 X75.069 Y120.862 E1.17999
G1 X75.535 Y120.951 E1.19821
G1 X75.911 Y120.975 E1.21269
G1 X76.287 Y120.951 E1.22716
G1 X76.754 Y120.861 E1.24543
G1 X77.274 Y120.655 E1.26692
G1 X77.752 Y120.353 E1.28864
G1 X78.098 Y120.028 E1.30687
G1 X78.338 Y119.738 E1.32133
G1 X78.54 Y119.42 E1.33581
G1 X78.741 Y118.992 E1.35397
G1 X78.858 Y118.537 E1.37202
G1 X78.917 Y118.069 E1.39014
G1 X78.934 Y118.351 E1.40099
G1 X79.005 Y118.721 E1.41546
G1 X79.15 Y119.169 E1.43355
G1 X79.378 Y119.582 E1.45168
G1 X79.652 Y119.96 E1.46961
G1 X80.068 Y120.352 E1.49157
G1 X80.547 Y120.655 E1.51334
G1 X81.069 Y120.862 E1.53491
G1 X81.535 Y120.951 E1.55314
G1 X81.911 Y120.975 E1.56761
G1 X82.287 Y120.951 E1.58209
G1 X82.754 Y120.861 E1.60036
G1 X83.274 Y120.655 E1.62184
G1 X83.752 Y120.353 E1.64356
G1 X84.098 Y120.028 E1.6618
G1 X84.338 Y119.738 E1.67626
G1 X84.54 Y119.42 E1.69073
G1 X84.741 Y118.992 E1.7089
G1 X84.858 Y118.537 E1.72694
G1 X84.917 Y118.069 E1.74507
G1 X84.934 Y118.351 E1.75592
G1 X85.005 Y118.721 E1.77039
G1 X85.15 Y119.169 E1.78848
G1 X85.378 Y119.582 E1.8066
G1 X85.652 Y119.96 E1.82454
G1 X86.068 Y120.352 E1.8465
G1 X86.547 Y120.655 E1.86827
G1 X87.069 Y120.862 E1.88984
G1 X87.535 Y120.951 E1.90807
G1 X87.911 Y120.975 E1.92254
G1 X88.287 Y120.951 E1.93701
G1 X88.754 Y120.861 E1.95528
G1 X89.274 Y120.655 E1.97677
G1 X89.752 Y120.353 E1.99849
G1 X90.098 Y120.028 E2.01673
G1 X90.338 Y119.738 E2.03119
G1 X90.54 Y119.42 E2.04566
G1 X90.741 Y118.992 E2.06382
G1 X90.858 Y118.537 E2.08187
G1 X90.917 Y118.069 E2.09999
G1 X90.934 Y118.351 E2.11085
G1 X91.005 Y118.721 E2.12532
G1 X91.15 Y119.169 E2.14341
G1 X91.378 Y119.582 E2.16153
G1 X91.652 Y119.96 E2.17947
G1 X92.068 Y120.352 E2.20142
G1 X92.547 Y120.655 E2.2232
G1 X93.069 Y120.862 E2.24477
G1 X93.535 Y120.951 E2.26299
G1 X93.911 Y120.975 E2.27747
G1 X94.287 Y120.951 E2.29194
G1 X94.754 Y120.861 E2.31021
G1 X95.274 Y120.655 E2.3317
G1 X95.752 Y120.353 E2.35342
G1 X96.098 Y120.028 E2.37165
G1 X96.338 Y119.738 E2.38611
G1 X96.54 Y119.42 E2.40059
G1 X96.741 Y118.992 E2.41875
G1 X96.858 Y118.537 E2.4368
G1 X96.917 Y118.069 E2.45492
G1 X96.934 Y118.351 E2.46577
G1 X97.005 Y118.721 E2.48025
G1 X97.15 Y119.169 E2.49834
G1 X97.378 Y119.582 E2.51646
G1 X97.652 Y119.96 E2.53439
G1 X98.068 Y120.352 E2.55635
G1 X98.547 Y120.655 E2.57812
G1 X99.069 Y120.862 E2.5997
G1 X99.535 Y120.951 E2.61792
G1 X99.911 Y120.975 E2.6324
G1 X100.287 Y120.951 E2.64687
G1 X100.754 Y120.861 E2.66514
G1 X101.274 Y120.655 E2.68663
G1 X101.752 Y120.353 E2.70835
G1 X102.098 Y120.028 E2.72658
G1 X102.338 Y119.738 E2.74104
G1 X102.54 Y119.42 E2.75551
G1 X102.741 Y118.992 E2.77368
G1 X102.858 Y118.537 E2.79173
G1 X102.917 Y118.069 E2.80985
G1 X102.934 Y118.351 E2.8207
G1 X103.005 Y118.721 E2.83517
G1 X103.15 Y119.169 E2.85326
G1 X103.378 Y119.582 E2.87139
G1 X103.652 Y119.96 E2.88932
G1 X104.068 Y120.352 E2.91128
G1 X104.547 Y120.655 E2.93305
G1 X105.069 Y120.862 E2.95462
G1 X105.535 Y120.951 E2.97285
G1 X105.911 Y120.975 E2.98732
G1 X106.287 Y120.951 E3.0018
G1 X106.754 Y120.861 E3.02007
G1 X107.274 Y120.655 E3.04155
G1 X107.752 Y120.353 E3.06327
G1 X108.098 Y120.028 E3.08151
G1 X108.338 Y119.738 E3.09597
G1 X108.54 Y119.42 E3.11044
G1 X108.741 Y118.992 E3.12861
G1 X108.858 Y118.537 E3.14665
G1 X108.917 Y118.069 E3.16478
G1 X108.934 Y118.351 E3.17563
G1 X109.005 Y118.721 E3.1901
G1 X109.15 Y119.169 E3.20819
G1 X109.378 Y119.582 E3.22631
G1 X109.652 Y119.96 E3.24425
G1 X110.068 Y120.352 E3.26621
G1 X110.547 Y120.655 E3.28798
G1 X111.069 Y120.862 E3.30955
G1 X111.535 Y120.951 E3.32778
G1 X111.911 Y120.975 E3.34225
G1 X112.287 Y120.951 E3.35672
G1 X112.754 Y120.861 E3.37499
G1 X113.274 Y120.655 E3.39648
G1 X113.752 Y120.353 E3.4182
G1 X114.098 Y120.028 E3.43644
G1 X114.338 Y119.738 E3.4509
G1 X114.54 Y119.42 E3.46537
G1 X114.741 Y118.992 E3.48353
G1 X114.858 Y118.537 E3.50158
G1 X114.917 Y118.069 E3.5197
G1 X114.934 Y118.351 E3.53056
G1 X115.005 Y118.721 E3.54503
G1 X115.15 Y119.169 E3.56312
G1 X115.378 Y119.582 E3.58124
G1 X115.652 Y119.96 E3.59917
G1 X116.068 Y120.352 E3.62113
G1 X116.547 Y120.655 E3.64291
G1 X117.069 Y120.862 E3.66448
G1 X117.535 Y120.951 E3.6827
G1 X117.911 Y120.975 E3.69718
G1 X118.287 Y120.951 E3.71165
G1 X118.754 Y120.861 E3.72992
G1 X119.274 Y120.655 E3.75141
G1 X119.752 Y120.353 E3.77313
G1 X120.098 Y120.028 E3.79136
G1 X120.338 Y119.738 E3.80582
G1 X120.54 Y119.42 E3.8203
G1 X120.741 Y118.992 E3.83846
G1 X120.858 Y118.537 E3.85651
G1 X120.917 Y118.069 E3.87463
G1 X120.934 Y118.351 E3.88548
G1 X121.005 Y118.721 E3.89996
G1 X121.15 Y119.169 E3.91804
G1 X121.378 Y119.582 E3.93617
G1 X121.652 Y119.96 E3.9541
G1 X122.068 Y120.352 E3.97606
G1 X122.547 Y120.655 E3.99783
G1 X123.069 Y120.862 E4.01941
G1 X123.535 Y120.951 E4.03763
G1 X123.911 Y120.975 E4.0521
G1 X124.287 Y120.951 E4.06658
G1 X124.754 Y120.861 E4.08485
G1 X125.274 Y120.655 E4.10633
G1 X125.752 Y120.353 E4.12806
G1 X126.098 Y120.028 E4.14629
G1 X126.338 Y119.738 E4.16075
G1 X126.54 Y119.42 E4.17522
G1 X126.741 Y118.992 E4.19339
G1 X126.858 Y118.537 E4.21144
G1 X126.917 Y118.069 E4.22956
G1 X126.934 Y118.351 E4.24041
G1 X127.005 Y118.721 E4.25488
G1 X127.15 Y119.169 E4.27297
G1 X127.378 Y119.582 E4.29109
G1 X127.652 Y119.96 E4.30903
G1 X128.068 Y120.352 E4.33099
G1 X128.547 Y120.655 E4.35276
G1 X129.069 Y120.862 E4.37433
G1 X129.535 Y120.951 E4.39256
G1 X129.911 Y120.975 E4.40703
G1 X130.287 Y120.951 E4.42151
G1 X130.754 Y120.861 E4.43978
G1 X131.274 Y120.655 E4.46126
G1 X131.752 Y120.353 E4.48298
G1 X132.098 Y120.028 E4.50122
G1 X132.338 Y119.738 E4.51568
G1 X132.54 Y119.42 E4.53015
G1 X132.741 Y118.992 E4.54832
G1 X132.858 Y118.537 E4.56636
G1 X132.917 Y118.069 E4.58448
G1 X132.934 Y118.351 E4.59534
G1 X133.005 Y118.721 E4.60981
G1 X133.15 Y119.169 E4.6279
G1 X133.378 Y119.582 E4.64602
G1 X133.652 Y119.96 E4.66396
G1 X134.068 Y120.352 E4.68592
G1 X134.547 Y120.655 E4.70769
G1 X135.069 Y120.862 E4.72926
G1 X135.535 Y120.951 E4.74749
G1 X135.911 Y120.975 E4.76196
G1 X136.287 Y120.951 E4.77643
G1 X136.754 Y120.861 E4.7947
G1 X137.274 Y120.655 E4.81619
G1 X137.752 Y120.353 E4.83791
G1 X138.098 Y120.028 E4.85615
G1 X138.338 Y119.738 E4.87061
G1 X138.54 Y119.42 E4.88508
G1 X138.741 Y118.992 E4.90324
G1 X138.858 Y118.537 E4.92129
G1 X138.917 Y118.069 E4.93941
G1 X138.934 Y118.351 E4.95026
G1 X139.005 Y118.721 E4.96474
G1 X139.15 Y119.169 E4.98283
G1 X139.378 Y119.582 E5.00095
G1 X139.652 Y119.96 E5.01888
G1 X140.068 Y120.352 E5.04084
G1 X140.547 Y120.655 E5.06262
G1 X141.069 Y120.862 E5.08419
G1 X141.535 Y120.951 E5.10241
G1 X141.911 Y120.975 E5.11689
G1 X142.287 Y120.951 E5.13136
G1 X142.754 Y120.861 E5.14963
G1 X143.274 Y120.655 E5.17112
G1 X143.752 Y120.353 E5.19284
G1 X144.098 Y120.028 E5.21107
G1 X144.338 Y119.738 E5.22553
G1 X144.54 Y119.42 E5.24001
G1 X144.741 Y118.992 E5.25817
G1 X144.858 Y118.537 E5.27622
G1 X144.924 Y118.009 E5.29666
G1 X145.063 Y118.368 E5.31145
G1 X145.294 Y118.786 E5.3298
G1 X145.591 Y119.144 E5.34766
G1 X145.865 Y119.402 E5.36212
G1 X146.17 Y119.623 E5.37659
G1 X146.583 Y119.851 E5.39471
G1 X147.031 Y119.996 E5.4128
G1 X147.402 Y120.067 E5.42731
G1 X147.778 Y120.09 E5.44179
G1 X148.154 Y120.067 E5.45626
G1 X148.524 Y119.996 E5.47073
G1 X148.972 Y119.851 E5.48882
G1 X149.385 Y119.623 E5.50694
G1 X149.69 Y119.402 E5.52141
G1 X149.964 Y119.144 E5.53587
G1 X150.261 Y118.786 E5.55374
G1 X150.492 Y118.368 E5.57208
G1 X150.665 Y117.932 E5.5901
G1 X150.754 Y117.466 E5.60833
G1 X150.778 Y117.09 E5.6228
G1 X150.754 Y116.714 E5.63728
G1 X150.664 Y116.247 E5.65555
G1 X150.458 Y115.727 E5.67703
G1 X150.156 Y115.249 E5.69875
G1 X149.831 Y114.903 E5.71699
G1 X149.541 Y114.663 E5.73145
G1 X149.223 Y114.461 E5.74592
G1 X148.882 Y114.301 E5.76039
G1 X148.435 Y114.155 E5.77846
G1 X147.872 Y114.084 E5.80026
G1 X148.154 Y114.067 E5.81111
G1 X148.524 Y113.996 E5.82558
G1 X148.972 Y113.851 E5.84367
G1 X149.385 Y113.623 E5.86179
G1 X149.69 Y113.402 E5.87626
G1 X149.964 Y113.144 E5.89072
G1 X150.261 Y112.786 E5.90859
G1 X150.492 Y112.368 E5.92694
G1 X150.665 Y111.932 E5.94496
G1 X150.754 Y111.466 E5.96318
G1 X150.778 Y111.09 E5.97765
G1 X150.754 Y110.714 E5.99213
G1 X150.664 Y110.247 E6.0104
G1 X150.458 Y109.727 E6.03188
G1 X150.156 Y109.249 E6.0536
G1 X149.831 Y108.903 E6.07184
G1 X149.541 Y108.663 E6.0863
G1 X149.223 Y108.461 E6.10077
G1 X148.882 Y108.301 E6.11524
G1 X148.435 Y108.155 E6.13331
G1 X147.872 Y108.084 E6.15511
G1 X148.154 Y108.067 E6.16596
G1 X148.524 Y107.996 E6.18043
G1 X148.972 Y107.851 E6.19852
G1 X149.385 Y107.623 E6.21665
G1 X149.69 Y107.402 E6.23111
G1 X149.964 Y107.144 E6.24557
G1 X150.261 Y106.786 E6.26344
G1 X150.492 Y106.368 E6.28179
G1 X150.665 Y105.932 E6.29981
G1 X150.754 Y105.466 E6.31803
G1 X150.778 Y105.09 E6.33251
G1 X150.754 Y104.714 E6.34698
G1 X150.664 Y104.247 E6.36525
G1 X150.458 Y103.727 E6.38674
G1 X150.156 Y103.249 E6.40846
G1 X149.831 Y102.903 E6.42669
G1 X149.541 Y102.663 E6.44115
G1 X149.223 Y102.461 E6.45563
G1 X148.882 Y102.301 E6.4701
G1 X148.435 Y102.155 E6.48816
G1 X147.77 Y102.071 E6.51391
G1 X147.769 Y102.035 E6.51529
G1 X147.109 Y102.025 E6.54065
G1 X147.026 Y101.367 E6.56613
G1 X146.88 Y100.92 E6.58419
G1 X146.681 Y100.495 E6.60222
G1 X146.403 Y100.112 E6.6204
G1 X146.145 Y99.838 E6.63486
G1 X145.854 Y99.597 E6.64937
G1 X145.454 Y99.344 E6.66755
G1 X144.934 Y99.138 E6.68904
G1 X144.374 Y99.03 E6.71095
G1 X143.808 Y99.03 E6.73269
G1 X143.248 Y99.138 E6.7546
G1 X142.728 Y99.344 E6.77609
G1 X142.328 Y99.597 E6.79427
G1 X142.037 Y99.838 E6.80879
G1 X141.779 Y100.112 E6.82324
G1 X141.501 Y100.495 E6.84142
G1 X141.302 Y100.92 E6.85945
G1 X141.156 Y101.367 E6.87752
G1 X141.091 Y101.882 E6.89746
G1 X141.026 Y101.367 E6.9174
G1 X140.88 Y100.92 E6.93546
G1 X140.681 Y100.495 E6.95349
G1 X140.403 Y100.112 E6.97167
G1 X140.145 Y99.838 E6.98613
G1 X139.854 Y99.597 E7.00064
G1 X139.454 Y99.344 E7.01882
G1 X138.934 Y99.138 E7.04031
