;FLAVOR:Marlin
;TIME:1272.37
;Filament used:1.25197m
;Material Diameter:1.75
;Material Density:1.24
;Filament Cost:0.074681
;Filament Weight:3.734050
;Filament Length:1.251966
;Layer height:0.2
;MINX:1.788
;MINY:2.653
;MINZ:0.2
;MAXX:157.994
;MAXY:122.494
;MAXZ:20.401
;OuterWall Time:279.526
;InnerWall Time:207.886
;Skin Time:421.212
;Support Time:0
;SkirtBrim Time:14.5579
;Infill Time:22.703
;Support Infills Time:0
;Combing Time:105.508
;Retraction Time:220.978
;PrimeTower Time:0
;;;;;;;;;;;;;;;;;;;;;;;;;;;;;;;;;;;;;;;;;;;;;;;;;;;;;;;;;;;;;;;;;;;;;;;;
;Creality Print GCode Generated by CXEngine
;CRSLICE_GIT_HASH:58ee74d
;Creality Print Version : V4.3.8.6984
;CXEngine Release Time:2023-12-04 18:16:29
;Gcode Generated Time:2024-04-07 23:31:40
;----------Machine Config--------------
;Machine Name:Ender-3 V3 SE
;Machine Height:250
;Machine Width:220
;Machine Depth:220
;Material Type:PLA
;Material Name:CR-PLA_1.75
;Number of Extruders:1
;ExtruderParams[0] Nozzle Diameter:1000
;----------Profile Config---------------
;Wall Thickness:0.8
;Top/Bottom Thickness:0.8
;Out Wall Line Width:0.42
;Inner Wall Line Width:0.45
;Inital Height:200
;Wall Line Count:2
;Infill Line Distance:8
;Infill Pattern:grid
;Infill Sparse Density:10
;Infill Wipe Distance:0
;Print Temperature:195
;Bed Temperature:60
;Support Enable:false
;Support Density:15
;Support Angle:60
;Adhesion Type:lace
;machine is belt:false
;machine belt offset:10
;machine belt offset Y:0
;Raft Base Line Spacing:1.6
;Wait Heatup Sync:true
;Enable Ironing:false
;Material Type:PLA
;Max volumetric speed:20
;Preview Img Type:png
;Screen Size:Sermoon D3
;----------Shell Config----------------
;Outer Wall Wipe Distance:2000
;Outer Inset First:false
;Infill Before Walls:false
;Infill Overlap:0.09
;Fill Gaps Between Walls:everywhere
;Minimum Infill Area:30
;Top Surface Skin Layer:0
;Top Layers:4
;Z Seam Alignment:sharpest_corner
;Seam Corner Preference:z_seam_corner_inner
;Z Seam X:110
;Z Seam Y:220
;Horizontal Expansion:0
;Top/Bottom Pattern:zigzag
;Ironing Pattern:zigzag
;Vase Model:false
;----------Support Config----------------
;Support Type:everywhere
;Support Pattern:zigzag
;Support Infill Layer Thickness:0.2
;Minimum Support Area:1
;Enable Support Roof:true
;Support Roof Thickness:0.8
;Support Roof Pattern:lines
;Connect Support Lines:0
;Connect Support ZigZags:1
;Minimum Support X/Y Distance:0.2
;Support Line Distance:2.67
; ---------PrintSpeed & Travel----------
;Enable Print Cool:true
;Avoid Printed Parts Traveling:true
;Enable Retraction:true
;Retraction Distance:1.2
;Retraction Speed:30
;Retraction Prime Speed:30
;Maximum Retraction Count:100
;Minimum Extrusion Distance Window:0.8
;Z Hop When Retracted:true
;Z Hop Height:0.4
;Retract Before Outer Wall:true

;Outer Wall Speed:60
;Inner Wall Speed:90
;Infill Speed:180
;Top/Bottom Speed:50
;Travel Speed:150
;Initial Layer Speed:20
;Skirt/Brim Speed:25
;Prime Tower Speed:60
;Outer Wall Acceleration:1000
;Inner Wall Acceleration:2000
;Infill Acceleration:2500
;Top/Bottom Acceleration:2500
;Travel Acceleration:2500
;Initial Layer Print Acceleration:500
;Initial Layer Travel Acceleration:500
;Skirt/Brim Acceleration:500
;Combing Mode:off
; --------SpecialModel&Mesh Fixes--------
;Union Overlapping Volum:true
;Remove All Holes:false
;Maximum Travel Resolution:0.25
;Maximum Deviation:0.05
;Maximum Model Angle:0.872665
;IS Mold Print:false
;Make Overhang Printable:false
;Enable Coasting:false
;Coasting Volumes:0.064
;Coasting Speed:0.9
;Raft AirGap:0.25
;Layer0 ZOverLap:0.13
;Adaptive Layers:0
;---------------------End of Head--------------------------
M140 S60
M105
M190 S60
M104 S195
M82 ;absolute extrusion mode
M220 S100 ;Reset Feedrate
M221 S100 ;Reset Flowrate

G28 ;Home

G92 E0 ;Reset Extruder
G1 Z2.0 F3000 ;Move Z Axis up
G1 X-2.1 Y20 Z0.28 F5000.0 ;Move to start position
M109 S195.000000
G1 X-2.1 Y145.0 Z0.28 F1500.0 E15 ;Draw the first line
G1 X-2.4 Y145.0 Z0.28 F5000.0 ;Move to side a little
G1 X-2.4 Y20 Z0.28 F1500.0 E30 ;Draw the second line
G92 E0  ;Reset Extruder
G1 E-1.0000 F1800 ;Retract a bit
G1 Z2.0 F3000 ;Move Z Axis up
G1 E0.0000 F1800 

G92 E0
G92 E0
G1 F1800 E-1.2
;LAYER_COUNT:15

;LAYER:0
M106 S0
M204 S500
;;retract;;
G1 F1800 E0
G1 F1800 E-1.2
G0 F4800 X1.788 Y2.653 Z20.401
G0 X66.115 Y98.072 Z0.6
;TYPE:SKIRT
G1 F600 Z0.2
G1 F1800 E0
G1 F1500 X65.825 Y98.313 E0.01449
G1 X65.501 Y98.657 E0.03264
G1 X65.198 Y99.136 E0.05441
G1 X64.991 Y99.656 E0.07591
G1 X64.902 Y100.124 E0.09421
G1 X64.878 Y100.5 E0.10869
G1 X64.907 Y100.96 E0.12639
G1 X64.996 Y101.326 E0.14086
G1 X64.342 Y101.408 E0.16618
G1 X63.895 Y101.554 E0.18425
G1 X63.554 Y101.714 E0.19872
G1 X63.236 Y101.916 E0.21319
G1 X62.873 Y102.216 E0.23128
G1 X62.572 Y102.58 E0.24943
G1 X62.319 Y102.98 E0.26761
G1 X62.113 Y103.5 E0.28909
G1 X62.005 Y104.06 E0.311
G1 X62.005 Y104.626 E0.33275
G1 X62.113 Y105.186 E0.35466
G1 X62.285 Y105.62 E0.37259
G1 X62.513 Y106.035 E0.39078
G1 X62.813 Y106.397 E0.40884
G1 X63.087 Y106.655 E0.4233
G1 X63.392 Y106.876 E0.43777
G1 X63.722 Y107.058 E0.45224
G1 X64.072 Y107.196 E0.4667
G1 X64.437 Y107.29 E0.48118
G1 X64.857 Y107.343 E0.49744
G1 X64.342 Y107.408 E0.51738
G1 X63.895 Y107.554 E0.53544
G1 X63.554 Y107.714 E0.54991
G1 X63.236 Y107.916 E0.56439
G1 X62.873 Y108.216 E0.58248
G1 X62.572 Y108.58 E0.60062
G1 X62.319 Y108.98 E0.6188
G1 X62.113 Y109.5 E0.64029
G1 X62.005 Y110.06 E0.6622
G1 X62.005 Y110.626 E0.68394
G1 X62.113 Y111.186 E0.70585
G1 X62.285 Y111.62 E0.72379
G1 X62.513 Y112.035 E0.74198
G1 X62.813 Y112.397 E0.76004
G1 X63.087 Y112.655 E0.77449
G1 X63.392 Y112.876 E0.78896
G1 X63.722 Y113.058 E0.80344
G1 X64.072 Y113.196 E0.81789
G1 X64.437 Y113.29 E0.83237
G1 X64.857 Y113.343 E0.84864
G1 X64.342 Y113.408 E0.86858
G1 X63.895 Y113.554 E0.88664
G1 X63.554 Y113.714 E0.90111
G1 X63.236 Y113.916 E0.91558
G1 X62.873 Y114.216 E0.93367
G1 X62.572 Y114.58 E0.95182
G1 X62.319 Y114.98 E0.97
G1 X62.113 Y115.5 E0.99149
G1 X62.005 Y116.06 E1.0134
G1 X62.005 Y116.626 E1.03514
G1 X62.113 Y117.186 E1.05705
G1 X62.285 Y117.62 E1.07498
G1 X62.513 Y118.035 E1.09317
G1 X62.813 Y118.397 E1.11123
G1 X63.087 Y118.655 E1.12569
G1 X63.392 Y118.876 E1.14016
G1 X63.722 Y119.058 E1.15464
G1 X64.072 Y119.196 E1.16909
G1 X64.437 Y119.29 E1.18357
G1 X65.005 Y119.361 E1.20556
G1 X65.009 Y119.491 E1.21056
G1 X65.13 Y119.493 E1.2152
G1 X65.214 Y120.157 E1.24092
G1 X65.36 Y120.604 E1.25898
G1 X65.52 Y120.945 E1.27345
G1 X65.722 Y121.263 E1.28792
G1 X65.962 Y121.553 E1.30238
G1 X66.308 Y121.878 E1.32062
G1 X66.786 Y122.18 E1.34234
G1 X67.306 Y122.386 E1.36383
G1 X67.866 Y122.494 E1.38574
G1 X68.432 Y122.494 E1.40748
G1 X68.992 Y122.386 E1.42939
G1 X69.426 Y122.214 E1.44732
G1 X69.845 Y121.984 E1.46568
G1 X70.203 Y121.686 E1.48358
G1 X70.461 Y121.412 E1.49803
G1 X70.682 Y121.107 E1.5125
G1 X70.864 Y120.777 E1.52698
G1 X71.002 Y120.427 E1.54143
G1 X71.096 Y120.062 E1.55591
G1 X71.149 Y119.642 E1.57218
G1 X71.214 Y120.157 E1.59212
G1 X71.36 Y120.604 E1.61018
G1 X71.52 Y120.945 E1.62465
G1 X71.722 Y121.263 E1.63912
G1 X71.962 Y121.553 E1.65358
G1 X72.308 Y121.878 E1.67182
G1 X72.786 Y122.18 E1.69354
G1 X73.306 Y122.386 E1.71503
G1 X73.866 Y122.494 E1.73694
G1 X74.432 Y122.494 E1.75868
G1 X74.992 Y122.386 E1.78059
G1 X75.426 Y122.214 E1.79852
G1 X75.845 Y121.984 E1.81688
G1 X76.203 Y121.686 E1.83478
G1 X76.461 Y121.412 E1.84924
G1 X76.682 Y121.107 E1.8637
G1 X76.864 Y120.777 E1.87818
G1 X77.002 Y120.427 E1.89263
G1 X77.096 Y120.062 E1.90711
G1 X77.149 Y119.642 E1.92338
G1 X77.214 Y120.157 E1.94332
G1 X77.36 Y120.604 E1.96138
G1 X77.52 Y120.945 E1.97585
G1 X77.722 Y121.263 E1.99032
G1 X77.962 Y121.553 E2.00478
G1 X78.308 Y121.878 E2.02302
G1 X78.786 Y122.18 E2.04474
G1 X79.306 Y122.386 E2.06623
G1 X79.866 Y122.494 E2.08814
G1 X80.432 Y122.494 E2.10988
G1 X80.992 Y122.386 E2.13179
G1 X81.426 Y122.214 E2.14972
G1 X81.845 Y121.984 E2.16808
G1 X82.203 Y121.686 E2.18598
G1 X82.461 Y121.412 E2.20044
G1 X82.682 Y121.107 E2.21491
G1 X82.864 Y120.777 E2.22938
G1 X83.002 Y120.427 E2.24384
G1 X83.096 Y120.062 E2.25831
G1 X83.149 Y119.642 E2.27458
G1 X83.214 Y120.157 E2.29452
G1 X83.36 Y120.604 E2.31258
G1 X83.52 Y120.945 E2.32705
G1 X83.722 Y121.263 E2.34152
G1 X83.962 Y121.553 E2.35599
G1 X84.308 Y121.878 E2.37422
G1 X84.786 Y122.18 E2.39594
G1 X85.306 Y122.386 E2.41743
G1 X85.866 Y122.494 E2.43934
G1 X86.432 Y122.494 E2.46108
G1 X86.992 Y122.386 E2.48299
G1 X87.426 Y122.214 E2.50092
G1 X87.845 Y121.984 E2.51928
G1 X88.203 Y121.686 E2.53718
G1 X88.461 Y121.412 E2.55164
G1 X88.682 Y121.107 E2.56611
G1 X88.864 Y120.777 E2.58058
G1 X89.002 Y120.427 E2.59504
G1 X89.096 Y120.062 E2.60951
G1 X89.149 Y119.642 E2.62578
G1 X89.214 Y120.157 E2.64572
G1 X89.36 Y120.604 E2.66378
G1 X89.52 Y120.945 E2.67825
G1 X89.722 Y121.263 E2.69273
G1 X89.962 Y121.553 E2.70719
G1 X90.308 Y121.878 E2.72542
G1 X90.786 Y122.18 E2.74714
G1 X91.306 Y122.386 E2.76863
G1 X91.866 Y122.494 E2.79054
G1 X92.432 Y122.494 E2.81228
G1 X92.992 Y122.386 E2.83419
G1 X93.426 Y122.214 E2.85212
G1 X93.845 Y121.984 E2.87049
G1 X94.203 Y121.686 E2.88838
G1 X94.461 Y121.412 E2.90284
G1 X94.682 Y121.107 E2.91731
G1 X94.864 Y120.777 E2.93178
G1 X95.002 Y120.427 E2.94624
G1 X95.096 Y120.062 E2.96072
G1 X95.149 Y119.642 E2.97698
G1 X95.214 Y120.157 E2.99692
G1 X95.36 Y120.604 E3.01498
G1 X95.52 Y120.945 E3.02945
G1 X95.722 Y121.263 E3.04393
G1 X95.962 Y121.553 E3.05839
G1 X96.308 Y121.878 E3.07662
G1 X96.786 Y122.18 E3.09834
G1 X97.306 Y122.386 E3.11983
G1 X97.866 Y122.494 E3.14174
G1 X98.432 Y122.494 E3.16348
G1 X98.992 Y122.386 E3.18539
G1 X99.426 Y122.214 E3.20332
G1 X99.845 Y121.984 E3.22169
G1 X100.203 Y121.686 E3.23958
G1 X100.461 Y121.412 E3.25404
G1 X100.682 Y121.107 E3.26851
G1 X100.864 Y120.777 E3.28298
G1 X101.002 Y120.427 E3.29744
G1 X101.096 Y120.062 E3.31192
G1 X101.149 Y119.642 E3.32818
G1 X101.214 Y120.157 E3.34812
G1 X101.36 Y120.604 E3.36618
G1 X101.52 Y120.945 E3.38065
G1 X101.722 Y121.263 E3.39513
G1 X101.962 Y121.553 E3.40959
G1 X102.308 Y121.878 E3.42782
G1 X102.786 Y122.18 E3.44954
G1 X103.306 Y122.386 E3.47103
G1 X103.866 Y122.494 E3.49294
G1 X104.432 Y122.494 E3.51468
G1 X104.992 Y122.386 E3.53659
G1 X105.426 Y122.214 E3.55452
G1 X105.845 Y121.984 E3.57289
G1 X106.203 Y121.686 E3.59078
G1 X106.461 Y121.412 E3.60524
G1 X106.682 Y121.107 E3.61971
G1 X106.864 Y120.777 E3.63418
G1 X107.002 Y120.427 E3.64864
G1 X107.096 Y120.062 E3.66312
G1 X107.149 Y119.642 E3.67938
G1 X107.214 Y120.157 E3.69932
G1 X107.36 Y120.604 E3.71738
G1 X107.52 Y120.945 E3.73185
G1 X107.722 Y121.263 E3.74633
G1 X107.962 Y121.553 E3.76079
G1 X108.308 Y121.878 E3.77902
G1 X108.786 Y122.18 E3.80074
G1 X109.306 Y122.386 E3.82223
G1 X109.866 Y122.494 E3.84414
G1 X110.432 Y122.494 E3.86588
G1 X110.992 Y122.386 E3.88779
G1 X111.426 Y122.214 E3.90573
G1 X111.845 Y121.984 E3.92409
G1 X112.203 Y121.686 E3.94198
G1 X112.461 Y121.412 E3.95644
G1 X112.682 Y121.107 E3.97091
G1 X112.864 Y120.777 E3.98539
G1 X113.002 Y120.427 E3.99984
G1 X113.096 Y120.062 E4.01432
G1 X113.149 Y119.642 E4.03058
G1 X113.214 Y120.157 E4.05052
G1 X113.36 Y120.604 E4.06858
G1 X113.52 Y120.945 E4.08305
G1 X113.722 Y121.263 E4.09753
G1 X113.962 Y121.553 E4.11199
G1 X114.308 Y121.878 E4.13022
G1 X114.786 Y122.18 E4.15194
G1 X115.306 Y122.386 E4.17343
G1 X115.866 Y122.494 E4.19534
G1 X116.432 Y122.494 E4.21708
G1 X116.992 Y122.386 E4.23899
G1 X117.426 Y122.214 E4.25693
G1 X117.845 Y121.984 E4.27529
G1 X118.203 Y121.686 E4.29318
G1 X118.461 Y121.412 E4.30764
G1 X118.682 Y121.107 E4.32211
G1 X118.864 Y120.777 E4.33659
G1 X119.002 Y120.427 E4.35104
G1 X119.096 Y120.062 E4.36552
G1 X119.149 Y119.642 E4.38178
G1 X119.214 Y120.157 E4.40172
G1 X119.36 Y120.604 E4.41979
G1 X119.52 Y120.945 E4.43426
G1 X119.722 Y121.263 E4.44873
G1 X119.962 Y121.553 E4.46319
G1 X120.308 Y121.878 E4.48142
G1 X120.786 Y122.18 E4.50314
G1 X121.306 Y122.386 E4.52463
G1 X121.866 Y122.494 E4.54654
G1 X122.432 Y122.494 E4.56828
G1 X122.992 Y122.386 E4.59019
G1 X123.426 Y122.214 E4.60813
G1 X123.845 Y121.984 E4.62649
G1 X124.203 Y121.686 E4.64438
G1 X124.461 Y121.412 E4.65884
G1 X124.682 Y121.107 E4.67331
G1 X124.864 Y120.777 E4.68779
G1 X125.002 Y120.427 E4.70224
G1 X125.096 Y120.062 E4.71672
G1 X125.149 Y119.642 E4.73298
G1 X125.214 Y120.157 E4.75292
G1 X125.36 Y120.604 E4.77099
G1 X125.52 Y120.945 E4.78546
G1 X125.722 Y121.263 E4.79993
G1 X125.962 Y121.553 E4.81439
G1 X126.308 Y121.878 E4.83262
G1 X126.786 Y122.18 E4.85435
G1 X127.306 Y122.386 E4.87583
G1 X127.866 Y122.494 E4.89774
G1 X128.432 Y122.494 E4.91948
G1 X128.992 Y122.386 E4.94139
G1 X129.426 Y122.214 E4.95933
G1 X129.841 Y121.986 E4.97752
G1 X130.203 Y121.686 E4.99558
G1 X130.461 Y121.412 E5.01004
G1 X130.682 Y121.107 E5.0245
G1 X130.864 Y120.777 E5.03898
G1 X131.002 Y120.427 E5.05344
G1 X131.096 Y120.062 E5.06791
G1 X131.149 Y119.642 E5.08418
G1 X131.214 Y120.157 E5.10412
G1 X131.36 Y120.604 E5.12218
G1 X131.52 Y120.945 E5.13665
G1 X131.722 Y121.263 E5.15112
G1 X131.962 Y121.553 E5.16559
G1 X132.308 Y121.878 E5.18382
G1 X132.786 Y122.18 E5.20554
G1 X133.306 Y122.386 E5.22703
G1 X133.866 Y122.494 E5.24894
G1 X134.432 Y122.494 E5.27068
G1 X134.992 Y122.386 E5.29259
G1 X135.426 Y122.214 E5.31052
G1 X135.845 Y121.984 E5.32888
G1 X136.203 Y121.686 E5.34678
G1 X136.461 Y121.412 E5.36124
G1 X136.682 Y121.107 E5.37571
G1 X136.864 Y120.777 E5.39018
G1 X137.002 Y120.427 E5.40464
G1 X137.096 Y120.062 E5.41911
G1 X137.149 Y119.642 E5.43538
G1 X137.214 Y120.157 E5.45532
G1 X137.36 Y120.604 E5.47338
G1 X137.52 Y120.945 E5.48785
G1 X137.722 Y121.263 E5.50232
G1 X137.962 Y121.553 E5.51679
G1 X138.308 Y121.878 E5.53502
G1 X138.786 Y122.18 E5.55674
G1 X139.306 Y122.386 E5.57823
G1 X139.866 Y122.494 E5.60014
G1 X140.432 Y122.494 E5.62188
G1 X140.992 Y122.386 E5.64379
G1 X141.426 Y122.214 E5.66172
G1 X141.845 Y121.984 E5.68009
G1 X142.203 Y121.686 E5.69798
G1 X142.461 Y121.412 E5.71244
G1 X142.682 Y121.107 E5.72691
G1 X142.864 Y120.777 E5.74138
G1 X143.002 Y120.427 E5.75584
G1 X143.096 Y120.062 E5.77032
G1 X143.149 Y119.642 E5.78658
G1 X143.214 Y120.157 E5.80652
G1 X143.36 Y120.604 E5.82458
G1 X143.52 Y120.945 E5.83905
G1 X143.722 Y121.263 E5.85353
G1 X143.962 Y121.553 E5.86799
G1 X144.308 Y121.878 E5.88622
G1 X144.786 Y122.18 E5.90794
G1 X145.306 Y122.386 E5.92943
G1 X145.866 Y122.494 E5.95134
G1 X146.432 Y122.494 E5.97308
G1 X146.992 Y122.386 E5.99499
G1 X147.426 Y122.214 E6.01292
G1 X147.845 Y121.984 E6.03129
G1 X148.203 Y121.686 E6.04918
G1 X148.461 Y121.412 E6.06364
G1 X148.682 Y121.107 E6.07811
G1 X148.864 Y120.777 E6.09258
G1 X149.002 Y120.427 E6.10704
G1 X149.096 Y120.062 E6.12152
G1 X149.149 Y119.642 E6.13778
G1 X149.214 Y120.157 E6.15772
G1 X149.36 Y120.604 E6.17578
G1 X149.52 Y120.945 E6.19025
G1 X149.722 Y121.263 E6.20473
G1 X149.962 Y121.553 E6.21919
G1 X150.308 Y121.878 E6.23742
G1 X150.786 Y122.18 E6.25914
G1 X151.306 Y122.386 E6.28063
G1 X151.866 Y122.494 E6.30254
G1 X152.432 Y122.494 E6.32428
G1 X152.992 Y122.386 E6.34619
G1 X153.426 Y122.214 E6.36412
G1 X153.845 Y121.984 E6.38249
G1 X154.203 Y121.686 E6.40038
G1 X154.461 Y121.412 E6.41484
G1 X154.682 Y121.107 E6.42931
G1 X154.864 Y120.777 E6.44378
G1 X155.002 Y120.427 E6.45824
G1 X155.096 Y120.062 E6.47272
G1 X155.143 Y119.688 E6.4872
G1 X155.143 Y119.311 E6.50168
G1 X155.096 Y118.937 E6.51616
G1 X155.004 Y118.583 E6.53021
G1 X155.657 Y118.501 E6.55549
G1 X156.104 Y118.355 E6.57356
G1 X156.445 Y118.195 E6.58803
G1 X156.763 Y117.993 E6.6025
G1 X157.053 Y117.753 E6.61696
G1 X157.378 Y117.407 E6.6352
G1 X157.68 Y116.929 E6.65692
G1 X157.886 Y116.409 E6.6784
G1 X157.994 Y115.849 E6.70031
G1 X157.994 Y115.283 E6.72206
G1 X157.886 Y114.723 E6.74396
G1 X157.714 Y114.289 E6.7619
G1 X157.486 Y113.874 E6.78009
G1 X157.186 Y113.512 E6.79815
G1 X156.912 Y113.254 E6.81261
G1 X156.607 Y113.033 E6.82708
G1 X156.277 Y112.851 E6.84155
G1 X155.927 Y112.713 E6.85601
G1 X155.562 Y112.619 E6.87049
G1 X155.142 Y112.566 E6.88675
G1 X155.657 Y112.501 E6.90669
G1 X156.104 Y112.355 E6.92475
G1 X156.445 Y112.195 E6.93922
G1 X156.763 Y111.993 E6.9537
G1 X157.053 Y111.753 E6.96816
