;FLAVOR:Marlin
;TIME:442.457
;Filament used:0.327986m
;Material Diameter:1.75
;Material Density:1.24
;Filament Cost:0.019565
;Filament Weight:0.978236
;Filament Length:0.327986
;Layer height:0.2
;MINX:1.554
;MINY:2.797
;MINZ:0.2
;MAXX:132.679
;MAXY:148.417
;MAXZ:20.401
;OuterWall Time:120.324
;InnerWall Time:71.0474
;Skin Time:95.4245
;Support Time:0
;SkirtBrim Time:9.65221
;Infill Time:0
;Support Infills Time:0
;Combing Time:52.4191
;Retraction Time:93.5891
;PrimeTower Time:0
;;;;;;;;;;;;;;;;;;;;;;;;;;;;;;;;;;;;;;;;;;;;;;;;;;;;;;;;;;;;;;;;;;;;;;;;;;;;
;Creality Print GCode Generated by CXEngine
;CRSLICE_GIT_HASH:58ee74d
;Creality Print Version : V4.3.8.6984
;CXEngine Release Time:2023-12-04 18:16:29
;Gcode Generated Time:2024-04-18 19:42:49
;----------Machine Config--------------
;Machine Name:Ender-3 V3 SE
;Machine Height:250
;Machine Width:220
;Machine Depth:220
;Material Type:PLA
;Material Name:CR-PLA_1.75
;Number of Extruders:1
;ExtruderParams[0] Nozzle Diameter:1000
;----------Profile Config---------------
;Wall Thickness:0.8
;Top/Bottom Thickness:0.8
;Out Wall Line Width:0.42
;Inner Wall Line Width:0.45
;Inital Height:200
;Wall Line Count:2
;Infill Line Distance:8
;Infill Pattern:grid
;Infill Sparse Density:10
;Infill Wipe Distance:0
;Print Temperature:195
;Bed Temperature:60
;Support Enable:false
;Support Density:15
;Support Angle:60
;Adhesion Type:lace
;machine is belt:false
;machine belt offset:10
;machine belt offset Y:0
;Raft Base Line Spacing:1.6
;Wait Heatup Sync:true
;Enable Ironing:false
;Material Type:PLA
;Max volumetric speed:20
;Preview Img Type:png
;Screen Size:Sermoon D3
;----------Shell Config----------------
;Outer Wall Wipe Distance:2000
;Outer Inset First:false
;Infill Before Walls:false
;Infill Overlap:0.09
;Fill Gaps Between Walls:everywhere
;Minimum Infill Area:30
;Top Surface Skin Layer:0
;Top Layers:4
;Z Seam Alignment:sharpest_corner
;Seam Corner Preference:z_seam_corner_inner
;Z Seam X:110
;Z Seam Y:220
;Horizontal Expansion:0
;Top/Bottom Pattern:zigzag
;Ironing Pattern:zigzag
;Vase Model:false
;----------Support Config----------------
;Support Type:everywhere
;Support Pattern:zigzag
;Support Infill Layer Thickness:0.2
;Minimum Support Area:1
;Enable Support Roof:true
;Support Roof Thickness:0.8
;Support Roof Pattern:lines
;Connect Support Lines:0
;Connect Support ZigZags:1
;Minimum Support X/Y Distance:0.2
;Support Line Distance:2.67
; ---------PrintSpeed & Travel----------
;Enable Print Cool:true
;Avoid Printed Parts Traveling:true
;Enable Retraction:true
;Retraction Distance:1.2
;Retraction Speed:30
;Retraction Prime Speed:30
;Maximum Retraction Count:100
;Minimum Extrusion Distance Window:0.8
;Z Hop When Retracted:true
;Z Hop Height:0.4
;Retract Before Outer Wall:true

;Outer Wall Speed:60
;Inner Wall Speed:90
;Infill Speed:180
;Top/Bottom Speed:50
;Travel Speed:150
;Initial Layer Speed:20
;Skirt/Brim Speed:25
;Prime Tower Speed:60
;Outer Wall Acceleration:1000
;Inner Wall Acceleration:2000
;Infill Acceleration:2500
;Top/Bottom Acceleration:2500
;Travel Acceleration:2500
;Initial Layer Print Acceleration:500
;Initial Layer Travel Acceleration:500
;Skirt/Brim Acceleration:500
;Combing Mode:off
; --------SpecialModel&Mesh Fixes--------
;Union Overlapping Volum:true
;Remove All Holes:false
;Maximum Travel Resolution:0.25
;Maximum Deviation:0.05
;Maximum Model Angle:0.872665
;IS Mold Print:false
;Make Overhang Printable:false
;Enable Coasting:false
;Coasting Volumes:0.064
;Coasting Speed:0.9
;Raft AirGap:0.25
;Layer0 ZOverLap:0.13
;Adaptive Layers:0
;---------------------End of Head--------------------------
M140 S60
M105
M190 S60
M104 S195
M82 ;absolute extrusion mode
M220 S100 ;Reset Feedrate
M221 S100 ;Reset Flowrate

G28 ;Home

G92 E0 ;Reset Extruder
G1 Z2.0 F3000 ;Move Z Axis up
G1 X-2.1 Y20 Z0.28 F5000.0 ;Move to start position
M109 S195.000000
G1 X-2.1 Y145.0 Z0.28 F1500.0 E15 ;Draw the first line
G1 X-2.4 Y145.0 Z0.28 F5000.0 ;Move to side a little
G1 X-2.4 Y20 Z0.28 F1500.0 E30 ;Draw the second line
G92 E0  ;Reset Extruder
G1 E-1.0000 F1800 ;Retract a bit
G1 Z2.0 F3000 ;Move Z Axis up
G1 E0.0000 F1800 

G92 E0
G92 E0
G1 F1800 E-1.2
;LAYER_COUNT:8

;LAYER:0
M106 S0
M204 S500
;;retract;;
G1 F1800 E0
G1 F1800 E-1.2
G0 F4800 X1.554 Y2.797 Z20.401
G0 X72.989 Y131.374 Z0.6
;TYPE:SKIRT
G1 F600 Z0.2
G1 F1800 E0
G1 F1500 X72.671 Y131.576 E0.01447
G1 X72.381 Y131.816 E0.02893
G1 X72.123 Y132.091 E0.04342
G1 X71.901 Y132.396 E0.05791
G1 X71.72 Y132.726 E0.07237
G1 X71.548 Y133.16 E0.0903
G1 X71.44 Y133.72 E0.11221
G1 X71.44 Y134.285 E0.13392
G1 X71.547 Y134.845 E0.15582
G1 X71.72 Y135.281 E0.17384
G1 X71.944 Y135.689 E0.19172
G1 X72.179 Y135.979 E0.20606
G1 X72.042 Y136.194 E0.21585
G1 X71.76 Y136.684 E0.23757
G1 X71.524 Y137.238 E0.2607
G1 X71.39 Y137.607 E0.27578
G1 X71.254 Y138.207 E0.29942
G1 X70.704 Y138.313 E0.32093
G1 X70.256 Y138.458 E0.33902
G1 X69.843 Y138.686 E0.35715
G1 X69.538 Y138.907 E0.37162
G1 X69.263 Y139.165 E0.3861
G1 X69.023 Y139.455 E0.40056
G1 X68.821 Y139.774 E0.41507
G1 X68.661 Y140.114 E0.4295
G1 X68.545 Y140.473 E0.444
G1 X68.474 Y140.843 E0.45847
G1 X68.45 Y141.219 E0.47294
G1 X68.474 Y141.595 E0.48742
G1 X68.545 Y141.965 E0.50189
G1 X68.661 Y142.323 E0.51635
G1 X68.821 Y142.664 E0.53082
G1 X69.023 Y142.982 E0.54529
G1 X69.324 Y143.345 E0.5634
G1 X69.687 Y143.646 E0.58152
G1 X70.005 Y143.848 E0.59599
G1 X70.346 Y144.008 E0.61046
G1 X70.793 Y144.154 E0.62853
G1 X71.262 Y144.213 E0.64668
G1 X71.639 Y144.213 E0.66117
G1 X72.106 Y144.154 E0.67925
G1 X72.555 Y144.008 E0.69739
G1 X73.033 Y143.784 E0.71767
G1 X72.836 Y144.284 E0.73831
G1 X72.742 Y144.649 E0.75279
G1 X72.695 Y145.023 E0.76727
G1 X72.695 Y145.399 E0.78171
G1 X72.742 Y145.773 E0.79619
G1 X72.836 Y146.138 E0.81067
G1 X72.974 Y146.488 E0.82513
G1 X73.156 Y146.818 E0.8396
G1 X73.433 Y147.2 E0.85773
G1 X73.777 Y147.523 E0.87586
G1 X74.157 Y147.799 E0.8939
G1 X74.585 Y148 E0.91206
G1 X75.032 Y148.146 E0.93013
G1 X75.501 Y148.205 E0.94829
G1 X75.877 Y148.205 E0.96273
G1 X76.346 Y148.146 E0.98089
G1 X76.793 Y148 E0.99896
G1 X77.218 Y147.801 E1.01698
G1 X77.601 Y147.523 E1.03516
G1 X77.876 Y147.265 E1.04965
G1 X78.116 Y146.974 E1.06414
G1 X78.318 Y146.656 E1.07861
G1 X78.478 Y146.315 E1.09308
G1 X78.624 Y145.868 E1.11115
G1 X78.682 Y145.409 E1.12892
G1 X78.707 Y145.785 E1.1434
G1 X78.797 Y146.252 E1.16167
G1 X78.969 Y146.686 E1.1796
G1 X79.151 Y147.016 E1.19408
G1 X79.372 Y147.321 E1.20855
G1 X79.63 Y147.596 E1.22303
G1 X79.92 Y147.836 E1.23749
G1 X80.238 Y148.038 E1.25196
G1 X80.664 Y148.238 E1.27004
G1 X81.121 Y148.356 E1.28818
G1 X81.495 Y148.403 E1.30266
G1 X81.872 Y148.403 E1.31714
G1 X82.246 Y148.356 E1.33162
G1 X82.701 Y148.239 E1.34967
G1 X83.129 Y148.038 E1.36783
G1 X83.447 Y147.836 E1.3823
G1 X83.81 Y147.535 E1.40042
G1 X84.111 Y147.172 E1.41853
G1 X84.313 Y146.854 E1.43301
G1 X84.473 Y146.513 E1.44748
G1 X84.589 Y146.155 E1.46193
G1 X84.66 Y145.785 E1.47641
G1 X84.684 Y145.409 E1.49088
G1 X84.707 Y145.785 E1.50535
G1 X84.797 Y146.252 E1.52362
G1 X84.969 Y146.686 E1.54155
G1 X85.151 Y147.017 E1.55607
G1 X85.428 Y147.398 E1.57416
G1 X85.771 Y147.721 E1.59226
G1 X86.076 Y147.942 E1.60673
G1 X86.406 Y148.124 E1.62121
G1 X86.757 Y148.262 E1.6357
G1 X87.121 Y148.356 E1.65014
G1 X87.495 Y148.403 E1.66462
G1 X87.872 Y148.403 E1.6791
G1 X88.246 Y148.356 E1.69358
G1 X88.611 Y148.262 E1.70806
G1 X88.961 Y148.124 E1.72251
G1 X89.291 Y147.942 E1.73699
G1 X89.596 Y147.721 E1.75146
G1 X89.871 Y147.463 E1.76594
G1 X90.111 Y147.172 E1.78044
G1 X90.313 Y146.854 E1.79491
G1 X90.473 Y146.513 E1.80938
G1 X90.589 Y146.155 E1.82383
G1 X90.66 Y145.785 E1.83831
G1 X90.684 Y145.41 E1.85274
G1 X90.707 Y145.785 E1.86718
G1 X90.796 Y146.25 E1.88536
G1 X90.969 Y146.687 E1.90342
G1 X91.151 Y147.017 E1.9179
G1 X91.425 Y147.395 E1.93583
G1 X91.771 Y147.721 E1.95409
G1 X92.076 Y147.942 E1.96856
G1 X92.406 Y148.124 E1.98304
G1 X92.757 Y148.263 E1.99754
G1 X93.121 Y148.356 E2.01197
G1 X93.495 Y148.404 E2.02646
G1 X93.967 Y148.404 E2.04459
G1 X94.527 Y148.296 E2.0665
G1 X94.961 Y148.124 E2.08443
G1 X95.291 Y147.942 E2.09891
G1 X95.596 Y147.721 E2.11338
G1 X95.871 Y147.463 E2.12787
G1 X96.111 Y147.173 E2.14233
G1 X96.313 Y146.855 E2.1568
G1 X96.473 Y146.514 E2.17127
G1 X96.589 Y146.156 E2.18573
G1 X96.66 Y145.785 E2.20024
G1 X96.684 Y145.41 E2.21467
G1 X96.707 Y145.786 E2.22914
G1 X96.797 Y146.253 E2.24741
G1 X96.969 Y146.687 E2.26535
G1 X97.151 Y147.017 E2.27982
G1 X97.372 Y147.322 E2.29429
G1 X97.63 Y147.597 E2.30878
G1 X97.92 Y147.837 E2.32324
G1 X98.238 Y148.039 E2.33771
G1 X98.579 Y148.199 E2.35218
G1 X99.028 Y148.345 E2.37032
G1 X99.495 Y148.404 E2.3884
G1 X99.872 Y148.404 E2.40289
G1 X100.341 Y148.345 E2.42104
G1 X100.788 Y148.199 E2.43911
G1 X101.129 Y148.039 E2.45358
G1 X101.447 Y147.837 E2.46805
G1 X101.81 Y147.536 E2.48617
G1 X102.111 Y147.173 E2.50428
G1 X102.313 Y146.855 E2.51875
G1 X102.473 Y146.514 E2.53322
G1 X102.589 Y146.156 E2.54768
G1 X102.66 Y145.786 E2.56215
G1 X102.684 Y145.41 E2.57663
G1 X102.707 Y145.786 E2.5911
G1 X102.797 Y146.253 E2.60937
G1 X102.969 Y146.687 E2.6273
G1 X103.197 Y147.101 E2.64546
G1 X103.497 Y147.464 E2.66355
G1 X103.771 Y147.722 E2.67801
G1 X104.076 Y147.943 E2.69248
G1 X104.406 Y148.125 E2.70695
G1 X104.848 Y148.299 E2.7252
G1 X105.308 Y148.387 E2.74319
G1 X105.684 Y148.41 E2.75766
G1 X106.06 Y148.387 E2.77214
G1 X106.521 Y148.299 E2.79017
G1 X106.961 Y148.125 E2.80834
G1 X107.291 Y147.943 E2.82282
G1 X107.596 Y147.722 E2.83729
G1 X107.871 Y147.464 E2.85177
G1 X108.111 Y147.174 E2.86623
G1 X108.313 Y146.855 E2.88074
G1 X108.473 Y146.515 E2.89517
G1 X108.589 Y146.156 E2.90967
G1 X108.66 Y145.786 E2.92414
G1 X108.684 Y145.411 E2.93858
G1 X108.707 Y145.787 E2.95305
G1 X108.797 Y146.254 E2.97132
G1 X108.969 Y146.688 E2.98925
G1 X109.151 Y147.018 E3.00373
G1 X109.425 Y147.396 E3.02166
G1 X109.841 Y147.788 E3.04362
G1 X110.32 Y148.091 E3.06539
G1 X110.757 Y148.264 E3.08345
G1 X111.121 Y148.357 E3.09788
G1 X111.589 Y148.417 E3.11601
G1 X112.06 Y148.387 E3.13414
G1 X112.527 Y148.297 E3.15241
G1 X113.047 Y148.091 E3.17389
G1 X113.525 Y147.789 E3.19562
G1 X113.871 Y147.464 E3.21385
G1 X114.111 Y147.174 E3.22831
G1 X114.313 Y146.856 E3.24278
G1 X114.473 Y146.515 E3.25725
G1 X114.589 Y146.157 E3.27171
G1 X114.66 Y145.787 E3.28618
G1 X114.684 Y145.411 E3.30066
G1 X114.707 Y145.787 E3.31513
G1 X114.797 Y146.254 E3.3334
G1 X114.969 Y146.688 E3.35133
G1 X115.151 Y147.018 E3.36581
G1 X115.372 Y147.323 E3.38028
G1 X115.63 Y147.598 E3.39477
G1 X115.92 Y147.838 E3.40923
G1 X116.238 Y148.04 E3.4237
G1 X116.579 Y148.2 E3.43817
G1 X117.028 Y148.346 E3.45631
G1 X117.495 Y148.405 E3.47439
G1 X117.872 Y148.405 E3.48887
G1 X118.341 Y148.346 E3.50703
G1 X118.788 Y148.2 E3.52509
G1 X119.129 Y148.04 E3.53956
G1 X119.447 Y147.838 E3.55404
G1 X119.81 Y147.537 E3.57215
G1 X120.111 Y147.174 E3.59027
G1 X120.313 Y146.856 E3.60474
G1 X120.473 Y146.515 E3.61921
G1 X120.589 Y146.157 E3.63367
G1 X120.66 Y145.787 E3.64814
G1 X120.684 Y145.411 E3.66261
G1 X120.707 Y145.787 E3.67708
G1 X120.796 Y146.253 E3.69531
G1 X120.969 Y146.689 E3.71333
G1 X121.197 Y147.103 E3.73148
G1 X121.497 Y147.465 E3.74955
G1 X121.771 Y147.723 E3.764
G1 X122.076 Y147.944 E3.77847
G1 X122.49 Y148.172 E3.79663
G1 X122.938 Y148.317 E3.81472
G1 X123.308 Y148.388 E3.82919
G1 X123.684 Y148.411 E3.84366
G1 X124.06 Y148.388 E3.85813
G1 X124.43 Y148.317 E3.87261
G1 X124.878 Y148.172 E3.8907
G1 X125.291 Y147.944 E3.90882
G1 X125.596 Y147.723 E3.92329
G1 X125.871 Y147.465 E3.93777
G1 X126.111 Y147.175 E3.95223
G1 X126.313 Y146.856 E3.96674
G1 X126.473 Y146.516 E3.98117
G1 X126.589 Y146.157 E3.99567
G1 X126.66 Y145.787 E4.01014
G1 X126.684 Y145.412 E4.02458
G1 X126.742 Y145.849 E4.04151
G1 X126.887 Y146.292 E4.05942
G1 X127.047 Y146.633 E4.07389
G1 X127.249 Y146.951 E4.08836
G1 X127.549 Y147.314 E4.10645
G1 X127.913 Y147.615 E4.1246
G1 X128.231 Y147.817 E4.13907
G1 X128.572 Y147.977 E4.15354
G1 X128.93 Y148.093 E4.16799
G1 X129.3 Y148.164 E4.18247
G1 X129.676 Y148.188 E4.19694
G1 X130.052 Y148.164 E4.21141
G1 X130.422 Y148.093 E4.22589
G1 X130.78 Y147.977 E4.24034
G1 X131.121 Y147.817 E4.25481
G1 X131.439 Y147.615 E4.26929
G1 X131.73 Y147.374 E4.2838
G1 X131.988 Y147.1 E4.29826
G1 X132.209 Y146.795 E4.31273
G1 X132.391 Y146.465 E4.32721
G1 X132.529 Y146.115 E4.34166
G1 X132.623 Y145.75 E4.35614
G1 X132.67 Y145.376 E4.37062
G1 X132.67 Y144.999 E4.3851
G1 X132.623 Y144.625 E4.39958
G1 X132.529 Y144.261 E4.41402
G1 X132.391 Y143.91 E4.42851
G1 X132.209 Y143.58 E4.44299
G1 X131.988 Y143.275 E4.45746
G1 X131.665 Y142.932 E4.47556
G1 X131.284 Y142.655 E4.49365
G1 X130.953 Y142.473 E4.50816
G1 X130.519 Y142.301 E4.5261
G1 X130.052 Y142.211 E4.54437
G1 X129.685 Y142.188 E4.55849
G1 X130.061 Y142.164 E4.57297
G1 X130.431 Y142.093 E4.58744
G1 X130.789 Y141.977 E4.6019
G1 X131.13 Y141.817 E4.61637
G1 X131.448 Y141.615 E4.63084
G1 X131.738 Y141.375 E4.6453
G1 X132.063 Y141.029 E4.66354
G1 X132.365 Y140.551 E4.68526
G1 X132.571 Y140.031 E4.70674
G1 X132.679 Y139.471 E4.72865
G1 X132.679 Y138.999 E4.74678
G1 X132.631 Y138.625 E4.76127
G1 X132.514 Y138.168 E4.77939
G1 X132.313 Y137.742 E4.79749
G1 X132.112 Y137.424 E4.81194
G1 X131.871 Y137.134 E4.82642
G1 X131.597 Y136.876 E4.84088
G1 X131.292 Y136.655 E4.85535
G1 X130.962 Y136.473 E4.86983
G1 X130.528 Y136.301 E4.88776
G1 X130.061 Y136.211 E4.90603
G1 X129.685 Y136.188 E4.9205
G1 X129.685 Y136.029 E4.92661
G1 X130.054 Y135.825 E4.94281
G1 X130.414 Y135.525 E4.96081
G1 X130.672 Y135.251 E4.97527
G1 X130.893 Y134.946 E4.98974
G1 X131.075 Y134.616 E5.00421
G1 X131.247 Y134.182 E5.02215
G1 X131.337 Y133.715 E5.04042
G1 X131.36 Y133.339 E5.05489
G1 X131.337 Y132.963 E5.06936
G1 X131.248 Y132.498 E5.08755
G1 X131.075 Y132.061 E5.1056
G1 X130.893 Y131.731 E5.12008
G1 X130.619 Y131.353 E5.13802
G1 X130.273 Y131.027 E5.15628
G1 X129.968 Y130.806 E5.17075
G1 X129.638 Y130.624 E5.18522
G1 X129.287 Y130.485 E5.19973
G1 X128.923 Y130.392 E5.21416
G1 X128.549 Y130.344 E5.22864
G1 X128.077 Y130.344 E5.24678
G1 X127.517 Y130.452 E5.26869
G1 X127.083 Y130.624 E5.28662
G1 X126.753 Y130.806 E5.3011
G1 X126.448 Y131.027 E5.31557
G1 X126.173 Y131.285 E5.33005
G1 X125.933 Y131.575 E5.34451
G1 X125.731 Y131.893 E5.35899
G1 X125.571 Y132.234 E5.37346
G1 X125.455 Y132.592 E5.38791
G1 X125.384 Y132.963 E5.40242
G1 X125.36 Y133.339 E5.4169
G1 X125.337 Y132.963 E5.43137
G1 X125.247 Y132.496 E5.44964
G1 X125.075 Y132.062 E5.46757
G1 X124.893 Y131.732 E5.48205
G1 X124.617 Y131.351 E5.50012
G1 X124.273 Y131.027 E5.51828
G1 X123.89 Y130.749 E5.53646
G1 X123.465 Y130.55 E5.55448
G1 X123.016 Y130.404 E5.57262
G1 X122.549 Y130.345 E5.5907
G1 X122.172 Y130.345 E5.60519
G1 X121.703 Y130.404 E5.62335
G1 X121.256 Y130.55 E5.64141
G1 X120.831 Y130.749 E5.65944
G1 X120.448 Y131.027 E5.67762
G1 X120.173 Y131.285 E5.6921
G1 X119.933 Y131.576 E5.70659
G1 X119.731 Y131.894 E5.72107
G1 X119.571 Y132.235 E5.73554
G1 X119.455 Y132.593 E5.74999
G1 X119.384 Y132.963 E5.76447
G1 X119.36 Y133.339 E5.77894
G1 X119.331 Y132.873 E5.79688
G1 X119.214 Y132.412 E5.81515
G1 X119.075 Y132.062 E5.82961
G1 X118.893 Y131.732 E5.84409
G1 X118.619 Y131.354 E5.86203
G1 X118.203 Y130.962 E5.88398
G1 X117.724 Y130.659 E5.90576
G1 X117.287 Y130.486 E5.92381
G1 X116.923 Y130.393 E5.93824
G1 X116.549 Y130.345 E5.95273
G1 X116.077 Y130.345 E5.97086
G1 X115.517 Y130.453 E5.99277
G1 X114.997 Y130.659 E6.01426
G1 X114.519 Y130.961 E6.03598
G1 X114.173 Y131.286 E6.05421
G1 X113.933 Y131.576 E6.06867
G1 X113.731 Y131.894 E6.08315
G1 X113.571 Y132.235 E6.09762
G1 X113.455 Y132.593 E6.11207
G1 X113.384 Y132.963 E6.12655
G1 X113.36 Y133.34 E6.14106
G1 X113.337 Y132.964 E6.15553
G1 X113.247 Y132.497 E6.1738
G1 X113.075 Y132.063 E6.19173
G1 X112.893 Y131.732 E6.20624
G1 X112.616 Y131.351 E6.22434
G1 X112.273 Y131.028 E6.24244
G1 X111.968 Y130.807 E6.25691
G1 X111.638 Y130.625 E6.27139
G1 X111.287 Y130.487 E6.28587
G1 X110.923 Y130.393 E6.30032
G1 X110.549 Y130.346 E6.3148
G1 X110.172 Y130.346 E6.32928
G1 X109.798 Y130.393 E6.34376
G1 X109.433 Y130.487 E6.35824
