;FLAVOR:Marlin
;TIME:1181.42
;Filament used:1.72541m
;Material Diameter:1.75
;Material Density:1.24
;Filament Cost:0.102923
;Filament Weight:5.146131
;Filament Length:1.725413
;Layer height:0.2
;MINX:2.285
;MINY:2.239
;MINZ:0.2
;MAXX:136.983
;MAXY:136.825
;MAXZ:20.401
;OuterWall Time:185.535
;InnerWall Time:90.3204
;Skin Time:714.558
;Support Time:0
;SkirtBrim Time:10.5818
;Infill Time:76.9426
;Support Infills Time:0
;Combing Time:29.2471
;Retraction Time:74.2337
;PrimeTower Time:0
;;;;;;;;;;;;;;;;;;;;;;;;;;;;;;;;;;;;;;;;;;;;;;;;;;;;;;;;;;;;;;;;;;;;;;;
;Creality Print GCode Generated by CXEngine
;CRSLICE_GIT_HASH:58ee74d
;Creality Print Version : V4.3.8.6984
;CXEngine Release Time:2023-12-04 18:16:29
;Gcode Generated Time:2025-02-05 21:38:20
;----------Machine Config--------------
;Machine Name:Ender-3 V3 SE
;Machine Height:250
;Machine Width:220
;Machine Depth:220
;Material Type:TPU
;Material Name:HP-TPU_1.75
;Number of Extruders:1
;ExtruderParams[0] Nozzle Diameter:1000
;----------Profile Config---------------
;Wall Thickness:0.8
;Top/Bottom Thickness:0.8
;Out Wall Line Width:0.42
;Inner Wall Line Width:0.45
;Inital Height:200
;Wall Line Count:2
;Infill Line Distance:8
;Infill Pattern:grid
;Infill Sparse Density:10
;Infill Wipe Distance:0
;Print Temperature:210
;Bed Temperature:30
;Support Enable:false
;Support Density:15
;Support Angle:60
;Adhesion Type:lace
;machine is belt:false
;machine belt offset:10
;machine belt offset Y:0
;Raft Base Line Spacing:1.6
;Wait Heatup Sync:true
;Enable Ironing:false
;Material Type:TPU
;Max volumetric speed:9
;Preview Img Type:png
;Screen Size:Sermoon D3
;----------Shell Config----------------
;Outer Wall Wipe Distance:2000
;Outer Inset First:false
;Infill Before Walls:false
;Infill Overlap:0.09
;Fill Gaps Between Walls:everywhere
;Minimum Infill Area:30
;Top Surface Skin Layer:0
;Top Layers:4
;Z Seam Alignment:sharpest_corner
;Seam Corner Preference:z_seam_corner_inner
;Z Seam X:110
;Z Seam Y:220
;Horizontal Expansion:0
;Top/Bottom Pattern:zigzag
;Ironing Pattern:zigzag
;Vase Model:false
;----------Support Config----------------
;Support Type:everywhere
;Support Pattern:zigzag
;Support Infill Layer Thickness:0.2
;Minimum Support Area:1
;Enable Support Roof:true
;Support Roof Thickness:0.8
;Support Roof Pattern:lines
;Connect Support Lines:0
;Connect Support ZigZags:1
;Minimum Support X/Y Distance:0.2
;Support Line Distance:2.67
; ---------PrintSpeed & Travel----------
;Enable Print Cool:true
;Avoid Printed Parts Traveling:true
;Enable Retraction:true
;Retraction Distance:2
;Retraction Speed:25
;Retraction Prime Speed:25
;Maximum Retraction Count:100
;Minimum Extrusion Distance Window:0.8
;Z Hop When Retracted:true
;Z Hop Height:0.4
;Retract Before Outer Wall:true

;Outer Wall Speed:60
;Inner Wall Speed:90
;Infill Speed:180
;Top/Bottom Speed:50
;Travel Speed:150
;Initial Layer Speed:20
;Skirt/Brim Speed:25
;Prime Tower Speed:60
;Outer Wall Acceleration:1000
;Inner Wall Acceleration:2000
;Infill Acceleration:2500
;Top/Bottom Acceleration:2500
;Travel Acceleration:2500
;Initial Layer Print Acceleration:500
;Initial Layer Travel Acceleration:500
;Skirt/Brim Acceleration:500
;Combing Mode:off
; --------SpecialModel&Mesh Fixes--------
;Union Overlapping Volum:true
;Remove All Holes:false
;Maximum Travel Resolution:0.25
;Maximum Deviation:0.05
;Maximum Model Angle:0.872665
;IS Mold Print:false
;Make Overhang Printable:false
;Enable Coasting:false
;Coasting Volumes:0.064
;Coasting Speed:0.9
;Raft AirGap:0.25
;Layer0 ZOverLap:0.13
;Adaptive Layers:0
;---------------------End of Head--------------------------
M140 S30
M105
M190 S30
M104 S210
M82 ;absolute extrusion mode
M220 S100 ;Reset Feedrate
M221 S100 ;Reset Flowrate

G28 ;Home

G92 E0 ;Reset Extruder
G1 Z2.0 F3000 ;Move Z Axis up
G1 X-2.1 Y20 Z0.28 F5000.0 ;Move to start position
M109 S210.000000
G1 X-2.1 Y145.0 Z0.28 F1500.0 E15 ;Draw the first line
G1 X-2.4 Y145.0 Z0.28 F5000.0 ;Move to side a little
G1 X-2.4 Y20 Z0.28 F1500.0 E30 ;Draw the second line
G92 E0  ;Reset Extruder
G1 E-1.0000 F1800 ;Retract a bit
G1 Z2.0 F3000 ;Move Z Axis up
G1 E0.0000 F1800 

G92 E0
G92 E0
G1 F1500 E-2
;LAYER_COUNT:45

;LAYER:0
M106 S0
M204 S500
;;retract;;
G1 F1500 E0
G1 F1500 E-2
G0 F4800 X2.285 Y2.239 Z20.401
G0 X91.873 Y90.026 Z0.6
;TYPE:SKIRT
G1 F600 Z0.2
G1 F1500 E0
G1 X91.596 Y90.407 E0.01991
G1 X91.368 Y90.822 E0.03991
G1 X91.223 Y91.269 E0.05977
G1 X91.152 Y91.639 E0.07569
G1 X91.129 Y92.015 E0.09161
G1 X91.152 Y92.391 E0.10753
G1 X91.223 Y92.761 E0.12345
G1 X91.368 Y93.209 E0.14335
G1 X91.596 Y93.622 E0.16328
G1 X91.817 Y93.927 E0.1792
G1 X92.004 Y94.131 E0.19089
G1 X91.945 Y94.198 E0.19467
G1 X91.647 Y93.987 E0.21009
G1 X91.138 Y93.748 E0.23386
G1 X90.683 Y93.631 E0.25371
G1 X90.309 Y93.584 E0.26964
G1 X89.933 Y93.584 E0.28553
G1 X89.559 Y93.631 E0.30145
G1 X89.104 Y93.748 E0.32131
G1 X88.676 Y93.949 E0.34129
G1 X88.358 Y94.151 E0.35721
G1 X88.067 Y94.391 E0.37315
G1 X87.809 Y94.666 E0.38908
G1 X87.531 Y95.049 E0.40908
G1 X87.332 Y95.474 E0.42891
G1 X87.186 Y95.921 E0.44878
G1 X87.127 Y96.39 E0.46876
G1 X87.127 Y96.767 E0.48469
G1 X87.186 Y97.235 E0.50462
G1 X87.332 Y97.683 E0.52453
G1 X87.531 Y98.108 E0.54436
G1 X87.809 Y98.491 E0.56436
G1 X88.067 Y98.765 E0.58026
G1 X88.358 Y99.005 E0.5962
G1 X88.6 Y99.162 E0.60839
G1 X88.244 Y99.035 E0.62436
G1 X87.803 Y98.95 E0.64334
G1 X87.427 Y98.927 E0.65926
G1 X87.051 Y98.95 E0.67518
G1 X86.681 Y99.021 E0.6911
G1 X86.233 Y99.166 E0.711
G1 X85.82 Y99.394 E0.73093
G1 X85.515 Y99.615 E0.74685
G1 X85.24 Y99.873 E0.76278
G1 X85 Y100.163 E0.77869
G1 X84.798 Y100.482 E0.79465
G1 X84.638 Y100.822 E0.81052
G1 X84.522 Y101.181 E0.82647
G1 X84.451 Y101.551 E0.84239
G1 X84.427 Y101.927 E0.85831
G1 X84.451 Y102.303 E0.87423
G1 X84.522 Y102.673 E0.89015
G1 X84.638 Y103.031 E0.90605
G1 X84.798 Y103.372 E0.92197
G1 X85 Y103.69 E0.93789
G1 X85.301 Y104.053 E0.95781
G1 X85.664 Y104.354 E0.97774
G1 X85.982 Y104.556 E0.99366
G1 X86.323 Y104.716 E1.00958
G1 X86.582 Y104.804 E1.02114
G1 X86.531 Y105.045 E1.03155
G1 X86.175 Y105.006 E1.04668
G1 X85.713 Y105.034 E1.06624
G1 X85.247 Y105.123 E1.08629
G1 X84.811 Y105.296 E1.10611
G1 X84.481 Y105.478 E1.12203
G1 X84.103 Y105.752 E1.14176
G1 X83.777 Y106.098 E1.16185
G1 X83.556 Y106.403 E1.17777
G1 X83.328 Y106.817 E1.19774
G1 X83.183 Y107.265 E1.21764
G1 X83.112 Y107.635 E1.23356
G1 X83.089 Y108.011 E1.24947
G1 X83.112 Y108.387 E1.26539
G1 X83.183 Y108.757 E1.28131
G1 X83.328 Y109.205 E1.30121
G1 X83.556 Y109.618 E1.32115
G1 X83.777 Y109.923 E1.33706
G1 X84.035 Y110.198 E1.353
G1 X84.325 Y110.438 E1.3689
G1 X84.643 Y110.64 E1.38482
G1 X84.984 Y110.8 E1.40074
G1 X85.343 Y110.916 E1.41668
G1 X85.713 Y110.987 E1.4326
G1 X86.029 Y111.009 E1.44599
G1 X86.03 Y111.029 E1.44683
G1 X85.609 Y111.105 E1.46491
G1 X85.161 Y111.25 E1.48481
G1 X84.748 Y111.478 E1.50475
G1 X84.443 Y111.699 E1.52066
G1 X84.168 Y111.957 E1.5366
G1 X83.928 Y112.247 E1.5525
G1 X83.726 Y112.566 E1.56846
G1 X83.566 Y112.906 E1.58434
G1 X83.42 Y113.354 E1.60425
G1 X83.361 Y113.822 E1.62418
G1 X83.361 Y114.199 E1.64011
G1 X83.42 Y114.668 E1.66009
G1 X83.566 Y115.115 E1.67996
G1 X83.726 Y115.456 E1.69587
G1 X83.928 Y115.774 E1.71179
G1 X84.229 Y116.137 E1.73172
G1 X84.592 Y116.438 E1.75165
G1 X84.91 Y116.64 E1.76757
G1 X85.251 Y116.8 E1.78348
G1 X85.698 Y116.946 E1.80335
G1 X86.167 Y117.005 E1.82333
G1 X86.633 Y117.005 E1.84302
G1 X87.037 Y116.931 E1.86038
G1 X87.09 Y117.105 E1.86806
G1 X86.707 Y117.28 E1.88586
G1 X86.389 Y117.482 E1.90178
G1 X86.028 Y117.779 E1.92153
G1 X85.725 Y118.146 E1.94164
G1 X85.523 Y118.464 E1.95756
G1 X85.363 Y118.805 E1.97348
G1 X85.217 Y119.252 E1.99335
G1 X85.158 Y119.721 E2.01332
G1 X85.158 Y120.098 E2.02925
G1 X85.217 Y120.566 E2.04919
G1 X85.363 Y121.014 E2.0691
G1 X85.523 Y121.355 E2.08502
G1 X85.725 Y121.673 E2.10094
G1 X85.965 Y121.963 E2.11684
G1 X86.24 Y122.221 E2.13278
G1 X86.545 Y122.442 E2.14869
G1 X86.958 Y122.67 E2.16863
G1 X87.406 Y122.815 E2.18853
G1 X87.776 Y122.886 E2.20445
G1 X88.152 Y122.909 E2.22036
G1 X88.528 Y122.886 E2.23628
G1 X88.898 Y122.815 E2.2522
G1 X89.256 Y122.699 E2.2681
G1 X89.494 Y122.587 E2.27922
G1 X89.097 Y122.96 E2.30224
G1 X88.857 Y123.251 E2.31818
G1 X88.655 Y123.569 E2.3341
G1 X88.454 Y123.997 E2.35408
G1 X88.337 Y124.452 E2.37393
G1 X88.29 Y124.826 E2.38986
G1 X88.29 Y125.202 E2.40575
G1 X88.337 Y125.576 E2.42168
G1 X88.454 Y126.031 E2.44153
G1 X88.655 Y126.459 E2.46151
G1 X88.857 Y126.777 E2.47743
G1 X89.154 Y127.138 E2.49718
G1 X89.521 Y127.441 E2.5173
G1 X89.839 Y127.643 E2.53321
G1 X90.18 Y127.803 E2.54913
G1 X90.627 Y127.949 E2.569
G1 X91.096 Y128.008 E2.58898
G1 X91.473 Y128.008 E2.60491
G1 X91.941 Y127.949 E2.62484
G1 X92.389 Y127.803 E2.64475
G1 X92.73 Y127.643 E2.66067
G1 X93.048 Y127.441 E2.67659
G1 X93.309 Y127.226 E2.69088
G1 X93.381 Y127.295 E2.69509
G1 X93.138 Y127.625 E2.71241
G1 X92.956 Y127.955 E2.72833
G1 X92.784 Y128.389 E2.74806
G1 X92.694 Y128.856 E2.76816
G1 X92.671 Y129.232 E2.78408
G1 X92.7 Y129.699 E2.80385
G1 X92.817 Y130.16 E2.82395
G1 X92.956 Y130.51 E2.83986
G1 X93.138 Y130.84 E2.85579
G1 X93.412 Y131.218 E2.87551
G1 X93.828 Y131.61 E2.89967
G1 X94.307 Y131.913 E2.92362
G1 X94.829 Y132.12 E2.94735
G1 X95.389 Y132.227 E2.97144
G1 X95.954 Y132.227 E2.99532
G1 X96.514 Y132.119 E3.01942
G1 X97.034 Y131.913 E3.04305
G1 X97.512 Y131.611 E3.06694
G1 X97.924 Y131.224 E3.09083
G1 X98.179 Y130.877 E3.10903
G1 X98.2 Y130.889 E3.11005
G1 X97.985 Y131.55 E3.13942
G1 X97.926 Y132.018 E3.15935
G1 X97.926 Y132.395 E3.17528
G1 X97.985 Y132.864 E3.19526
G1 X98.131 Y133.311 E3.21513
G1 X98.291 Y133.652 E3.23105
G1 X98.493 Y133.97 E3.24697
G1 X98.796 Y134.337 E3.26708
G1 X99.157 Y134.634 E3.28683
G1 X99.475 Y134.836 E3.30275
G1 X99.903 Y135.037 E3.32273
G1 X100.358 Y135.154 E3.34258
G1 X100.732 Y135.201 E3.35851
G1 X101.108 Y135.201 E3.3744
G1 X101.482 Y135.154 E3.39033
G1 X101.937 Y135.037 E3.41018
G1 X102.365 Y134.836 E3.43016
G1 X102.683 Y134.634 E3.44608
G1 X102.974 Y134.394 E3.46202
G1 X103.232 Y134.119 E3.47796
G1 X103.453 Y133.814 E3.49387
G1 X103.635 Y133.484 E3.5098
G1 X103.761 Y133.166 E3.52425
G1 X103.785 Y133.173 E3.52531
G1 X103.731 Y133.58 E3.54266
G1 X103.731 Y133.957 E3.55859
G1 X103.79 Y134.424 E3.57848
G1 X103.936 Y134.873 E3.59843
G1 X104.096 Y135.214 E3.61435
G1 X104.298 Y135.532 E3.63027
G1 X104.538 Y135.822 E3.64617
G1 X104.813 Y136.08 E3.66211
G1 X105.118 Y136.301 E3.67802
G1 X105.448 Y136.483 E3.69395
G1 X105.882 Y136.655 E3.71368
G1 X106.349 Y136.745 E3.73377
G1 X106.725 Y136.768 E3.74969
G1 X107.101 Y136.745 E3.76561
G1 X107.568 Y136.655 E3.78571
G1 X108.002 Y136.483 E3.80543
G1 X108.333 Y136.301 E3.8214
G1 X108.714 Y136.024 E3.8413
G1 X109.037 Y135.681 E3.86121
G1 X109.258 Y135.376 E3.87713
G1 X109.44 Y135.046 E3.89305
G1 X109.578 Y134.695 E3.90899
G1 X109.672 Y134.331 E3.92488
G1 X109.707 Y134.058 E3.93651
G1 X109.826 Y134.674 E3.96302
G1 X110.032 Y135.194 E3.98665
G1 X110.285 Y135.594 E4.00665
G1 X110.586 Y135.958 E4.02661
G1 X110.949 Y136.258 E4.04651
G1 X111.267 Y136.46 E4.06243
G1 X111.608 Y136.62 E4.07835
G1 X112.055 Y136.766 E4.09822
G1 X112.524 Y136.825 E4.11819
G1 X112.901 Y136.825 E4.13413
G1 X113.37 Y136.766 E4.1541
G1 X113.817 Y136.62 E4.17397
G1 X114.158 Y136.46 E4.18989
G1 X114.476 Y136.258 E4.20581
G1 X114.839 Y135.958 E4.22571
G1 X115.14 Y135.594 E4.24567
G1 X115.393 Y135.194 E4.26567
G1 X115.599 Y134.674 E4.2893
G1 X115.707 Y134.114 E4.3134
G1 X115.707 Y133.643 E4.3333
G1 X115.66 Y133.27 E4.34919
G1 X115.822 Y133.69 E4.36821
G1 X116.004 Y134.02 E4.38414
G1 X116.225 Y134.325 E4.40006
G1 X116.483 Y134.6 E4.41599
G1 X116.773 Y134.84 E4.4319
G1 X117.092 Y135.042 E4.44785
G1 X117.432 Y135.202 E4.46373
G1 X117.88 Y135.348 E4.48364
G1 X118.348 Y135.407 E4.50357
G1 X118.725 Y135.407 E4.5195
G1 X119.194 Y135.348 E4.53948
G1 X119.641 Y135.202 E4.55935
G1 X119.982 Y135.042 E4.57527
G1 X120.3 Y134.84 E4.59119
G1 X120.667 Y134.537 E4.6113
G1 X120.964 Y134.176 E4.63105
G1 X121.166 Y133.858 E4.64697
G1 X121.326 Y133.517 E4.66289
G1 X121.472 Y133.07 E4.68276
G1 X121.531 Y132.601 E4.70273
G1 X121.531 Y132.225 E4.71862
G1 X121.484 Y131.851 E4.73455
G1 X121.39 Y131.486 E4.75048
G1 X121.27 Y131.18 E4.76437
G1 X121.3 Y131.165 E4.76579
G1 X121.684 Y131.629 E4.79124
G1 X121.958 Y131.887 E4.80714
G1 X122.263 Y132.109 E4.82308
G1 X122.593 Y132.29 E4.83899
G1 X122.944 Y132.429 E4.85494
G1 X123.308 Y132.522 E4.87081
G1 X123.776 Y132.582 E4.89075
G1 X124.247 Y132.552 E4.9107
G1 X124.714 Y132.462 E4.93079
G1 X125.148 Y132.29 E4.95052
G1 X125.478 Y132.109 E4.96642
G1 X125.783 Y131.887 E4.98237
G1 X126.058 Y131.629 E4.9983
G1 X126.298 Y131.339 E5.01421
G1 X126.5 Y131.021 E5.03013
G1 X126.66 Y130.68 E5.04604
G1 X126.776 Y130.322 E5.06195
G1 X126.865 Y129.858 E5.08191
G1 X126.865 Y129.294 E5.10574
G1 X126.776 Y128.829 E5.12575
G1 X126.66 Y128.471 E5.14165
G1 X126.461 Y128.047 E5.16144
G1 X126.205 Y127.693 E5.1799
G1 X126.689 Y128.042 E5.20512
G1 X127.102 Y128.27 E5.22505
G1 X127.55 Y128.415 E5.24495
G1 X127.92 Y128.486 E5.26087
G1 X128.296 Y128.509 E5.27679
G1 X128.672 Y128.486 E5.29271
G1 X129.042 Y128.415 E5.30863
G1 X129.49 Y128.27 E5.32853
G1 X129.904 Y128.042 E5.3485
G1 X130.282 Y127.768 E5.36823
G1 X130.608 Y127.422 E5.38832
G1 X130.829 Y127.117 E5.40423
G1 X131.011 Y126.787 E5.42016
G1 X131.184 Y126.351 E5.43998
G1 X131.273 Y125.885 E5.46003
G1 X131.296 Y125.509 E5.47594
G1 X131.268 Y125.047 E5.4955
G1 X131.175 Y124.671 E5.51187
G1 X131.808 Y124.549 E5.53911
G1 X132.328 Y124.343 E5.56275
G1 X132.728 Y124.09 E5.58275
G1 X133.092 Y123.789 E5.60271
G1 X133.392 Y123.426 E5.62261
G1 X133.594 Y123.108 E5.63853
G1 X133.754 Y122.767 E5.65444
G1 X133.9 Y122.32 E5.67431
G1 X133.959 Y121.851 E5.69429
G1 X133.959 Y121.474 E5.71022
G1 X133.9 Y121.005 E5.73019
G1 X133.754 Y120.558 E5.75006
G1 X133.594 Y120.217 E5.76598
G1 X133.392 Y119.899 E5.7819
G1 X133.092 Y119.536 E5.8018
G1 X132.66 Y119.179 E5.82548
G1 X132.258 Y118.956 E5.84491
G1 X132.314 Y118.818 E5.8512
G1 X132.67 Y118.908 E5.86672
G1 X133.043 Y118.956 E5.88261
G1 X133.515 Y118.956 E5.90256
G1 X134.075 Y118.848 E5.92666
G1 X134.509 Y118.676 E5.94638
G1 X134.839 Y118.494 E5.96231
G1 X135.144 Y118.273 E5.97822
G1 X135.419 Y118.015 E5.99416
G1 X135.659 Y117.725 E6.01007
G1 X135.861 Y117.407 E6.02599
G1 X136.061 Y116.981 E6.04587
G1 X136.179 Y116.524 E6.06582
G1 X136.226 Y116.15 E6.08175
G1 X136.226 Y115.773 E6.09768
G1 X136.179 Y115.399 E6.1136
G1 X136.062 Y114.944 E6.13346
G1 X135.861 Y114.516 E6.15344
G1 X135.659 Y114.198 E6.16936
G1 X135.419 Y113.908 E6.18526
G1 X135.144 Y113.65 E6.2012
G1 X134.839 Y113.428 E6.21714
G1 X134.509 Y113.247 E6.23304
G1 X134.159 Y113.108 E6.24896
G1 X133.801 Y113.017 E6.26457
G1 X133.836 Y112.718 E6.27729
G1 X134.177 Y112.717 E6.2917
G1 X134.646 Y112.658 E6.31167
G1 X135.093 Y112.512 E6.33154
G1 X135.434 Y112.352 E6.34746
G1 X135.752 Y112.15 E6.36338
G1 X136.043 Y111.91 E6.37932
G1 X136.301 Y111.635 E6.39525
G1 X136.579 Y111.252 E6.41525
G1 X136.778 Y110.827 E6.43508
G1 X136.924 Y110.38 E6.45495
G1 X136.983 Y109.911 E6.47493
G1 X136.983 Y109.535 E6.49082
G1 X136.924 Y109.066 E6.51079
G1 X136.778 Y108.619 E6.53066
G1 X136.577 Y108.19 E6.55068
G1 X136.244 Y107.733 E6.57458
G1 X135.901 Y107.411 E6.59446
G1 X135.596 Y107.19 E6.61037
G1 X135.266 Y107.008 E6.6263
G1 X134.916 Y106.87 E6.6422
G1 X134.551 Y106.776 E6.65812
G1 X134.177 Y106.729 E6.67405
G1 X133.762 Y106.733 E6.69159
G1 X134.093 Y106.642 E6.70609
G1 X134.443 Y106.504 E6.72199
G1 X134.773 Y106.322 E6.73792
G1 X135.155 Y106.045 E6.75786
G1 X135.478 Y105.701 E6.7778
G1 X135.754 Y105.321 E6.79764
G1 X135.955 Y104.893 E6.81762
G1 X136.101 Y104.446 E6.8375
G1 X136.16 Y103.977 E6.85747
G1 X136.16 Y103.601 E6.87336
G1 X136.101 Y103.132 E6.89333
G1 X135.955 Y102.685 E6.9132
G1 X135.756 Y102.26 E6.93303
G1 X135.478 Y101.877 E6.95303
G1 X135.22 Y101.602 E6.96897
G1 X134.929 Y101.362 E6.98491
G1 X134.611 Y101.16 E7.00083
G1 X134.27 Y101 E7.01674
G1 X133.823 Y100.854 E7.03661
G1 X133.354 Y100.795 E7.05659
G1 X132.978 Y100.795 E7.07248
G1 X132.604 Y100.842 E7.08841
