;FLAVOR:Marlin
;TIME:319.696
;Filament used:0.371516m
;Material Diameter:1.75
;Material Density:1.24
;Filament Cost:0.022161
;Filament Weight:1.108065
;Filament Length:0.371516
;Layer height:0.2
;MINX:2.124
;MINY:2.393
;MINZ:0.2
;MAXX:133.889
;MAXY:120.5
;MAXZ:20.401
;OuterWall Time:46.5068
;InnerWall Time:32.6991
;Skin Time:177.012
;Support Time:0
;SkirtBrim Time:7.14303
;Infill Time:2.32362
;Support Infills Time:0
;Combing Time:16.3331
;Retraction Time:37.6785
;PrimeTower Time:0
;;;;;;;;;;;;;;;;;;;;;;;;;;;;;;;;;;;;;;;;;;;;;;;;;;;;;;;;;;;;;;;;;;;;;;;;
;Creality Print GCode Generated by CXEngine
;CRSLICE_GIT_HASH:58ee74d
;Creality Print Version : V4.3.8.6984
;CXEngine Release Time:2023-12-04 18:16:29
;Gcode Generated Time:2024-05-04 22:45:41
;----------Machine Config--------------
;Machine Name:Ender-3 V3 SE
;Machine Height:250
;Machine Width:220
;Machine Depth:220
;Material Type:PLA
;Material Name:CR-PLA_1.75
;Number of Extruders:1
;ExtruderParams[0] Nozzle Diameter:1000
;----------Profile Config---------------
;Wall Thickness:0.8
;Top/Bottom Thickness:0.8
;Out Wall Line Width:0.42
;Inner Wall Line Width:0.45
;Inital Height:200
;Wall Line Count:2
;Infill Line Distance:8
;Infill Pattern:grid
;Infill Sparse Density:10
;Infill Wipe Distance:0
;Print Temperature:195
;Bed Temperature:60
;Support Enable:false
;Support Density:15
;Support Angle:60
;Adhesion Type:lace
;machine is belt:false
;machine belt offset:10
;machine belt offset Y:0
;Raft Base Line Spacing:1.6
;Wait Heatup Sync:true
;Enable Ironing:false
;Material Type:PLA
;Max volumetric speed:20
;Preview Img Type:png
;Screen Size:Sermoon D3
;----------Shell Config----------------
;Outer Wall Wipe Distance:2000
;Outer Inset First:false
;Infill Before Walls:false
;Infill Overlap:0.09
;Fill Gaps Between Walls:everywhere
;Minimum Infill Area:30
;Top Surface Skin Layer:0
;Top Layers:4
;Z Seam Alignment:sharpest_corner
;Seam Corner Preference:z_seam_corner_inner
;Z Seam X:110
;Z Seam Y:220
;Horizontal Expansion:0
;Top/Bottom Pattern:zigzag
;Ironing Pattern:zigzag
;Vase Model:false
;----------Support Config----------------
;Support Type:everywhere
;Support Pattern:zigzag
;Support Infill Layer Thickness:0.2
;Minimum Support Area:1
;Enable Support Roof:true
;Support Roof Thickness:0.8
;Support Roof Pattern:lines
;Connect Support Lines:0
;Connect Support ZigZags:1
;Minimum Support X/Y Distance:0.2
;Support Line Distance:2.67
; ---------PrintSpeed & Travel----------
;Enable Print Cool:true
;Avoid Printed Parts Traveling:true
;Enable Retraction:true
;Retraction Distance:1.2
;Retraction Speed:30
;Retraction Prime Speed:30
;Maximum Retraction Count:100
;Minimum Extrusion Distance Window:0.8
;Z Hop When Retracted:true
;Z Hop Height:0.4
;Retract Before Outer Wall:true

;Outer Wall Speed:60
;Inner Wall Speed:90
;Infill Speed:180
;Top/Bottom Speed:50
;Travel Speed:150
;Initial Layer Speed:20
;Skirt/Brim Speed:25
;Prime Tower Speed:60
;Outer Wall Acceleration:1000
;Inner Wall Acceleration:2000
;Infill Acceleration:2500
;Top/Bottom Acceleration:2500
;Travel Acceleration:2500
;Initial Layer Print Acceleration:500
;Initial Layer Travel Acceleration:500
;Skirt/Brim Acceleration:500
;Combing Mode:off
; --------SpecialModel&Mesh Fixes--------
;Union Overlapping Volum:true
;Remove All Holes:false
;Maximum Travel Resolution:0.25
;Maximum Deviation:0.05
;Maximum Model Angle:0.872665
;IS Mold Print:false
;Make Overhang Printable:false
;Enable Coasting:false
;Coasting Volumes:0.064
;Coasting Speed:0.9
;Raft AirGap:0.25
;Layer0 ZOverLap:0.13
;Adaptive Layers:0
;---------------------End of Head--------------------------
M140 S60
M105
M190 S60
M104 S195
M82 ;absolute extrusion mode
M220 S100 ;Reset Feedrate
M221 S100 ;Reset Flowrate

G28 ;Home

G92 E0 ;Reset Extruder
G1 Z2.0 F3000 ;Move Z Axis up
G1 X-2.1 Y20 Z0.28 F5000.0 ;Move to start position
M109 S195.000000
G1 X-2.1 Y145.0 Z0.28 F1500.0 E15 ;Draw the first line
G1 X-2.4 Y145.0 Z0.28 F5000.0 ;Move to side a little
G1 X-2.4 Y20 Z0.28 F1500.0 E30 ;Draw the second line
G92 E0  ;Reset Extruder
G1 E-1.0000 F1800 ;Retract a bit
G1 Z2.0 F3000 ;Move Z Axis up
G1 E0.0000 F1800 

G92 E0
G92 E0
G1 F1800 E-1.2
;LAYER_COUNT:12

;LAYER:0
M106 S0
M204 S500
;;retract;;
G1 F1800 E0
G1 F1800 E-1.2
G0 F4800 X2.124 Y2.393 Z20.401
G0 X90.215 Y101.633 Z0.6
;TYPE:SKIRT
G1 F600 Z0.2
G1 F1800 E0
G1 F1500 X89.957 Y101.907 E0.01446
G1 X89.736 Y102.212 E0.02893
G1 X89.554 Y102.542 E0.0434
G1 X89.416 Y102.892 E0.05786
G1 X89.322 Y103.257 E0.07234
G1 X89.275 Y103.631 E0.08682
G1 X89.275 Y104.008 E0.1013
G1 X89.322 Y104.382 E0.11578
G1 X89.416 Y104.747 E0.13026
G1 X89.554 Y105.097 E0.14471
G1 X89.736 Y105.427 E0.15919
G1 X89.957 Y105.732 E0.17366
G1 X90.186 Y105.977 E0.18654
G1 X90.101 Y106.112 E0.19267
G1 X89.728 Y105.997 E0.20766
G1 X89.275 Y105.94 E0.2252
G1 X88.898 Y105.94 E0.23969
G1 X88.524 Y105.987 E0.25417
G1 X88.069 Y106.104 E0.27221
G1 X87.641 Y106.305 E0.29038
G1 X87.323 Y106.507 E0.30485
G1 X86.96 Y106.808 E0.32297
G1 X86.659 Y107.171 E0.34108
G1 X86.457 Y107.489 E0.35555
G1 X86.297 Y107.83 E0.37002
G1 X86.181 Y108.188 E0.38448
G1 X86.092 Y108.652 E0.40263
G1 X86.092 Y109.216 E0.4243
G1 X86.181 Y109.68 E0.44245
G1 X86.297 Y110.039 E0.45694
G1 X86.457 Y110.38 E0.47141
G1 X86.659 Y110.698 E0.48588
G1 X86.899 Y110.988 E0.50034
G1 X87.174 Y111.246 E0.51483
G1 X87.479 Y111.467 E0.5293
G1 X87.892 Y111.695 E0.54742
G1 X88.34 Y111.84 E0.56551
G1 X88.71 Y111.911 E0.57998
G1 X89.267 Y111.945 E0.60142
G1 X89.287 Y112.022 E0.60448
G1 X89.064 Y112.149 E0.61433
G1 X88.686 Y112.423 E0.63227
G1 X88.294 Y112.839 E0.65423
G1 X87.991 Y113.318 E0.676
G1 X87.784 Y113.84 E0.69757
G1 X87.677 Y114.4 E0.71947
G1 X87.677 Y114.965 E0.74118
G1 X87.785 Y115.525 E0.76309
G1 X87.991 Y116.045 E0.78457
G1 X88.293 Y116.523 E0.8063
G1 X88.618 Y116.869 E0.82453
G1 X88.908 Y117.109 E0.83899
G1 X89.226 Y117.311 E0.85346
G1 X89.654 Y117.512 E0.87163
G1 X90.109 Y117.629 E0.88968
G1 X90.483 Y117.676 E0.90416
G1 X90.86 Y117.676 E0.91864
G1 X91.234 Y117.629 E0.93312
G1 X91.689 Y117.512 E0.95117
G1 X92.117 Y117.311 E0.96933
G1 X92.435 Y117.109 E0.9838
G1 X92.725 Y116.869 E0.99827
G1 X92.976 Y116.602 E1.01234
G1 X92.905 Y116.898 E1.02404
G1 X92.858 Y117.272 E1.03852
G1 X92.858 Y117.649 E1.053
G1 X92.905 Y118.022 E1.06744
G1 X92.999 Y118.387 E1.08192
G1 X93.137 Y118.738 E1.09641
G1 X93.365 Y119.152 E1.11457
G1 X93.665 Y119.514 E1.13263
G1 X93.94 Y119.772 E1.14711
G1 X94.244 Y119.993 E1.16155
G1 X94.659 Y120.221 E1.17974
G1 X95.106 Y120.366 E1.19779
G1 X95.476 Y120.437 E1.21227
G1 X95.852 Y120.46 E1.22674
G1 X96.228 Y120.437 E1.24121
G1 X96.598 Y120.366 E1.25568
G1 X97.046 Y120.221 E1.27377
G1 X97.459 Y119.993 E1.29189
G1 X97.764 Y119.772 E1.30636
G1 X98.039 Y119.514 E1.32085
G1 X98.279 Y119.224 E1.33531
G1 X98.481 Y118.905 E1.34981
G1 X98.641 Y118.565 E1.36425
G1 X98.758 Y118.206 E1.37875
G1 X98.857 Y117.684 E1.39916
G1 X98.916 Y118.157 E1.41748
G1 X99.062 Y118.604 E1.43554
G1 X99.222 Y118.945 E1.45001
G1 X99.424 Y119.263 E1.46448
G1 X99.724 Y119.626 E1.48257
G1 X100.088 Y119.927 E1.50072
G1 X100.488 Y120.18 E1.5189
G1 X101.008 Y120.386 E1.54039
G1 X101.475 Y120.476 E1.55866
G1 X101.851 Y120.5 E1.57313
G1 X102.227 Y120.476 E1.5876
G1 X102.694 Y120.386 E1.60587
G1 X103.128 Y120.214 E1.62381
G1 X103.543 Y119.986 E1.642
G1 X103.905 Y119.686 E1.66006
G1 X104.163 Y119.412 E1.67452
G1 X104.384 Y119.107 E1.68899
G1 X104.566 Y118.777 E1.70346
G1 X104.704 Y118.427 E1.71792
G1 X104.798 Y118.062 E1.7324
G1 X104.851 Y117.642 E1.74866
G1 X104.916 Y118.157 E1.7686
G1 X105.062 Y118.604 E1.78666
G1 X105.222 Y118.945 E1.80113
G1 X105.424 Y119.263 E1.81561
G1 X105.724 Y119.626 E1.8337
G1 X106.088 Y119.927 E1.85184
G1 X106.488 Y120.18 E1.87002
G1 X107.008 Y120.386 E1.89151
G1 X107.475 Y120.476 E1.90978
G1 X107.851 Y120.5 E1.92425
G1 X108.227 Y120.476 E1.93873
G1 X108.694 Y120.386 E1.957
G1 X109.128 Y120.214 E1.97493
G1 X109.543 Y119.986 E1.99312
G1 X109.905 Y119.686 E2.01118
G1 X110.163 Y119.412 E2.02564
G1 X110.384 Y119.107 E2.04011
G1 X110.566 Y118.777 E2.05459
G1 X110.704 Y118.427 E2.06904
G1 X110.798 Y118.062 E2.08352
G1 X110.851 Y117.642 E2.09978
G1 X110.916 Y118.157 E2.11972
G1 X111.062 Y118.604 E2.13779
G1 X111.222 Y118.945 E2.15226
G1 X111.424 Y119.263 E2.16673
G1 X111.724 Y119.626 E2.18482
G1 X112.088 Y119.927 E2.20296
G1 X112.488 Y120.18 E2.22115
G1 X113.008 Y120.386 E2.24263
G1 X113.475 Y120.476 E2.2609
G1 X113.851 Y120.5 E2.27538
G1 X114.227 Y120.476 E2.28985
G1 X114.694 Y120.386 E2.30812
G1 X115.128 Y120.214 E2.32605
G1 X115.543 Y119.986 E2.34424
G1 X115.905 Y119.686 E2.3623
G1 X116.163 Y119.412 E2.37676
G1 X116.384 Y119.107 E2.39123
G1 X116.566 Y118.777 E2.40571
G1 X116.704 Y118.427 E2.42016
G1 X116.798 Y118.062 E2.43464
G1 X116.851 Y117.642 E2.4509
G1 X116.916 Y118.157 E2.47084
G1 X117.062 Y118.604 E2.48891
G1 X117.222 Y118.945 E2.50338
G1 X117.424 Y119.263 E2.51785
G1 X117.724 Y119.626 E2.53594
G1 X118.088 Y119.927 E2.55409
G1 X118.488 Y120.18 E2.57227
G1 X119.008 Y120.386 E2.59375
G1 X119.475 Y120.476 E2.61202
G1 X119.851 Y120.5 E2.6265
G1 X120.227 Y120.476 E2.64097
G1 X120.694 Y120.386 E2.65924
G1 X121.128 Y120.214 E2.67718
G1 X121.543 Y119.986 E2.69537
G1 X121.905 Y119.686 E2.71343
G1 X122.163 Y119.412 E2.72788
G1 X122.384 Y119.107 E2.74235
G1 X122.566 Y118.777 E2.75683
G1 X122.704 Y118.427 E2.77128
G1 X122.798 Y118.062 E2.78576
G1 X122.862 Y117.555 E2.80539
G1 X122.939 Y117.953 E2.82097
G1 X123.111 Y118.386 E2.83887
G1 X123.335 Y118.797 E2.85685
G1 X123.639 Y119.163 E2.87512
G1 X123.913 Y119.421 E2.88958
G1 X124.218 Y119.642 E2.90405
G1 X124.548 Y119.824 E2.91853
G1 X124.898 Y119.962 E2.93298
G1 X125.263 Y120.056 E2.94746
G1 X125.637 Y120.103 E2.96194
G1 X126.014 Y120.103 E2.97642
G1 X126.483 Y120.044 E2.99458
G1 X127.025 Y119.867 E3.01649
G1 X127.433 Y119.642 E3.03438
G1 X127.738 Y119.421 E3.04885
G1 X128.081 Y119.098 E3.06695
G1 X128.358 Y118.717 E3.08505
G1 X128.54 Y118.386 E3.09956
G1 X128.679 Y118.036 E3.11403
G1 X128.767 Y117.69 E3.12774
G1 X129.312 Y117.723 E3.14872
G1 X129.688 Y117.7 E3.16319
G1 X130.155 Y117.61 E3.18146
G1 X130.589 Y117.438 E3.19939
G1 X130.919 Y117.256 E3.21387
G1 X131.224 Y117.035 E3.22834
G1 X131.499 Y116.777 E3.24282
G1 X131.739 Y116.487 E3.25728
G1 X131.941 Y116.169 E3.27176
G1 X132.141 Y115.743 E3.28984
G1 X132.259 Y115.286 E3.30797
G1 X132.306 Y114.912 E3.32245
G1 X132.306 Y114.535 E3.33693
G1 X132.259 Y114.161 E3.35141
G1 X132.142 Y113.706 E3.36946
G1 X131.941 Y113.278 E3.38762
G1 X131.739 Y112.96 E3.4021
G1 X131.439 Y112.597 E3.42019
G1 X131.009 Y112.241 E3.44163
G1 X130.7 Y112.065 E3.45529
G1 X130.752 Y111.879 E3.46271
G1 X131.083 Y111.878 E3.47543
G1 X131.552 Y111.819 E3.49359
G1 X131.999 Y111.673 E3.51165
G1 X132.34 Y111.513 E3.52612
G1 X132.658 Y111.311 E3.54059
G1 X133.022 Y111.011 E3.55871
G1 X133.322 Y110.647 E3.57683
G1 X133.524 Y110.329 E3.59131
G1 X133.684 Y109.988 E3.60578
G1 X133.83 Y109.541 E3.62384
G1 X133.889 Y109.072 E3.642
G1 X133.889 Y108.696 E3.65644
G1 X133.83 Y108.227 E3.6746
G1 X133.684 Y107.78 E3.69267
G1 X133.524 Y107.439 E3.70714
G1 X133.322 Y107.121 E3.72161
G1 X133.082 Y106.83 E3.7361
G1 X132.807 Y106.572 E3.75059
G1 X132.502 Y106.351 E3.76505
G1 X132.172 Y106.169 E3.77953
G1 X131.822 Y106.031 E3.79398
G1 X131.457 Y105.937 E3.80846
G1 X131.083 Y105.89 E3.82294
G1 X130.707 Y105.89 E3.83739
G1 X130.243 Y105.948 E3.85535
G1 X129.871 Y106.061 E3.87029
G1 X130.228 Y105.63 E3.89179
G1 X130.43 Y105.312 E3.90626
G1 X130.59 Y104.971 E3.92073
G1 X130.736 Y104.524 E3.93879
G1 X130.795 Y104.055 E3.95695
G1 X130.795 Y103.678 E3.97143
G1 X130.736 Y103.209 E3.98959
G1 X130.59 Y102.762 E4.00766
G1 X130.43 Y102.421 E4.02213
G1 X130.228 Y102.103 E4.0366
G1 X129.988 Y101.813 E4.05106
G1 X129.642 Y101.488 E4.0693
G1 X129.164 Y101.186 E4.09102
G1 X128.644 Y100.98 E4.1125
G1 X128.084 Y100.872 E4.13441
G1 X127.518 Y100.872 E4.15616
G1 X126.958 Y100.98 E4.17807
G1 X126.524 Y101.152 E4.196
G1 X126.105 Y101.382 E4.21436
G1 X125.747 Y101.68 E4.23225
G1 X125.489 Y101.954 E4.24671
G1 X125.215 Y102.332 E4.26465
G1 X125.038 Y102.698 E4.28026
G1 X125.037 Y102.311 E4.29513
G1 X124.99 Y101.937 E4.30961
G1 X124.896 Y101.572 E4.32409
G1 X124.758 Y101.222 E4.33854
G1 X124.576 Y100.892 E4.35302
G1 X124.355 Y100.587 E4.36749
G1 X124.097 Y100.313 E4.38195
G1 X123.739 Y100.015 E4.39984
G1 X123.234 Y99.738 E4.42197
G1 X122.789 Y99.594 E4.43994
G1 X122.325 Y99.505 E4.45809
G1 X121.76 Y99.505 E4.47979
G1 X121.2 Y99.613 E4.5017
G1 X120.68 Y99.819 E4.52319
G1 X120.202 Y100.121 E4.54491
G1 X119.856 Y100.446 E4.56314
G1 X119.616 Y100.736 E4.5776
G1 X119.414 Y101.054 E4.59208
G1 X119.254 Y101.395 E4.60655
G1 X119.108 Y101.842 E4.62461
G1 X119.043 Y102.357 E4.64455
G1 X118.99 Y101.937 E4.66081
G1 X118.896 Y101.572 E4.67529
G1 X118.758 Y101.222 E4.68975
G1 X118.576 Y100.892 E4.70422
G1 X118.355 Y100.587 E4.71869
G1 X118.097 Y100.313 E4.73315
G1 X117.739 Y100.015 E4.75104
G1 X117.234 Y99.738 E4.77317
G1 X116.789 Y99.594 E4.79114
G1 X116.325 Y99.505 E4.80929
G1 X115.76 Y99.505 E4.83099
G1 X115.2 Y99.613 E4.8529
G1 X114.68 Y99.819 E4.87439
G1 X114.202 Y100.121 E4.89611
G1 X113.856 Y100.446 E4.91434
G1 X113.616 Y100.736 E4.9288
G1 X113.414 Y101.054 E4.94328
G1 X113.254 Y101.395 E4.95775
G1 X113.108 Y101.842 E4.97581
G1 X113.043 Y102.357 E4.99575
G1 X112.99 Y101.937 E5.01201
G1 X112.896 Y101.572 E5.02649
G1 X112.758 Y101.222 E5.04095
G1 X112.576 Y100.892 E5.05542
G1 X112.355 Y100.587 E5.06989
G1 X112.097 Y100.313 E5.08435
G1 X111.739 Y100.015 E5.10224
G1 X111.234 Y99.738 E5.12437
G1 X110.789 Y99.594 E5.14234
G1 X110.325 Y99.505 E5.16049
G1 X109.76 Y99.505 E5.18219
G1 X109.2 Y99.613 E5.2041
G1 X108.68 Y99.819 E5.22559
G1 X108.202 Y100.121 E5.24731
G1 X107.856 Y100.446 E5.26555
G1 X107.616 Y100.736 E5.28001
G1 X107.414 Y101.054 E5.29448
G1 X107.254 Y101.395 E5.30895
G1 X107.108 Y101.842 E5.32701
G1 X107.043 Y102.357 E5.34695
G1 X106.99 Y101.937 E5.36322
G1 X106.896 Y101.572 E5.3777
G1 X106.758 Y101.222 E5.39215
G1 X106.576 Y100.892 E5.40663
G1 X106.355 Y100.587 E5.42109
G1 X106.097 Y100.313 E5.43555
G1 X105.739 Y100.015 E5.45345
G1 X105.234 Y99.738 E5.47557
G1 X104.789 Y99.594 E5.49354
G1 X104.325 Y99.505 E5.51169
G1 X103.76 Y99.505 E5.53339
G1 X103.2 Y99.613 E5.5553
G1 X102.68 Y99.819 E5.57679
G1 X102.202 Y100.121 E5.59851
G1 X101.856 Y100.446 E5.61675
G1 X101.616 Y100.736 E5.63121
G1 X101.414 Y101.054 E5.64568
G1 X101.254 Y101.395 E5.66015
G1 X101.108 Y101.842 E5.67821
G1 X101.043 Y102.357 E5.69816
G1 X100.99 Y101.937 E5.71442
G1 X100.896 Y101.572 E5.7289
G1 X100.758 Y101.222 E5.74335
G1 X100.576 Y100.892 E5.75783
G1 X100.355 Y100.587 E5.7723
G1 X100.097 Y100.313 E5.78675
G1 X99.739 Y100.015 E5.80465
G1 X99.234 Y99.738 E5.82677
G1 X98.789 Y99.594 E5.84474
G1 X98.325 Y99.505 E5.86289
G1 X97.76 Y99.505 E5.8846
G1 X97.2 Y99.613 E5.90651
G1 X96.68 Y99.819 E5.92799
G1 X96.202 Y100.121 E5.94971
G1 X95.856 Y100.446 E5.96795
G1 X95.616 Y100.736 E5.98241
G1 X95.414 Y101.054 E5.99688
G1 X95.254 Y101.395 E6.01135
G1 X95.108 Y101.842 E6.02942
G1 X95.049 Y102.311 E6.04757
G1 X95.048 Y102.689 E6.0621
G1 X94.898 Y102.374 E6.0755
G1 X94.696 Y102.056 E6.08997
G1 X94.456 Y101.766 E6.10443
G1 X94.181 Y101.508 E6.11892
G1 X93.876 Y101.286 E6.13341
G1 X93.546 Y101.105 E6.14787
G1 X93.112 Y100.933 E6.1658
G1 X92.552 Y100.825 E6.18771
G1 X91.986 Y100.825 E6.20945
G1 X91.426 Y100.933 E6.23136
G1 X90.992 Y101.105 E6.2493
G1 X90.578 Y101.331 E6.26742
G1 X90.215 Y101.633 E6.28556
;;retract move;;
G1 F3840 X89.957 Y101.907 E6.09556
G1 X89.736 Y102.212 E5.90556
G1 X89.554 Y102.542 E5.71556
G1 X89.416 Y102.892 E5.52556
G1 X89.322 Y103.257 E5.33556
G1 X89.307 Y103.376 E5.14556
G1 F1800 E5.08556
G0 F4800 X92.315 Y104.468 Z0.6
;MESH:0_0
G0 X93.118 Y104.76
;TYPE:WALL-OUTER
G1 F600 Z0.2
G1 F1800 E6.28556
G1 F1200 X93.556 Y104.508 E6.304
G1 X93.937 Y104.319 E6.31952
G1 X94.321 Y104.162 E6.33466
G1 X94.835 Y103.992 E6.35442
G1 X95.409 Y103.86 E6.37591
G1 X96.037 Y103.781 E6.39901
G1 X96.657 Y103.767 E6.42164
G1 X97.171 Y103.805 E6.44045
G1 X97.583 Y103.863 E6.45564
G1 X97.989 Y103.949 E6.47078
