;FLAVOR:Marlin
;TIME:857.78
;Filament used:0.972222m
;Material Diameter:1.75
;Material Density:1.24
;Filament Cost:0.057994
;Filament Weight:2.899700
;Filament Length:0.972222
;Layer height:0.2
;MINX:2.059
;MINY:2.448
;MINZ:0.2
;MAXX:127.869
;MAXY:132.837
;MAXZ:20.401
;OuterWall Time:187.383
;InnerWall Time:124.813
;Skin Time:105.22
;Support Time:185.407
;SkirtBrim Time:0
;Infill Time:23.4046
;Support Infills Time:0
;Combing Time:69.8195
;Retraction Time:149.802
;PrimeTower Time:11.9318
;;;;;;;;;;;;;;;;;;;;;;;;;;;;;;;;;;;;;;;;;;;;;;;;;;;;;;;;;;;;;;;;;;
;Creality Print GCode Generated by CXEngine
;CRSLICE_GIT_HASH:58ee74d
;Creality Print Version : V4.3.8.6984
;CXEngine Release Time:2023-12-04 18:16:29
;Gcode Generated Time:2024-02-17 00:09:47
;----------Machine Config--------------
;Machine Name:Ender-3 V3 SE
;Machine Height:250
;Machine Width:220
;Machine Depth:220
;Material Type:PLA
;Material Name:CR-PLA_1.75
;Number of Extruders:1
;ExtruderParams[0] Nozzle Diameter:1000
;----------Profile Config---------------
;Wall Thickness:0.8
;Top/Bottom Thickness:0.8
;Out Wall Line Width:0.42
;Inner Wall Line Width:0.45
;Inital Height:200
;Wall Line Count:2
;Infill Line Distance:8
;Infill Pattern:grid
;Infill Sparse Density:10
;Infill Wipe Distance:0
;Print Temperature:190
;Bed Temperature:60
;Support Enable:false
;Support Density:15
;Support Angle:60
;Adhesion Type:autobrim
;machine is belt:false
;machine belt offset:10
;machine belt offset Y:0
;Raft Base Line Spacing:1.6
;Wait Heatup Sync:true
;Enable Ironing:false
;Material Type:PLA
;Max volumetric speed:20
;Preview Img Type:png
;Screen Size:Sermoon D3
;----------Shell Config----------------
;Outer Wall Wipe Distance:2000
;Outer Inset First:false
;Infill Before Walls:false
;Infill Overlap:0.09
;Fill Gaps Between Walls:everywhere
;Minimum Infill Area:30
;Top Surface Skin Layer:0
;Top Layers:4
;Z Seam Alignment:sharpest_corner
;Seam Corner Preference:z_seam_corner_inner
;Z Seam X:110
;Z Seam Y:220
;Horizontal Expansion:0
;Top/Bottom Pattern:zigzag
;Ironing Pattern:zigzag
;Vase Model:false
;----------Support Config----------------
;Support Type:everywhere
;Support Pattern:zigzag
;Support Infill Layer Thickness:0.2
;Minimum Support Area:1
;Enable Support Roof:true
;Support Roof Thickness:0.8
;Support Roof Pattern:lines
;Connect Support Lines:0
;Connect Support ZigZags:1
;Minimum Support X/Y Distance:0.2
;Support Line Distance:2.67
; ---------PrintSpeed & Travel----------
;Enable Print Cool:true
;Avoid Printed Parts Traveling:true
;Enable Retraction:true
;Retraction Distance:1.2
;Retraction Speed:30
;Retraction Prime Speed:30
;Maximum Retraction Count:100
;Minimum Extrusion Distance Window:0.8
;Z Hop When Retracted:true
;Z Hop Height:0.4
;Retract Before Outer Wall:true

;Outer Wall Speed:60
;Inner Wall Speed:90
;Infill Speed:180
;Top/Bottom Speed:50
;Travel Speed:150
;Initial Layer Speed:30
;Skirt/Brim Speed:25
;Prime Tower Speed:60
;Outer Wall Acceleration:1000
;Inner Wall Acceleration:2000
;Infill Acceleration:2500
;Top/Bottom Acceleration:2500
;Travel Acceleration:2500
;Initial Layer Print Acceleration:500
;Initial Layer Travel Acceleration:500
;Skirt/Brim Acceleration:500
;Combing Mode:off
; --------SpecialModel&Mesh Fixes--------
;Union Overlapping Volum:true
;Remove All Holes:false
;Maximum Travel Resolution:0.25
;Maximum Deviation:0.05
;Maximum Model Angle:0.872665
;IS Mold Print:false
;Make Overhang Printable:false
;Enable Coasting:false
;Coasting Volumes:0.064
;Coasting Speed:0.9
;Raft AirGap:0.25
;Layer0 ZOverLap:0.13
;Adaptive Layers:0
;---------------------End of Head--------------------------
M140 S60
M105
M190 S60
M104 S190
M82 ;absolute extrusion mode
M220 S100 ;Reset Feedrate
M221 S100 ;Reset Flowrate

G28 ;Home

G92 E0 ;Reset Extruder
G1 Z2.0 F3000 ;Move Z Axis up
G1 X-2.1 Y20 Z0.28 F5000.0 ;Move to start position
M109 S190.000000
G1 X-2.1 Y145.0 Z0.28 F1500.0 E15 ;Draw the first line
G1 X-2.4 Y145.0 Z0.28 F5000.0 ;Move to side a little
G1 X-2.4 Y20 Z0.28 F1500.0 E30 ;Draw the second line
G92 E0  ;Reset Extruder
G1 E-1.0000 F1800 ;Retract a bit
G1 Z2.0 F3000 ;Move Z Axis up
G1 E0.0000 F1800 

G92 E0
G92 E0
G1 F1800 E-1.2
;LAYER_COUNT:44

;LAYER:0
M106 S0
M204 S500
;;retract;;
G1 F1800 E0
G1 F1800 E-1.2
G0 F4800 X2.059 Y2.448 Z20.401
;MESH:0_0
G0 X101.149 Y120.26 Z0.6
;TYPE:WALL-OUTER
G1 F600 Z0.2
G1 F1800 E0
G1 X101.047 Y120.108 E0.00668
G1 X100.491 Y119.838 E0.02924
G1 X100.019 Y119.588 E0.04873
G1 X99.558 Y119.321 E0.06817
G1 X99.112 Y119.042 E0.08737
G1 X98.441 Y118.58 E0.1171
G1 X97.815 Y118.103 E0.14582
G1 X97.42 Y117.772 E0.16463
G1 X97.016 Y117.41 E0.18443
G1 X96.256 Y116.653 E0.22358
G1 X95.902 Y116.258 E0.24293
G1 X95.559 Y115.848 E0.26244
G1 X95.232 Y115.431 E0.28178
G1 X94.932 Y115.018 E0.30041
G1 X94.621 Y114.56 E0.32061
G1 X94.339 Y114.109 E0.34003
G1 X94.073 Y113.649 E0.35942
G1 X93.823 Y113.178 E0.37888
G1 X93.584 Y112.691 E0.39868
G1 X93.372 Y112.215 E0.41769
G1 X93.177 Y111.733 E0.43667
G1 X92.988 Y111.22 E0.45662
G1 X92.83 Y110.738 E0.47513
G1 X92.611 Y109.951 E0.50494
G1 X92.498 Y109.46 E0.52333
G1 X92.391 Y108.91 E0.54378
G1 X92.272 Y108.117 E0.57304
G1 X92.217 Y107.612 E0.59158
G1 X92.166 Y106.799 E0.62131
G1 X92.156 Y106.261 E0.64095
G1 X92.165 Y105.717 E0.6608
G1 X92.214 Y104.919 E0.68998
G1 X92.267 Y104.429 E0.70797
G1 X92.389 Y103.6 E0.73855
G1 X92.494 Y103.06 E0.75863
G1 X92.613 Y102.54 E0.77809
G1 X92.739 Y102.076 E0.79564
G1 X92.975 Y101.316 E0.82468
G1 X93.274 Y100.525 E0.85554
G1 X93.584 Y99.807 E0.88408
G1 X93.817 Y99.33 E0.90346
G1 X94.06 Y98.873 E0.92235
G1 X94.327 Y98.41 E0.94185
G1 X94.617 Y97.947 E0.96179
G1 X95.068 Y97.293 E0.99078
G1 X95.547 Y96.665 E1.01961
G1 X95.885 Y96.262 E1.0388
G1 X96.23 Y95.878 E1.05764
G1 X96.806 Y95.291 E1.08766
G1 X96.994 Y95.109 E1.0972
G1 X97.391 Y94.753 E1.11666
G1 X97.799 Y94.411 E1.13609
G1 X98.188 Y94.106 E1.15413
G1 X98.633 Y93.78 E1.17427
G1 X99.087 Y93.473 E1.19427
G1 X99.539 Y93.191 E1.21371
G1 X100.013 Y92.916 E1.23371
G1 X100.471 Y92.674 E1.25261
G1 X100.958 Y92.434 E1.27243
G1 X101.434 Y92.222 E1.29144
G1 X101.912 Y92.029 E1.31026
G1 X102.426 Y91.84 E1.33024
G1 X102.93 Y91.674 E1.34961
G1 X103.698 Y91.461 E1.37869
G1 X104.189 Y91.347 E1.39709
G1 X104.739 Y91.241 E1.41753
G1 X105.532 Y91.122 E1.44679
G1 X106.037 Y91.067 E1.46533
G1 X106.892 Y91.014 E1.4966
G1 X107.389 Y91.007 E1.51474
G1 X107.934 Y91.015 E1.53463
G1 X108.711 Y91.064 E1.56304
G1 X109.258 Y91.121 E1.58311
G1 X110.049 Y91.239 E1.6123
G1 X110.561 Y91.339 E1.63134
G1 X111.097 Y91.46 E1.65139
G1 X111.6 Y91.596 E1.67041
G1 X112.351 Y91.833 E1.69915
G1 X113.125 Y92.124 E1.72932
G1 X113.843 Y92.434 E1.75786
G1 X114.306 Y92.661 E1.77668
G1 X114.778 Y92.911 E1.79617
G1 X115.24 Y93.178 E1.81565
G1 X115.687 Y93.458 E1.8349
G1 X116.357 Y93.918 E1.86456
G1 X116.96 Y94.378 E1.89224
G1 X117.372 Y94.722 E1.91182
G1 X117.772 Y95.08 E1.93141
G1 X118.541 Y95.844 E1.97097
G1 X118.907 Y96.252 E1.99098
G1 X119.239 Y96.649 E2.00986
G1 X119.543 Y97.038 E2.02788
G1 X119.868 Y97.479 E2.04787
G1 X120.178 Y97.938 E2.06809
G1 X120.459 Y98.389 E2.08748
G1 X120.768 Y98.917 E2.10981
G1 X120.928 Y99.002 E2.11642
G1 X127.848 Y99.002 E2.36896
G1 X127.848 Y113.498 E2.89799
G1 X120.922 Y113.507 E3.15075
G1 X120.765 Y113.588 E3.1572
G1 X120.463 Y114.105 E3.17905
G1 X120.193 Y114.536 E3.19761
G1 X119.732 Y115.207 E3.22732
G1 X119.253 Y115.835 E3.25615
G1 X118.923 Y116.229 E3.2749
G1 X118.57 Y116.622 E3.29418
G1 X117.994 Y117.209 E3.32419
G1 X117.806 Y117.391 E3.33374
G1 X117.398 Y117.757 E3.35375
G1 X117.001 Y118.089 E3.37263
G1 X116.582 Y118.417 E3.39205
G1 X116.169 Y118.718 E3.4107
G1 X115.712 Y119.028 E3.43086
G1 X115.261 Y119.309 E3.45025
G1 X114.799 Y119.577 E3.46974
G1 X114.319 Y119.833 E3.48959
G1 X113.744 Y120.114 E3.51295
G1 X113.652 Y120.259 E3.51922
G1 X113.648 Y128.998 E3.83814
G1 X110.152 Y128.998 E3.96573
G1 X110.153 Y119.691 E4.30538
G1 F2008.7 X110.104 Y119.429 E4.3141
G1 F2376 X110.007 Y119.367 E4.31728
G1 F2089.4 X110.426 Y119.354 E4.33046
G1 F1800 X111.11 Y119.177 E4.35625
G1 X111.556 Y119.04 E4.37328
G1 X111.997 Y118.889 E4.39029
G1 X112.433 Y118.719 E4.40737
G1 X112.867 Y118.539 E4.42451
G1 X113.294 Y118.337 E4.44175
G1 X113.712 Y118.124 E4.45887
G1 X114.121 Y117.9 E4.47589
G1 X114.525 Y117.656 E4.49312
G1 X115.107 Y117.269 E4.51862
G1 X115.492 Y116.992 E4.53593
G1 X116.041 Y116.556 E4.56152
G1 X116.655 Y116.011 E4.59148
G1 X117.236 Y115.422 E4.62167
G1 X117.545 Y115.081 E4.63847
G1 X117.848 Y114.715 E4.65581
G1 X118.137 Y114.348 E4.67285
G1 X118.548 Y113.771 E4.69871
G1 X118.804 Y113.378 E4.71582
G1 X119.046 Y112.978 E4.73289
G1 X119.275 Y112.563 E4.75018
G1 X119.486 Y112.147 E4.76721
G1 X119.682 Y111.73 E4.78402
G1 X119.869 Y111.288 E4.80154
G1 X120.038 Y110.85 E4.81867
G1 X120.19 Y110.411 E4.83562
G1 X120.327 Y109.959 E4.85286
G1 X120.502 Y109.278 E4.87852
G1 X120.6 Y108.821 E4.89558
G1 X120.687 Y108.33 E4.91378
G1 X120.749 Y107.891 E4.92996
G1 X120.798 Y107.422 E4.94717
G1 X120.83 Y106.956 E4.96421
G1 X120.846 Y106.488 E4.9813
G1 X120.846 Y106.007 E4.99886
G1 X120.83 Y105.546 E5.01569
G1 X120.798 Y105.08 E5.03274
G1 X120.749 Y104.612 E5.04991
G1 X120.683 Y104.144 E5.06716
G1 X120.603 Y103.685 E5.08416
G1 X120.503 Y103.223 E5.10141
G1 X120.329 Y102.55 E5.12678
G1 X120.19 Y102.094 E5.14418
G1 X120.039 Y101.652 E5.16122
G1 X119.87 Y101.217 E5.17826
G1 X119.689 Y100.785 E5.19535
G1 X119.49 Y100.357 E5.21258
G1 F1803.9 X119.273 Y99.936 E5.22982
G1 X119.048 Y99.526 E5.24685
G1 F1800 X118.806 Y99.125 E5.26395
G1 X118.42 Y98.543 E5.28943
G1 X118.142 Y98.158 E5.30676
G1 X117.695 Y97.598 E5.33291
G1 X117.155 Y96.987 E5.36267
G1 X116.577 Y96.418 E5.39227
G1 X116.231 Y96.105 E5.4093
G1 X115.865 Y95.801 E5.42666
G1 X115.498 Y95.513 E5.44369
G1 X114.921 Y95.101 E5.46956
G1 X114.525 Y94.843 E5.48681
G1 X114.128 Y94.604 E5.50372
G1 X113.713 Y94.374 E5.52104
G1 X113.297 Y94.163 E5.53806
G1 X112.88 Y93.968 E5.55486
G1 X112.441 Y93.781 E5.57228
G1 X112.001 Y93.612 E5.58948
G1 X111.563 Y93.461 E5.60638
G1 X111.11 Y93.322 E5.62368
G1 X110.428 Y93.147 E5.64937
G1 X109.971 Y93.049 E5.66643
G1 X109.48 Y92.963 E5.68462
G1 X109.041 Y92.901 E5.7008
G1 X108.572 Y92.851 E5.71802
G1 X108.106 Y92.82 E5.73506
G1 X107.638 Y92.804 E5.75215
G1 X107.169 Y92.804 E5.76926
G1 X106.698 Y92.82 E5.78646
G1 X106.231 Y92.852 E5.80355
G1 X105.763 Y92.901 E5.82072
G1 X105.328 Y92.961 E5.83675
G1 X104.832 Y93.048 E5.85512
G1 X104.376 Y93.146 E5.87214
G1 X103.699 Y93.321 E5.89766
G1 X103.246 Y93.46 E5.91496
G1 X102.801 Y93.612 E5.93212
G1 X102.367 Y93.779 E5.94909
G1 X101.933 Y93.962 E5.96628
G1 X101.495 Y94.167 E5.98393
G1 X101.09 Y94.374 E6.00053
G1 X100.677 Y94.602 E6.01774
G1 X100.277 Y94.842 E6.03477
G1 X99.693 Y95.231 E6.06037
G1 X99.308 Y95.508 E6.07768
G1 X98.753 Y95.951 E6.1036
G1 X98.146 Y96.487 E6.13315
G1 X97.564 Y97.078 E6.16342
G1 X97.252 Y97.424 E6.18043
G1 X96.952 Y97.785 E6.19756
G1 X96.663 Y98.153 E6.21463
G1 X96.251 Y98.728 E6.24045
G1 X95.996 Y99.122 E6.25757
G1 X95.754 Y99.522 E6.27464
G1 X95.525 Y99.935 E6.29187
G1 X95.313 Y100.352 E6.30894
G1 X95.118 Y100.77 E6.32578
G1 X94.931 Y101.211 E6.34326
G1 X94.762 Y101.649 E6.36039
G1 X94.61 Y102.089 E6.37738
G1 X94.473 Y102.54 E6.39458
G1 X94.298 Y103.222 E6.42028
G1 X94.2 Y103.679 E6.43733
G1 X94.113 Y104.17 E6.45553
G1 X94.051 Y104.609 E6.47171
G1 X94.002 Y105.077 E6.48888
G1 X93.97 Y105.544 E6.50597
G1 X93.954 Y106.011 E6.52302
G1 X93.954 Y106.492 E6.54057
G1 X93.97 Y106.952 E6.55737
G1 X94.002 Y107.418 E6.57442
G1 X94.051 Y107.886 E6.59159
G1 X94.117 Y108.356 E6.60891
G1 X94.197 Y108.813 E6.62584
G1 X94.297 Y109.276 E6.64313
G1 X94.471 Y109.95 E6.66853
G1 X94.61 Y110.406 E6.68593
G1 X94.761 Y110.847 E6.70294
G1 X94.93 Y111.283 E6.72001
G1 X95.111 Y111.717 E6.73717
G1 X95.307 Y112.134 E6.75399
G1 X95.524 Y112.561 E6.77147
G1 X95.751 Y112.972 E6.7886
G1 X95.991 Y113.371 E6.80559
G1 X96.38 Y113.957 E6.83126
G1 X96.658 Y114.342 E6.84859
G1 X97.102 Y114.898 E6.87456
G1 X97.637 Y115.504 E6.90406
G1 X98.221 Y116.079 E6.93397
G1 X98.57 Y116.395 E6.95115
G1 X98.934 Y116.697 E6.96841
G1 X99.301 Y116.987 E6.98548
G1 X99.878 Y117.399 E7.01136
G1 X100.271 Y117.654 E7.02845
G1 X100.67 Y117.895 E7.04547
G1 X101.087 Y118.126 E7.06286
G1 X101.501 Y118.336 E7.07981
G1 X101.919 Y118.532 E7.09665
G1 X102.359 Y118.718 E7.11409
G1 X102.799 Y118.888 E7.1313
G1 X103.237 Y119.039 E7.14821
G1 X103.69 Y119.177 E7.16549
G1 X104.372 Y119.352 E7.19119
G1 X104.829 Y119.45 E7.20824
G1 X105.32 Y119.537 E7.22644
G1 X105.759 Y119.599 E7.24262
G1 X106.227 Y119.648 E7.2598
G1 X106.648 Y119.673 E7.27519
G1 X106.648 Y128.998 E7.6155
G1 X101.152 Y128.998 E7.81607
G1 X101.149 Y120.26 E8.13497
G0 F4800 X101.63 Y120.202
;TYPE:WALL-INNER
G1 F1800 X101.534 Y119.944 E8.14573
G1 F1528.3 X101.354 Y119.631 E8.16236
G1 F1331.8 X100.738 Y119.33 E8.19859
G1 F1335.8 X100.285 Y119.089 E8.22562
G1 X99.841 Y118.833 E8.25263
G1 X99.413 Y118.564 E8.27926
G1 X98.779 Y118.127 E8.31983
G1 X98.18 Y117.671 E8.3595
G1 F1337.8 X97.79 Y117.345 E8.38624
G1 X97.402 Y116.998 E8.41362
G1 X96.78 Y116.385 E8.45957
G1 F1335.8 X96.323 Y115.88 E8.49545
G1 F1333.8 X95.994 Y115.486 E8.52254
G1 F1335.8 X95.676 Y115.084 E8.54954
G1 X95.388 Y114.687 E8.57539
G1 F1333.8 X95.09 Y114.244 E8.60356
G1 X94.818 Y113.81 E8.63059
G1 X94.563 Y113.368 E8.65751
G1 X94.322 Y112.914 E8.68463
G1 X94.091 Y112.442 E8.71236
G1 X93.889 Y111.987 E8.73863
G1 X93.7 Y111.522 E8.76512
G1 F1331.8 X93.519 Y111.027 E8.79297
G1 X93.367 Y110.562 E8.81882
G1 X93.157 Y109.8 E8.86059
G1 X93.049 Y109.334 E8.88587
G1 F1335.8 X92.945 Y108.804 E8.91433
G1 F1337.8 X92.834 Y108.067 E8.95354
G1 X92.778 Y107.553 E8.98074
G1 F1335.8 X92.73 Y106.765 E9.02234
G1 F1333.8 X92.721 Y106.252 E9.04941
G1 F1335.8 X92.729 Y105.746 E9.07607
G1 X92.776 Y104.972 E9.11693
G1 F1337.8 X92.828 Y104.489 E9.14249
G1 F1335.8 X92.945 Y103.702 E9.18441
G1 F1333.8 X93.049 Y103.168 E9.21312
G1 F1331.8 X93.156 Y102.701 E9.23843
G1 F1333.8 X93.286 Y102.213 E9.26508
G1 F1335.8 X93.507 Y101.509 E9.30396
G1 X93.78 Y100.778 E9.34507
G1 X94.094 Y100.049 E9.38689
G1 F1333.8 X94.318 Y99.592 E9.41375
G1 X94.558 Y99.139 E9.4408
G1 X94.816 Y98.693 E9.46799
G1 F1335.8 X95.085 Y98.263 E9.49471
G1 X95.521 Y97.631 E9.53517
G1 F1333.8 X95.976 Y97.033 E9.57482
G1 F1335.8 X96.315 Y96.625 E9.60277
G1 X96.659 Y96.244 E9.62981
G1 X97.207 Y95.686 E9.67102
G1 F1333.8 X97.768 Y95.174 E9.7111
G1 F1331.8 X98.161 Y94.845 E9.73818
G1 F1333.8 X98.564 Y94.527 E9.76527
G1 F1335.8 X98.965 Y94.237 E9.79134
G1 F1331.8 X99.403 Y93.942 E9.81925
G1 X99.837 Y93.67 E9.84632
G1 F1333.8 X100.281 Y93.413 E9.87339
G1 X100.735 Y93.173 E9.90049
G1 X101.207 Y92.941 E9.92824
G1 X101.661 Y92.739 E9.95446
G1 F1331.8 X102.123 Y92.552 E9.9808
G1 X102.62 Y92.371 E10.00875
G1 F1329.9 X103.086 Y92.218 E10.03471
G1 F1331.8 X103.849 Y92.006 E10.07656
G1 X104.315 Y91.897 E10.10185
G1 F1333.8 X104.845 Y91.796 E10.13032
G1 F1335.8 X105.584 Y91.684 E10.1697
G1 F1337.8 X106.096 Y91.628 E10.1968
G1 F1335.8 X106.888 Y91.58 E10.2386
G1 X107.398 Y91.571 E10.26548
G1 X107.904 Y91.579 E10.29214
G1 F1337.8 X108.675 Y91.626 E10.33278
G1 F1339.8 X109.179 Y91.679 E10.3594
G1 F1337.8 X109.945 Y91.794 E10.40015
G1 X110.452 Y91.893 E10.42733
G1 F1335.8 X110.954 Y92.007 E10.45445
G1 X111.408 Y92.129 E10.47922
G1 F1337.8 X112.158 Y92.364 E10.52057
G1 F1339.8 X112.906 Y92.644 E10.56252
G1 X113.6 Y92.944 E10.60224
G1 F1335.8 X114.058 Y93.168 E10.6291
G1 F1337.8 X114.512 Y93.409 E10.65614
G1 X114.957 Y93.666 E10.68318
G1 F1335.8 X115.386 Y93.936 E10.70989
G1 X116.018 Y94.371 E10.75031
G1 F1333.8 X116.617 Y94.827 E10.79003
G1 F1337.8 X117.009 Y95.154 E10.81689
G1 X117.405 Y95.508 E10.84483
G1 F1335.8 X118.133 Y96.234 E10.899
G1 F1333.8 X118.475 Y96.618 E10.92614
G1 F1331.8 X118.805 Y97.011 E10.95326
G1 F1333.8 X119.106 Y97.393 E10.97892
G1 F1335.8 X119.411 Y97.812 E11.00623
G1 F1331.8 X119.708 Y98.253 E11.03432
G1 F1333.8 X119.98 Y98.687 E11.06135
G1 F1331.8 X120.316 Y99.272 E11.097
G1 F1421.1 X120.793 Y99.478 E11.12274
G1 F1568.7 X122.985 Y99.478 E11.22109
G1 F1653.1 X125.177 Y99.479 E11.31442
