;FLAVOR:Marlin
;TIME:276.141
;Filament used:0.348212m
;Material Diameter:1.75
;Material Density:1.24
;Filament Cost:0.020771
;Filament Weight:1.038559
;Filament Length:0.348212
;Layer height:0.2
;MINX:2.416
;MINY:2.097
;MINZ:0.2
;MAXX:133.508
;MAXY:123.749
;MAXZ:20.401
;OuterWall Time:117.17
;InnerWall Time:87.4581
;Skin Time:6.12507
;Support Time:15.4251
;SkirtBrim Time:10.3958
;Infill Time:1.22929
;Support Infills Time:0
;Combing Time:10.8315
;Retraction Time:25.2729
;PrimeTower Time:2.23401
;;;;;;;;;;;;;;;;;;;;;;;;;;;;;;;;;;;;;;;;;;;;;;;;;;;;;;;;;;;
;Creality Print GCode Generated by CXEngine
;CRSLICE_GIT_HASH:58ee74d
;Creality Print Version : V4.3.8.6984
;CXEngine Release Time:2023-12-04 18:16:29
;Gcode Generated Time:2024-02-15 23:19:03
;----------Machine Config--------------
;Machine Name:Ender-3 V3 SE
;Machine Height:250
;Machine Width:220
;Machine Depth:220
;Material Type:PLA
;Material Name:CR-PLA_1.75
;Number of Extruders:1
;ExtruderParams[0] Nozzle Diameter:1000
;----------Profile Config---------------
;Wall Thickness:0.8
;Top/Bottom Thickness:0.8
;Out Wall Line Width:0.42
;Inner Wall Line Width:0.45
;Inital Height:200
;Wall Line Count:2
;Infill Line Distance:8
;Infill Pattern:grid
;Infill Sparse Density:10
;Infill Wipe Distance:0
;Print Temperature:190
;Bed Temperature:60
;Support Enable:false
;Support Density:15
;Support Angle:60
;Adhesion Type:autobrim
;machine is belt:false
;machine belt offset:10
;machine belt offset Y:0
;Raft Base Line Spacing:1.6
;Wait Heatup Sync:true
;Enable Ironing:false
;Material Type:PLA
;Max volumetric speed:20
;Preview Img Type:png
;Screen Size:Sermoon D3
;----------Shell Config----------------
;Outer Wall Wipe Distance:2000
;Outer Inset First:false
;Infill Before Walls:false
;Infill Overlap:0.09
;Fill Gaps Between Walls:everywhere
;Minimum Infill Area:30
;Top Surface Skin Layer:0
;Top Layers:4
;Z Seam Alignment:sharpest_corner
;Seam Corner Preference:z_seam_corner_inner
;Z Seam X:110
;Z Seam Y:220
;Horizontal Expansion:0
;Top/Bottom Pattern:zigzag
;Ironing Pattern:zigzag
;Vase Model:false
;----------Support Config----------------
;Support Type:everywhere
;Support Pattern:zigzag
;Support Infill Layer Thickness:0.2
;Minimum Support Area:1
;Enable Support Roof:true
;Support Roof Thickness:0.8
;Support Roof Pattern:lines
;Connect Support Lines:0
;Connect Support ZigZags:1
;Minimum Support X/Y Distance:0.2
;Support Line Distance:2.67
; ---------PrintSpeed & Travel----------
;Enable Print Cool:true
;Avoid Printed Parts Traveling:true
;Enable Retraction:true
;Retraction Distance:1.2
;Retraction Speed:30
;Retraction Prime Speed:30
;Maximum Retraction Count:100
;Minimum Extrusion Distance Window:0.8
;Z Hop When Retracted:true
;Z Hop Height:0.4
;Retract Before Outer Wall:true

;Outer Wall Speed:60
;Inner Wall Speed:90
;Infill Speed:180
;Top/Bottom Speed:50
;Travel Speed:150
;Initial Layer Speed:30
;Skirt/Brim Speed:25
;Prime Tower Speed:60
;Outer Wall Acceleration:1000
;Inner Wall Acceleration:2000
;Infill Acceleration:2500
;Top/Bottom Acceleration:2500
;Travel Acceleration:2500
;Initial Layer Print Acceleration:500
;Initial Layer Travel Acceleration:500
;Skirt/Brim Acceleration:500
;Combing Mode:off
; --------SpecialModel&Mesh Fixes--------
;Union Overlapping Volum:true
;Remove All Holes:false
;Maximum Travel Resolution:0.25
;Maximum Deviation:0.05
;Maximum Model Angle:0.872665
;IS Mold Print:false
;Make Overhang Printable:false
;Enable Coasting:false
;Coasting Volumes:0.064
;Coasting Speed:0.9
;Raft AirGap:0.25
;Layer0 ZOverLap:0.13
;Adaptive Layers:0
;---------------------End of Head--------------------------
M140 S60
M105
M190 S60
M104 S190
M82 ;absolute extrusion mode
M220 S100 ;Reset Feedrate
M221 S100 ;Reset Flowrate

G28 ;Home

G92 E0 ;Reset Extruder
G1 Z2.0 F3000 ;Move Z Axis up
G1 X-2.1 Y20 Z0.28 F5000.0 ;Move to start position
M109 S190.000000
G1 X-2.1 Y145.0 Z0.28 F1500.0 E15 ;Draw the first line
G1 X-2.4 Y145.0 Z0.28 F5000.0 ;Move to side a little
G1 X-2.4 Y20 Z0.28 F1500.0 E30 ;Draw the second line
G92 E0  ;Reset Extruder
G1 E-1.0000 F1800 ;Retract a bit
G1 Z2.0 F3000 ;Move Z Axis up
G1 E0.0000 F1800 

G92 E0
G92 E0
G1 F1800 E-1.2
;LAYER_COUNT:25

;LAYER:0
M106 S0
M204 S500
;;retract;;
G1 F1800 E0
G1 F1800 E-1.2
G0 F4800 X2.416 Y2.097 Z20.401
G0 X121 Y105.052 Z0.6
;TYPE:SKIRT
G1 F600 Z0.2
G1 F1800 E0
G1 F1500 X120.742 Y105.367 E0.01564
G1 X120.55 Y105.726 E0.03128
G1 X120.432 Y106.116 E0.04693
G1 X120.392 Y106.521 E0.06257
G1 X120.392 Y109.328 E0.1704
G1 X120.854 Y109.327 E0.18815
G1 X120.854 Y106.521 E0.29594
G1 X120.894 Y106.164 E0.30974
G1 X121.012 Y105.825 E0.32353
G1 X121.201 Y105.52 E0.33732
G1 X121.453 Y105.264 E0.35111
G1 X121.756 Y105.071 E0.36492
G1 X122.094 Y104.949 E0.37872
G1 X122.471 Y104.904 E0.39331
G1 X131.429 Y104.904 E0.73743
G1 X131.786 Y104.944 E0.75123
G1 X132.125 Y105.062 E0.76502
G1 X132.43 Y105.251 E0.7788
G1 X132.686 Y105.503 E0.7926
G1 X132.879 Y105.806 E0.8064
G1 X133.001 Y106.144 E0.82021
G1 X133.046 Y106.521 E0.83479
G1 X133.046 Y115.479 E1.17892
G1 X133.006 Y115.836 E1.19272
G1 X132.888 Y116.175 E1.20651
G1 X132.699 Y116.48 E1.22029
G1 X132.447 Y116.736 E1.23409
G1 X132.144 Y116.929 E1.24789
G1 X131.806 Y117.051 E1.2617
G1 X131.429 Y117.096 E1.27628
G1 X122.471 Y117.096 E1.62041
G1 X122.114 Y117.056 E1.63421
G1 X121.775 Y116.938 E1.648
G1 X121.47 Y116.749 E1.66178
G1 X121.214 Y116.497 E1.67558
G1 X121.021 Y116.194 E1.68938
G1 X120.899 Y115.856 E1.70319
G1 X120.854 Y115.479 E1.71777
G1 X120.854 Y110.672 E1.90244
G1 X120.392 Y110.672 E1.92018
G1 X120.392 Y115.479 E2.10485
G1 X120.432 Y115.886 E2.12056
G1 X120.551 Y116.276 E2.13622
G1 X120.743 Y116.635 E2.15186
G1 X121.002 Y116.95 E2.16753
G1 X121.317 Y117.208 E2.18317
G1 X121.676 Y117.4 E2.19881
G1 X122.066 Y117.518 E2.21446
G1 X122.471 Y117.558 E2.23009
G1 X131.429 Y117.558 E2.57422
G1 X131.836 Y117.518 E2.58993
G1 X132.226 Y117.399 E2.60559
G1 X132.585 Y117.207 E2.62123
G1 X132.9 Y116.948 E2.6369
G1 X133.158 Y116.633 E2.65254
G1 X133.35 Y116.274 E2.66818
G1 X133.468 Y115.884 E2.68383
G1 X133.508 Y115.479 E2.69947
G1 X133.508 Y106.521 E3.04359
G1 X133.468 Y106.114 E3.0593
G1 X133.349 Y105.724 E3.07497
G1 X133.157 Y105.365 E3.09061
G1 X132.898 Y105.05 E3.10627
G1 X132.583 Y104.792 E3.12192
G1 X132.224 Y104.6 E3.13756
G1 X131.834 Y104.482 E3.15321
G1 X131.429 Y104.442 E3.16884
G1 X122.471 Y104.442 E3.51297
G1 X122.064 Y104.482 E3.52868
G1 X121.674 Y104.601 E3.54434
G1 X121.315 Y104.793 E3.55998
G1 X121 Y105.052 E3.57565
G0 F4800 X121.658 Y105.7
G1 F1500 X121.473 Y105.94 E3.58729
G1 X121.356 Y106.22 E3.59895
G1 X121.316 Y106.521 E3.61061
G1 X121.316 Y115.479 E3.95474
G1 X121.353 Y115.769 E3.96597
G1 X121.467 Y116.05 E3.97762
G1 X121.65 Y116.292 E3.98927
G1 X121.89 Y116.477 E4.00091
G1 X122.17 Y116.594 E4.01257
G1 X122.471 Y116.634 E4.02424
G1 X131.429 Y116.634 E4.36836
G1 X131.719 Y116.597 E4.37959
G1 X132 Y116.483 E4.39124
G1 X132.242 Y116.3 E4.4029
G1 X132.427 Y116.06 E4.41454
G1 X132.544 Y115.78 E4.42619
G1 X132.584 Y115.479 E4.43786
G1 X132.584 Y106.521 E4.78199
G1 X132.547 Y106.231 E4.79322
G1 X132.433 Y105.95 E4.80487
G1 X132.25 Y105.708 E4.81652
G1 X132.01 Y105.523 E4.82816
G1 X131.73 Y105.406 E4.83982
G1 X131.429 Y105.366 E4.85148
G1 X122.471 Y105.366 E5.19561
G1 X122.181 Y105.403 E5.20684
G1 X121.9 Y105.517 E5.21849
G1 X121.658 Y105.7 E5.23014
G0 F4800 X121.992 Y105.977
G1 F1500 X121.778 Y106.362 E5.24707
G1 X121.778 Y115.587 E5.60145
G1 X121.927 Y115.958 E5.61681
G1 X122.312 Y116.172 E5.63373
G1 X131.537 Y116.172 E5.98811
G1 X131.908 Y116.023 E6.00347
G1 X132.122 Y115.638 E6.02039
G1 X132.122 Y106.413 E6.37477
G1 X131.973 Y106.042 E6.39013
G1 X131.588 Y105.828 E6.40705
G1 X122.363 Y105.828 E6.76144
G1 X121.992 Y105.977 E6.77679
G0 F4800 X122.471 Y106.521
G1 F1500 X122.471 Y115.479 E7.12092
G1 X131.429 Y115.479 E7.46505
G1 X131.429 Y106.521 E7.80917
G1 X122.471 Y106.521 E8.1533
G0 F4800 X122.24 Y106.424
G1 F1500 X122.24 Y115.546 E8.50372
G1 X122.374 Y115.71 E8.51186
G1 X131.496 Y115.71 E8.86228
G1 X131.66 Y115.576 E8.87042
G1 X131.66 Y106.454 E9.22085
G1 X131.526 Y106.29 E9.22898
G1 X122.404 Y106.29 E9.57941
G1 X122.24 Y106.424 E9.58754
;;retract move;;
G1 F3840 X122.24 Y108.424 E8.44754
G1 F1800 E8.38754
G0 F4800 X122.522 Y106.572 Z0.6
;TYPE:SUPPORT
G1 F600 Z0.2
G1 F1800 E9.58754
G1 X122.522 Y108.649 E9.65137
G1 X128.365 Y108.65 E9.83094
G1 X128.5 Y108.804 E9.83724
G1 X128.497 Y111.159 E9.90961
G1 X128.309 Y111.347 E9.91778
G1 X122.522 Y111.35 E10.09563
G1 X122.522 Y115.428 E10.22096
G1 X131.378 Y115.428 E10.49312
G1 X131.378 Y106.572 E10.76529
G1 X122.522 Y106.572 E11.03746
G0 F4800 X122.984 Y107.034
G1 F1800 X122.984 Y108.187 E11.07289
G1 X128.308 Y108.188 E11.23651
G1 X128.666 Y108.297 E11.24801
G1 X128.962 Y108.651 E11.26219
G1 X128.959 Y111.241 E11.34179
G1 X128.756 Y111.631 E11.3553
G1 X128.392 Y111.809 E11.36775
G1 X122.984 Y111.812 E11.53395
G1 X122.984 Y114.966 E11.63088
G1 X130.916 Y114.966 E11.87465
G1 X130.916 Y107.034 E12.11842
G1 X122.984 Y107.034 E12.36219
G0 F4800 X123.388 Y107.438
G1 F2403.5 X123.388 Y107.783 E12.37013
G1 F2376 X128.396 Y107.787 E12.48673
G1 F2182.7 X128.776 Y107.849 E12.49649
G1 F1911.7 X129.037 Y108.021 E12.50553
G1 F1800 X129.339 Y108.37 E12.51971
G1 X129.424 Y108.694 E12.53001
G1 X129.421 Y111.354 E12.61176
G1 X129.184 Y111.808 E12.6275
G1 X128.923 Y112.064 E12.63873
G1 X128.501 Y112.271 E12.65318
G1 X123.446 Y112.274 E12.80853
G1 X123.446 Y114.504 E12.87706
G1 X130.454 Y114.504 E13.09243
G1 X130.454 Y107.496 E13.30781
G1 F1911.7 X128.845 Y107.496 E13.35437
G1 F2182.7 X128.447 Y107.442 E13.36454
G1 F2376 X123.388 Y107.438 E13.48233
;;retract move;;
G1 F3840 X123.388 Y107.783 E12.91233
G1 X125.043 Y107.784 E12.34233
G1 F1800 E12.28233
G0 F4800 X124.329 Y110.903 Z0.6
G0 X123.908 Y112.736
G1 F600 Z0.2
G1 F1800 E13.48233
G1 X123.908 Y114.042 E13.52247
G1 X129.992 Y114.042 E13.70944
G1 X129.992 Y112.161 E13.76725
G1 F1747.1 X129.943 Y111.462 E13.78944
G1 X129.531 Y112.117 E13.81394
G1 F1800 X129.189 Y112.449 E13.82859
G1 X128.615 Y112.733 E13.84827
G1 X123.908 Y112.736 E13.99292
G0 F4800 X124.35 Y113.178
G1 F1970.6 X124.35 Y113.6 E14.00477
G1 F1966 X128.736 Y113.598 E14.12818
G1 F1739.7 X129.229 Y113.545 E14.14395
G1 F1563.2 X129.495 Y113.545 E14.15336
G1 X129.495 Y112.852 E14.17789
G1 X129.112 Y113.041 E14.193
G1 F1646.7 X128.734 Y113.176 E14.20649
G1 F1792.2 X126.542 Y113.177 E14.27414
G1 F1907.3 X124.35 Y113.178 E14.33772
;;retract move;;
G1 F3840 X124.35 Y113.6 E13.76772
G1 X125.928 Y113.6 E13.19772
G1 F1800 E13.13772
G0 F4800 X128.749 Y112.091 Z0.6
G0 X129.936 Y111.456
G1 F600 Z0.2
G1 F1800 E14.33772
G1 F481.3 X129.934 Y108.589 E14.44757
G0 F4800 X129.483 Y107.907
G1 F770 X129.686 Y108.142 E14.455
G1 F591 X129.934 Y108.589 E14.47095
G1 X130.043 Y108.172 E14.4844
G1 F770 X130.043 Y107.907 E14.49075
G1 X129.483 Y107.907 E14.50416
G0 F4800 X128.239 Y108.911
;TYPE:SUPPORT-INTERFACE
G1 F1800 X128.239 Y111.089 E14.58782
G1 X122.681 Y111.089 E14.80134
G1 X122.681 Y108.91 E14.88505
G1 X128.239 Y108.911 E15.09856
G1 X128.028 Y109.36
G1 X127.789 Y109.121 E15.11154
G0 F4800 X126.091 Y109.121
G1 F1800 X127.849 Y110.879 E15.20705
G0 F4800 X126.152 Y110.879
G1 F1800 X124.394 Y109.12 E15.30259
G0 F4800 X122.89 Y109.313
G1 F1800 X124.455 Y110.879 E15.38764
;;retract;;
G1 F1800 E14.18764
G0 F4800 X121.389 Y109.963 Z0.6
;MESH:0_0
G0 X119.685 Y109.453
;TYPE:WALL-OUTER
G1 F600 Z0.2
G1 F1800 E15.38764
G1 X119.886 Y109.559 E15.39593
G1 X120.798 Y109.558 E15.42921
G1 X120.798 Y110.441 E15.46144
G1 X119.887 Y110.441 E15.49468
G1 X119.682 Y110.585 E15.50383
G1 X119.66 Y110.929 E15.51641
G1 X119.589 Y111.679 E15.5439
G1 X119.526 Y112.117 E15.56005
G1 X119.384 Y112.893 E15.58884
G1 X119.283 Y113.33 E15.60521
G1 X119.162 Y113.773 E15.62197
G1 X118.958 Y114.426 E15.64693
G1 X118.684 Y115.162 E15.67559
G1 X118.404 Y115.808 E15.70129
G1 X118.08 Y116.456 E15.72773
G1 X117.854 Y116.864 E15.74475
G1 X117.608 Y117.276 E15.76226
G1 X117.348 Y117.676 E15.77967
G1 X117.058 Y118.09 E15.79812
G1 X116.784 Y118.455 E15.81478
G1 X116.482 Y118.828 E15.83229
G1 X116.167 Y119.19 E15.8498
G1 X115.843 Y119.539 E15.86718
G1 X115.493 Y119.888 E15.88522
G1 X115.15 Y120.208 E15.90234
G1 X114.789 Y120.523 E15.91983
G1 X114.419 Y120.823 E15.93721
G1 X114.032 Y121.113 E15.95486
G1 X113.64 Y121.389 E15.97235
G1 X113.238 Y121.65 E15.98985
G1 X112.83 Y121.894 E16.0072
G1 X112.429 Y122.116 E16.02392
G1 X111.765 Y122.45 E16.05105
G1 X111.335 Y122.642 E16.06823
G1 X110.626 Y122.918 E16.096
G1 X110.187 Y123.071 E16.11297
G1 X109.742 Y123.208 E16.12996
G1 X109.316 Y123.323 E16.14606
G1 X108.816 Y123.439 E16.16479
G1 X108.111 Y123.57 E16.19096
G1 X107.639 Y123.637 E16.20836
G1 X106.883 Y123.711 E16.23608
G1 X106.201 Y123.74 E16.261
G1 X105.724 Y123.74 E16.2784
G1 X104.988 Y123.708 E16.30529
G1 X104.27 Y123.639 E16.33161
G1 X103.832 Y123.576 E16.34776
G1 X103.373 Y123.499 E16.36475
G1 X102.604 Y123.328 E16.3935
G1 X102.163 Y123.209 E16.41017
G1 X101.492 Y122.999 E16.43583
G1 X100.788 Y122.734 E16.46328
G1 X100.142 Y122.454 E16.48897
G1 X99.506 Y122.136 E16.51492
G1 X99.084 Y121.902 E16.53253
G1 X98.672 Y121.656 E16.55005
G1 X98.271 Y121.396 E16.56749
G1 X97.876 Y121.119 E16.58509
G1 X97.493 Y120.831 E16.60258
G1 X97.121 Y120.531 E16.62002
G1 X96.749 Y120.208 E16.638
G1 X96.428 Y119.908 E16.65404
G1 X96.059 Y119.54 E16.67305
G1 X95.74 Y119.198 E16.69012
G1 X95.425 Y118.837 E16.70761
G1 X95.127 Y118.467 E16.72495
G1 X94.834 Y118.08 E16.74266
G1 X94.56 Y117.689 E16.76008
G1 X94.298 Y117.285 E16.77766
G1 X94.055 Y116.879 E16.79493
G1 X93.834 Y116.48 E16.81157
G1 X93.501 Y115.814 E16.83875
G1 X93.307 Y115.384 E16.85596
G1 X93.031 Y114.675 E16.88373
G1 X92.878 Y114.237 E16.90066
G1 X92.741 Y113.791 E16.91769
G1 X92.626 Y113.366 E16.93375
G1 X92.511 Y112.866 E16.95248
G1 X92.38 Y112.162 E16.97861
G1 X92.312 Y111.688 E16.99609
G1 X92.239 Y110.933 E17.02377
G1 X92.21 Y110.253 E17.04861
G1 X92.211 Y109.744 E17.06718
G1 X92.241 Y109.056 E17.09232
G1 X92.309 Y108.335 E17.11875
G1 X92.45 Y107.423 E17.15242
G1 X92.628 Y106.627 E17.18219
G1 X92.74 Y106.213 E17.19784
G1 X92.951 Y105.542 E17.22351
G1 X93.21 Y104.853 E17.25038
G1 X93.496 Y104.192 E17.27666
G1 X93.82 Y103.544 E17.3031
G1 X94.046 Y103.135 E17.32015
G1 X94.292 Y102.723 E17.33767
G1 X94.553 Y102.323 E17.3551
G1 X94.829 Y101.927 E17.37271
G1 X95.123 Y101.535 E17.39059
G1 X95.419 Y101.171 E17.40772
G1 X95.732 Y100.81 E17.42515
G1 X96.057 Y100.461 E17.44256
G1 X96.416 Y100.103 E17.46106
G1 X96.75 Y99.791 E17.47774
G1 X97.111 Y99.477 E17.4952
G1 X97.48 Y99.177 E17.51256
G1 X97.868 Y98.886 E17.53026
G1 X98.26 Y98.611 E17.54773
G1 X98.662 Y98.349 E17.56524
G1 X99.07 Y98.106 E17.58257
G1 X99.472 Y97.883 E17.59935
G1 X100.135 Y97.55 E17.62643
G1 X100.565 Y97.357 E17.64363
G1 X101.273 Y97.082 E17.67135
G1 X101.712 Y96.928 E17.68833
G1 X102.158 Y96.791 E17.70535
G1 X102.583 Y96.676 E17.72142
G1 X103.083 Y96.561 E17.74015
G1 X103.819 Y96.424 E17.76747
G1 X104.261 Y96.363 E17.78375
G1 X105.016 Y96.289 E17.81144
G1 X105.698 Y96.26 E17.83635
G1 X106.205 Y96.261 E17.85485
G1 X106.893 Y96.291 E17.87998
G1 X107.63 Y96.361 E17.907
G1 X108.067 Y96.423 E17.92311
G1 X108.526 Y96.501 E17.9401
G1 X109.294 Y96.672 E17.96881
G1 X109.737 Y96.791 E17.98555
G1 X110.408 Y97.001 E18.01121
G1 X111.067 Y97.248 E18.0369
G1 X111.758 Y97.546 E18.06436
G1 X112.406 Y97.87 E18.0908
G1 X112.813 Y98.096 E18.10779
G1 X113.227 Y98.343 E18.12538
G1 X113.628 Y98.604 E18.14284
G1 X114.022 Y98.879 E18.16038
G1 X114.404 Y99.166 E18.17782
G1 X114.778 Y99.468 E18.19536
G1 X115.14 Y99.782 E18.21285
G1 X115.488 Y100.107 E18.23023
G1 X115.838 Y100.457 E18.24829
G1 X116.157 Y100.799 E18.26536
G1 X116.488 Y101.179 E18.28375
G1 X116.772 Y101.53 E18.30023
G1 X117.063 Y101.917 E18.3179
G1 X117.338 Y102.309 E18.33537
G1 X117.599 Y102.71 E18.35283
G1 X117.844 Y103.119 E18.37023
G1 X118.067 Y103.522 E18.38704
G1 X118.399 Y104.185 E18.4141
G1 X118.598 Y104.628 E18.43182
G1 X118.868 Y105.324 E18.45907
G1 X119.021 Y105.762 E18.476
G1 X119.158 Y106.208 E18.49303
G1 X119.278 Y106.649 E18.50971
