;FLAVOR:Marlin
;TIME:827.557
;Filament used:0.931376m
;Material Diameter:1.75
;Material Density:1.24
;Filament Cost:0.055558
;Filament Weight:2.777875
;Filament Length:0.931376
;Layer height:0.2
;MINX:2.071
;MINY:2.439
;MINZ:0.2
;MAXX:126.869
;MAXY:131.903
;MAXZ:20.401
;OuterWall Time:179.694
;InnerWall Time:119.364
;Skin Time:107.984
;Support Time:172.55
;SkirtBrim Time:0
;Infill Time:23.2058
;Support Infills Time:0
;Combing Time:68.1744
;Retraction Time:148.804
;PrimeTower Time:7.77967
;;;;;;;;;;;;;;;;;;;;;;;;;;;;;;;;;;;;;;;;;;;;;;;;;;;;;;;;;;;;;;;;;
;Creality Print GCode Generated by CXEngine
;CRSLICE_GIT_HASH:58ee74d
;Creality Print Version : V4.3.8.6984
;CXEngine Release Time:2023-12-04 18:16:29
;Gcode Generated Time:2024-02-16 23:07:30
;----------Machine Config--------------
;Machine Name:Ender-3 V3 SE
;Machine Height:250
;Machine Width:220
;Machine Depth:220
;Material Type:PLA
;Material Name:CR-PLA_1.75
;Number of Extruders:1
;ExtruderParams[0] Nozzle Diameter:1000
;----------Profile Config---------------
;Wall Thickness:0.8
;Top/Bottom Thickness:0.8
;Out Wall Line Width:0.42
;Inner Wall Line Width:0.45
;Inital Height:200
;Wall Line Count:2
;Infill Line Distance:8
;Infill Pattern:grid
;Infill Sparse Density:10
;Infill Wipe Distance:0
;Print Temperature:190
;Bed Temperature:60
;Support Enable:false
;Support Density:15
;Support Angle:60
;Adhesion Type:autobrim
;machine is belt:false
;machine belt offset:10
;machine belt offset Y:0
;Raft Base Line Spacing:1.6
;Wait Heatup Sync:true
;Enable Ironing:false
;Material Type:PLA
;Max volumetric speed:20
;Preview Img Type:png
;Screen Size:Sermoon D3
;----------Shell Config----------------
;Outer Wall Wipe Distance:2000
;Outer Inset First:false
;Infill Before Walls:false
;Infill Overlap:0.09
;Fill Gaps Between Walls:everywhere
;Minimum Infill Area:30
;Top Surface Skin Layer:0
;Top Layers:4
;Z Seam Alignment:sharpest_corner
;Seam Corner Preference:z_seam_corner_inner
;Z Seam X:110
;Z Seam Y:220
;Horizontal Expansion:0
;Top/Bottom Pattern:zigzag
;Ironing Pattern:zigzag
;Vase Model:false
;----------Support Config----------------
;Support Type:everywhere
;Support Pattern:zigzag
;Support Infill Layer Thickness:0.2
;Minimum Support Area:1
;Enable Support Roof:true
;Support Roof Thickness:0.8
;Support Roof Pattern:lines
;Connect Support Lines:0
;Connect Support ZigZags:1
;Minimum Support X/Y Distance:0.2
;Support Line Distance:2.67
; ---------PrintSpeed & Travel----------
;Enable Print Cool:true
;Avoid Printed Parts Traveling:true
;Enable Retraction:true
;Retraction Distance:1.2
;Retraction Speed:30
;Retraction Prime Speed:30
;Maximum Retraction Count:100
;Minimum Extrusion Distance Window:0.8
;Z Hop When Retracted:true
;Z Hop Height:0.4
;Retract Before Outer Wall:true

;Outer Wall Speed:60
;Inner Wall Speed:90
;Infill Speed:180
;Top/Bottom Speed:50
;Travel Speed:150
;Initial Layer Speed:30
;Skirt/Brim Speed:25
;Prime Tower Speed:60
;Outer Wall Acceleration:1000
;Inner Wall Acceleration:2000
;Infill Acceleration:2500
;Top/Bottom Acceleration:2500
;Travel Acceleration:2500
;Initial Layer Print Acceleration:500
;Initial Layer Travel Acceleration:500
;Skirt/Brim Acceleration:500
;Combing Mode:off
; --------SpecialModel&Mesh Fixes--------
;Union Overlapping Volum:true
;Remove All Holes:false
;Maximum Travel Resolution:0.25
;Maximum Deviation:0.05
;Maximum Model Angle:0.872665
;IS Mold Print:false
;Make Overhang Printable:false
;Enable Coasting:false
;Coasting Volumes:0.064
;Coasting Speed:0.9
;Raft AirGap:0.25
;Layer0 ZOverLap:0.13
;Adaptive Layers:0
;---------------------End of Head--------------------------
M140 S60
M105
M190 S60
M104 S190
M82 ;absolute extrusion mode
M220 S100 ;Reset Feedrate
M221 S100 ;Reset Flowrate

G28 ;Home

G92 E0 ;Reset Extruder
G1 Z2.0 F3000 ;Move Z Axis up
G1 X-2.1 Y20 Z0.28 F5000.0 ;Move to start position
M109 S190.000000
G1 X-2.1 Y145.0 Z0.28 F1500.0 E15 ;Draw the first line
G1 X-2.4 Y145.0 Z0.28 F5000.0 ;Move to side a little
G1 X-2.4 Y20 Z0.28 F1500.0 E30 ;Draw the second line
G92 E0  ;Reset Extruder
G1 E-1.0000 F1800 ;Retract a bit
G1 Z2.0 F3000 ;Move Z Axis up
G1 E0.0000 F1800 

G92 E0
G92 E0
G1 F1800 E-1.2
;LAYER_COUNT:43

;LAYER:0
M106 S0
M204 S500
;;retract;;
G1 F1800 E0
G1 F1800 E-1.2
G0 F4800 X2.071 Y2.439 Z20.401
;MESH:0_0
G0 X101.082 Y119.02 Z0.6
;TYPE:WALL-OUTER
G1 F600 Z0.2
G1 F1800 E0
G1 X100.746 Y118.842 E0.01388
G1 X100.077 Y118.467 E0.04187
G1 X99.643 Y118.195 E0.06056
G1 X99.229 Y117.916 E0.07878
G1 X98.437 Y117.319 E0.11497
G1 X97.857 Y116.824 E0.1428
G1 X97.338 Y116.331 E0.16892
G1 X96.985 Y115.968 E0.1874
G1 X96.487 Y115.404 E0.21486
G1 X96.021 Y114.817 E0.24221
G1 X95.757 Y114.455 E0.25856
G1 X95.326 Y113.808 E0.28694
G1 X94.829 Y112.947 E0.32322
G1 X94.601 Y112.502 E0.34146
G1 X94.405 Y112.082 E0.35838
G1 X94.185 Y111.567 E0.37882
G1 X94.03 Y111.158 E0.39478
G1 X93.853 Y110.649 E0.41445
G1 X93.647 Y109.952 E0.44097
G1 X93.469 Y109.213 E0.46871
G1 X93.379 Y108.76 E0.48557
G1 X93.296 Y108.24 E0.50478
G1 X93.235 Y107.748 E0.52288
G1 X93.192 Y107.256 E0.5409
G1 X93.16 Y106.544 E0.56691
G1 X93.158 Y106 E0.58676
G1 X93.19 Y105.273 E0.61332
G1 X93.233 Y104.774 E0.6316
G1 X93.293 Y104.281 E0.64973
G1 X93.367 Y103.815 E0.66694
G1 X93.467 Y103.285 E0.68663
G1 X93.642 Y102.566 E0.71363
G1 X93.842 Y101.887 E0.73947
G1 X94.016 Y101.377 E0.75913
G1 X94.18 Y100.95 E0.77583
G1 X94.383 Y100.468 E0.79491
G1 X94.597 Y100.006 E0.81349
G1 X94.822 Y99.566 E0.83153
G1 X95.179 Y98.932 E0.85808
G1 X95.454 Y98.494 E0.87696
G1 X95.718 Y98.1 E0.89427
G1 X96.329 Y97.288 E0.93135
G1 X96.824 Y96.708 E0.95918
G1 X97.331 Y96.174 E0.98605
G1 X97.681 Y95.836 E1.00381
G1 X98.244 Y95.339 E1.03122
G1 X98.814 Y94.886 E1.05779
G1 X99.195 Y94.607 E1.07502
G1 X99.856 Y94.167 E1.104
G1 X100.703 Y93.679 E1.13967
G1 X101.145 Y93.453 E1.15779
G1 X101.609 Y93.236 E1.17648
G1 X102.083 Y93.035 E1.19527
G1 X102.491 Y92.88 E1.2112
G1 X103.019 Y92.697 E1.2316
G1 X103.698 Y92.497 E1.25743
G1 X104.436 Y92.319 E1.28513
G1 X104.906 Y92.226 E1.30262
G1 X105.408 Y92.147 E1.32116
G1 X105.901 Y92.085 E1.3393
G1 X106.411 Y92.041 E1.35798
G1 X107.137 Y92.009 E1.3845
G1 X107.63 Y92.009 E1.40249
G1 X108.377 Y92.04 E1.42978
G1 X108.889 Y92.084 E1.44853
G1 X109.383 Y92.145 E1.4667
G1 X109.834 Y92.217 E1.48336
G1 X110.365 Y92.319 E1.5031
G1 X111.085 Y92.493 E1.53013
G1 X111.787 Y92.7 E1.55684
G1 X112.259 Y92.862 E1.57505
G1 X112.718 Y93.037 E1.59298
G1 X113.181 Y93.233 E1.61133
G1 X113.629 Y93.44 E1.62934
G1 X114.085 Y93.673 E1.64803
G1 X114.738 Y94.042 E1.6754
G1 X115.18 Y94.321 E1.69447
G1 X115.541 Y94.562 E1.71031
G1 X116.362 Y95.18 E1.74782
G1 X116.924 Y95.658 E1.77474
G1 X117.461 Y96.168 E1.80177
G1 X117.814 Y96.531 E1.82025
G1 X118.295 Y97.076 E1.84678
G1 X118.768 Y97.67 E1.87449
G1 X119.055 Y98.062 E1.89222
G1 X119.63 Y98.93 E1.93022
G1 X119.755 Y99.002 E1.93548
G1 X126.848 Y99.002 E2.19434
G1 X126.848 Y113.498 E2.72336
G1 X119.664 Y113.498 E2.98554
G1 X119.369 Y113.968 E3.00579
G1 X119.088 Y114.391 E3.02433
G1 X118.47 Y115.212 E3.06183
G1 X117.978 Y115.788 E3.08947
G1 X117.482 Y116.311 E3.11578
G1 X117.119 Y116.664 E3.13426
G1 X116.538 Y117.176 E3.16252
G1 X115.967 Y117.629 E3.18912
G1 X115.604 Y117.893 E3.2055
G1 X114.991 Y118.301 E3.23237
G1 X114.735 Y118.46 E3.24337
G1 X114.093 Y118.823 E3.27029
G1 X113.744 Y119.006 E3.28467
G1 X113.648 Y119.155 E3.29114
G1 X113.648 Y127.998 E3.61386
G1 X110.152 Y127.998 E3.74144
G1 X110.152 Y118.39 E4.09208
G1 X110.408 Y118.331 E4.10167
G1 X111.246 Y118.091 E4.13348
G1 X111.656 Y117.95 E4.14931
G1 X112.058 Y117.793 E4.16506
G1 X112.46 Y117.624 E4.18097
G1 X113.044 Y117.344 E4.20461
G1 X113.619 Y117.034 E4.22845
G1 X113.994 Y116.81 E4.24439
G1 X114.547 Y116.445 E4.26857
G1 X114.893 Y116.19 E4.28426
G1 X115.406 Y115.782 E4.30818
G1 X115.887 Y115.356 E4.33163
G1 X116.207 Y115.047 E4.34786
G1 X116.5 Y114.745 E4.36322
G1 X116.794 Y114.419 E4.37924
G1 X117.073 Y114.085 E4.39512
G1 X117.341 Y113.743 E4.41098
G1 X117.598 Y113.39 E4.42691
G1 X117.84 Y113.032 E4.44268
G1 X118.18 Y112.477 E4.46643
G1 X118.389 Y112.099 E4.4822
G1 X118.68 Y111.516 E4.50598
G1 X118.941 Y110.915 E4.52989
G1 X119.098 Y110.508 E4.54581
G1 X119.239 Y110.101 E4.56153
G1 X119.365 Y109.685 E4.57739
G1 X119.478 Y109.264 E4.5933
G1 X119.576 Y108.841 E4.60915
G1 X119.661 Y108.415 E4.625
G1 X119.728 Y107.986 E4.64085
G1 X119.801 Y107.34 E4.66457
G1 X119.831 Y106.903 E4.68056
G1 X119.848 Y106.253 E4.70429
G1 X119.831 Y105.603 E4.72802
G1 X119.802 Y105.166 E4.744
G1 X119.761 Y104.763 E4.75878
G1 X119.661 Y104.091 E4.78358
G1 X119.578 Y103.662 E4.79952
G1 X119.48 Y103.241 E4.8153
G1 X119.366 Y102.823 E4.83111
G1 X119.241 Y102.404 E4.84707
G1 X119.1 Y101.993 E4.86293
G1 X118.776 Y101.193 E4.89442
G1 X118.495 Y100.606 E4.91817
G1 X118.185 Y100.031 E4.94201
G1 X117.843 Y99.473 E4.9659
G1 X117.591 Y99.101 E4.9823
G1 X117.342 Y98.761 E4.99768
G1 X116.94 Y98.251 E5.02138
G1 X116.506 Y97.762 E5.04524
G1 X116.198 Y97.443 E5.06142
G1 X115.895 Y97.149 E5.07683
G1 X115.571 Y96.858 E5.09272
G1 X115.235 Y96.577 E5.10871
G1 X114.893 Y96.308 E5.12459
G1 X114.544 Y96.055 E5.14032
G1 X114.182 Y95.81 E5.15627
G1 X113.629 Y95.472 E5.17992
G1 X113.251 Y95.261 E5.19572
G1 X112.666 Y94.969 E5.21958
G1 X112.067 Y94.709 E5.24341
G1 X111.659 Y94.551 E5.25938
G1 X111.251 Y94.411 E5.27512
G1 X110.835 Y94.284 E5.291
G1 X110.414 Y94.172 E5.30689
G1 X109.991 Y94.073 E5.32275
G1 X109.565 Y93.989 E5.33859
G1 X109.136 Y93.922 E5.35444
G1 X108.49 Y93.849 E5.37817
G1 X108.054 Y93.819 E5.39412
G1 X107.403 Y93.802 E5.41788
G1 X106.755 Y93.819 E5.44154
G1 X106.319 Y93.848 E5.45748
G1 X105.913 Y93.889 E5.47238
G1 X105.24 Y93.989 E5.49721
G1 X104.813 Y94.072 E5.51308
G1 X104.391 Y94.169 E5.52888
G1 X103.554 Y94.409 E5.56066
G1 X103.144 Y94.55 E5.57648
G1 X102.741 Y94.707 E5.59227
G1 X102.34 Y94.876 E5.60815
G1 X101.755 Y95.155 E5.6318
G1 X101.18 Y95.466 E5.65566
G1 X100.806 Y95.69 E5.67157
G1 X100.262 Y96.049 E5.69536
G1 X99.907 Y96.31 E5.71144
G1 X99.393 Y96.718 E5.73539
G1 X98.924 Y97.131 E5.75819
G1 X98.594 Y97.452 E5.77499
G1 X98.3 Y97.755 E5.7904
G1 X98.006 Y98.081 E5.80642
G1 X97.727 Y98.414 E5.82228
G1 X97.469 Y98.744 E5.83756
G1 X97.205 Y99.106 E5.85391
G1 X96.96 Y99.469 E5.8699
G1 X96.622 Y100.021 E5.89352
G1 X96.411 Y100.399 E5.90932
G1 X96.12 Y100.984 E5.93316
G1 X95.859 Y101.584 E5.95704
G1 X95.702 Y101.992 E5.973
G1 X95.562 Y102.396 E5.9886
G1 X95.434 Y102.815 E6.00459
G1 X95.322 Y103.236 E6.02049
G1 X95.223 Y103.659 E6.03634
G1 X95.139 Y104.083 E6.05212
G1 X95.072 Y104.514 E6.06803
G1 X94.999 Y105.159 E6.09172
G1 X94.969 Y105.597 E6.10775
G1 X94.954 Y106.028 E6.12348
G1 X94.954 Y106.475 E6.1398
G1 X94.969 Y106.897 E6.15521
G1 X94.998 Y107.331 E6.17108
G1 X95.039 Y107.736 E6.18594
G1 X95.139 Y108.409 E6.21077
G1 X95.222 Y108.837 E6.22668
G1 X95.319 Y109.259 E6.24248
G1 X95.433 Y109.676 E6.25826
G1 X95.559 Y110.096 E6.27426
G1 X95.7 Y110.506 E6.29008
G1 X95.857 Y110.909 E6.30587
G1 X96.024 Y111.308 E6.32165
G1 X96.305 Y111.895 E6.3454
G1 X96.615 Y112.468 E6.36918
G1 X96.841 Y112.846 E6.38525
G1 X97.199 Y113.388 E6.40896
G1 X97.459 Y113.743 E6.42502
G1 X97.863 Y114.252 E6.44873
G1 X98.292 Y114.737 E6.47236
G1 X98.602 Y115.056 E6.4886
G1 X98.904 Y115.349 E6.50395
G1 X99.228 Y115.641 E6.51987
G1 X99.563 Y115.922 E6.53583
G1 X99.914 Y116.196 E6.55208
G1 X100.254 Y116.443 E6.56741
G1 X100.619 Y116.69 E6.5835
G1 X101.17 Y117.029 E6.60711
G1 X101.549 Y117.239 E6.62292
G1 X102.133 Y117.53 E6.64673
G1 X102.732 Y117.791 E6.67058
G1 X103.141 Y117.948 E6.68657
G1 X103.549 Y118.089 E6.70232
G1 X103.965 Y118.216 E6.71819
G1 X104.386 Y118.328 E6.73409
G1 X104.809 Y118.426 E6.74994
G1 X105.234 Y118.511 E6.76576
G1 X105.664 Y118.578 E6.78164
G1 X106.309 Y118.651 E6.80533
G1 X106.648 Y118.672 E6.81772
G1 X106.648 Y127.998 E7.15807
G1 X101.152 Y127.998 E7.35865
G1 X101.152 Y119.148 E7.68163
G1 X101.082 Y119.02 E7.68695
G0 F4800 X101.63 Y119.069
;TYPE:WALL-INNER
G1 F1653.1 X101.415 Y118.552 E7.71079
G1 F1427.9 X100.951 Y118.313 E7.73652
G1 F1337.8 X100.349 Y117.972 E7.77292
G1 F1335.8 X99.98 Y117.74 E7.79588
G1 F1337.8 X99.572 Y117.466 E7.82174
G1 X98.797 Y116.885 E7.87269
G1 F1335.8 X98.241 Y116.41 E7.91122
G1 X97.727 Y115.922 E7.94857
G1 X97.399 Y115.584 E7.97338
G1 X96.925 Y115.048 E8.01108
G1 F1337.8 X96.478 Y114.484 E8.04894
G1 X96.213 Y114.123 E8.0725
G1 X95.738 Y113.407 E8.1177
G1 F1333.8 X95.321 Y112.669 E8.16243
G1 F1331.8 X95.105 Y112.245 E8.18758
G1 F1333.8 X94.917 Y111.845 E8.2109
G1 F1335.8 X94.713 Y111.366 E8.23833
G1 X94.557 Y110.958 E8.26135
G1 F1337.8 X94.381 Y110.452 E8.28953
G1 F1335.8 X94.188 Y109.793 E8.32571
G1 X94.013 Y109.064 E8.36521
G1 F1337.8 X93.926 Y108.614 E8.38933
G1 F1335.8 X93.854 Y108.152 E8.41396
G1 F1333.8 X93.795 Y107.68 E8.43906
G1 X93.755 Y107.209 E8.464
G1 F1335.8 X93.723 Y106.52 E8.50035
G1 X93.722 Y106.012 E8.52711
G1 X93.754 Y105.298 E8.56477
G1 F1333.8 X93.795 Y104.824 E8.58987
G1 X93.852 Y104.351 E8.61501
G1 F1337.8 X93.923 Y103.904 E8.63882
G1 F1335.8 X94.021 Y103.397 E8.66603
G1 X94.185 Y102.721 E8.70268
G1 X94.382 Y102.048 E8.73963
G1 X94.544 Y101.575 E8.76597
G1 X94.706 Y101.152 E8.78984
G1 X94.903 Y100.689 E8.81635
G1 F1333.8 X95.102 Y100.259 E8.84135
G1 X95.305 Y99.857 E8.86511
G1 X95.671 Y99.21 E8.90434
G1 X95.938 Y98.784 E8.93087
G1 F1335.8 X96.181 Y98.423 E8.9538
G1 X96.769 Y97.641 E9.00535
G1 X97.238 Y97.092 E9.04339
G1 X97.693 Y96.611 E9.07827
G1 X98.059 Y96.255 E9.10518
G1 X98.6 Y95.777 E9.14321
G1 X99.164 Y95.328 E9.1812
G1 F1337.8 X99.527 Y95.063 E9.20484
G1 X100.152 Y94.647 E9.24434
G1 F1333.8 X100.98 Y94.171 E9.29474
G1 F1329.9 X101.402 Y93.956 E9.3198
G1 F1333.8 X101.803 Y93.768 E9.34317
G1 F1335.8 X102.259 Y93.574 E9.36928
G1 F1337.8 X102.691 Y93.407 E9.39365
G1 X103.197 Y93.231 E9.42183
G1 F1335.8 X103.857 Y93.038 E9.45806
G1 X104.585 Y92.863 E9.49751
G1 F1337.8 X105.013 Y92.78 E9.52045
G1 F1335.8 X105.496 Y92.705 E9.5462
G1 F1333.8 X105.969 Y92.645 E9.57136
G1 F1335.8 X106.44 Y92.605 E9.59627
G1 X107.161 Y92.574 E9.63429
G1 X107.63 Y92.573 E9.659
G1 F1337.8 X108.352 Y92.604 E9.69702
G1 X108.824 Y92.646 E9.72195
G1 F1335.8 X109.267 Y92.698 E9.74545
G1 F1337.8 X109.744 Y92.773 E9.77085
G1 F1339.8 X110.238 Y92.869 E9.79729
G1 X110.939 Y93.038 E9.83517
G1 X111.626 Y93.24 E9.87278
G1 X112.075 Y93.395 E9.89773
G1 X112.499 Y93.557 E9.92158
G1 X113.205 Y93.864 E9.96202
G1 X113.818 Y94.169 E9.99799
G1 F1337.8 X114.448 Y94.527 E10.03611
G1 X114.816 Y94.757 E10.05894
G1 X115.226 Y95.03 E10.08485
G1 X116.016 Y95.626 E10.13691
G1 F1335.8 X116.557 Y96.088 E10.1744
G1 F1333.8 X117.073 Y96.577 E10.21191
G1 F1335.8 X117.385 Y96.899 E10.23553
G1 F1337.8 X117.872 Y97.449 E10.27418
G1 F1335.8 X118.331 Y98.028 E10.31311
G1 X118.586 Y98.377 E10.33588
G1 F1421.1 X119.214 Y99.322 E10.39208
G1 F1647 X119.7 Y99.48 E10.41392
G1 F1800 X126.37 Y99.48 E10.67473
G1 X126.37 Y113.02 E11.20416
G1 X119.792 Y113.02 E11.46137
G1 X119.528 Y113.07 E11.47188
G1 F1525.7 X119.191 Y113.188 E11.48835
G1 F1331.8 X118.891 Y113.668 E11.51826
G1 F1337.8 X118.619 Y114.076 E11.54406
G1 F1335.8 X118.024 Y114.866 E11.59617
G1 X117.564 Y115.404 E11.63346
G1 X117.098 Y115.896 E11.66917
G1 X116.75 Y116.235 E11.69476
G1 X116.229 Y116.697 E11.73145
G1 X115.668 Y117.145 E11.76928
G1 F1337.8 X115.271 Y117.437 E11.79521
G1 X114.68 Y117.83 E11.83254
G1 F1335.8 X114.441 Y117.978 E11.84736
G1 F1331.8 X113.815 Y118.33 E11.88531
G1 F1323.9 X113.413 Y118.543 E11.90949
G1 F1520.5 X113.299 Y118.786 E11.92192
G1 F1800 X113.17 Y119.072 E11.93419
G1 X113.17 Y127.52 E12.26452
G1 X110.63 Y127.52 E12.36383
G1 X110.631 Y118.766 E12.70613
G1 X111.383 Y118.549 E12.73673
G1 X111.811 Y118.402 E12.75443
G1 X112.232 Y118.238 E12.77209
G1 X112.676 Y118.05 E12.79095
G1 F1520.5 X113.07 Y117.963 E12.80962
G1 F1325.9 X113.31 Y117.842 E12.82389
G1 F1337.8 X113.887 Y117.529 E12.85843
G1 F1339.8 X114.288 Y117.292 E12.88289
G1 F1337.8 X114.879 Y116.9 E12.9202
G1 X115.226 Y116.645 E12.94286
G1 F1335.8 X115.758 Y116.223 E12.97864
G1 F1333.8 X116.261 Y115.779 E13.01404
G1 X116.599 Y115.453 E13.03882
G1 F1335.8 X116.904 Y115.137 E13.06196
