;FLAVOR:Marlin
;TIME:5469.56
;Filament used:9.26824m
;Material Diameter:1.75
;Material Density:1.24
;Filament Cost:0.552860
;Filament Weight:27.642988
;Filament Length:9.268241
;Layer height:0.2
;MINX:2.707
;MINY:1.705
;MINZ:0.2
;MAXX:162.579
;MAXY:144.655
;MAXZ:30.4
;OuterWall Time:1698.44
;InnerWall Time:1339.57
;Skin Time:1948.85
;Support Time:0
;SkirtBrim Time:19.5544
;Infill Time:12.9064
;Support Infills Time:0
;Combing Time:101.497
;Retraction Time:348.736
;PrimeTower Time:0
;;;;;;;;;;;;;;;;;;;;;;;;;;;;;;;;;;;;;;;;;;;;;;;;;;;;;;;;;;;;;;;;;;;;;;;;
;Creality Print GCode Generated by CXEngine
;CRSLICE_GIT_HASH:58ee74d
;Creality Print Version : V4.3.8.6984
;CXEngine Release Time:2023-12-04 18:16:29
;Gcode Generated Time:2024-06-25 17:11:13
;----------Machine Config--------------
;Machine Name:Ender-3 V3 SE
;Machine Height:250
;Machine Width:220
;Machine Depth:220
;Material Type:PLA
;Material Name:CR-PLA_1.75
;Number of Extruders:1
;ExtruderParams[0] Nozzle Diameter:1000
;----------Profile Config---------------
;Wall Thickness:0.8
;Top/Bottom Thickness:0.8
;Out Wall Line Width:0.42
;Inner Wall Line Width:0.45
;Inital Height:200
;Wall Line Count:2
;Infill Line Distance:18
;Infill Pattern:grid
;Infill Sparse Density:5
;Infill Wipe Distance:0
;Print Temperature:195
;Bed Temperature:60
;Support Enable:false
;Support Density:15
;Support Angle:60
;Adhesion Type:lace
;machine is belt:false
;machine belt offset:10
;machine belt offset Y:0
;Raft Base Line Spacing:1.6
;Wait Heatup Sync:true
;Enable Ironing:false
;Material Type:PLA
;Max volumetric speed:20
;Preview Img Type:png
;Screen Size:Sermoon D3
;----------Shell Config----------------
;Outer Wall Wipe Distance:2000
;Outer Inset First:false
;Infill Before Walls:false
;Infill Overlap:0.14
;Fill Gaps Between Walls:everywhere
;Minimum Infill Area:30
;Top Surface Skin Layer:0
;Top Layers:4
;Z Seam Alignment:sharpest_corner
;Seam Corner Preference:z_seam_corner_inner
;Z Seam X:110
;Z Seam Y:220
;Horizontal Expansion:0
;Top/Bottom Pattern:zigzag
;Ironing Pattern:zigzag
;Vase Model:false
;----------Support Config----------------
;Support Type:everywhere
;Support Pattern:zigzag
;Support Infill Layer Thickness:0.2
;Minimum Support Area:1
;Enable Support Roof:true
;Support Roof Thickness:0.8
;Support Roof Pattern:lines
;Connect Support Lines:0
;Connect Support ZigZags:1
;Minimum Support X/Y Distance:0.2
;Support Line Distance:2.67
; ---------PrintSpeed & Travel----------
;Enable Print Cool:true
;Avoid Printed Parts Traveling:true
;Enable Retraction:true
;Retraction Distance:1.2
;Retraction Speed:30
;Retraction Prime Speed:30
;Maximum Retraction Count:100
;Minimum Extrusion Distance Window:0.8
;Z Hop When Retracted:true
;Z Hop Height:0.4
;Retract Before Outer Wall:true

;Outer Wall Speed:60
;Inner Wall Speed:90
;Infill Speed:180
;Top/Bottom Speed:50
;Travel Speed:150
;Initial Layer Speed:20
;Skirt/Brim Speed:25
;Prime Tower Speed:60
;Outer Wall Acceleration:1000
;Inner Wall Acceleration:2000
;Infill Acceleration:2500
;Top/Bottom Acceleration:2500
;Travel Acceleration:2500
;Initial Layer Print Acceleration:500
;Initial Layer Travel Acceleration:500
;Skirt/Brim Acceleration:500
;Combing Mode:off
; --------SpecialModel&Mesh Fixes--------
;Union Overlapping Volum:true
;Remove All Holes:false
;Maximum Travel Resolution:0.25
;Maximum Deviation:0.05
;Maximum Model Angle:0.872665
;IS Mold Print:false
;Make Overhang Printable:false
;Enable Coasting:false
;Coasting Volumes:0.064
;Coasting Speed:0.9
;Raft AirGap:0.25
;Layer0 ZOverLap:0.13
;Adaptive Layers:0
;---------------------End of Head--------------------------
M140 S60
M105
M190 S60
M104 S195
M82 ;absolute extrusion mode
M220 S100 ;Reset Feedrate
M221 S100 ;Reset Flowrate

G28 ;Home

G92 E0 ;Reset Extruder
G1 Z2.0 F3000 ;Move Z Axis up
G1 X-2.1 Y20 Z0.28 F5000.0 ;Move to start position
M109 S195.000000
G1 X-2.1 Y145.0 Z0.28 F1500.0 E15 ;Draw the first line
G1 X-2.4 Y145.0 Z0.28 F5000.0 ;Move to side a little
G1 X-2.4 Y20 Z0.28 F1500.0 E30 ;Draw the second line
G92 E0  ;Reset Extruder
G1 E-1.0000 F1800 ;Retract a bit
G1 Z2.0 F3000 ;Move Z Axis up
G1 E0.0000 F1800 

G92 E0
G92 E0
G1 F1800 E-1.2
;LAYER_COUNT:150

;LAYER:0
M106 S0
M204 S500
;;retract;;
G1 F1800 E0
G1 F1800 E-1.2
G0 F4800 X2.707 Y1.705 Z20.401
G0 X94.872 Y59.742 Z0.6
;TYPE:SKIRT
G1 F600 Z0.2
G1 F1800 E0
G1 F1500 X94.69 Y60.072 E0.01448
G1 X94.517 Y60.506 E0.03243
G1 X94.428 Y60.974 E0.05073
G1 X94.405 Y61.35 E0.0652
G1 X94.434 Y61.816 E0.08313
G1 X94.551 Y62.277 E0.1014
G1 X94.69 Y62.627 E0.11587
G1 X94.966 Y63.128 E0.13784
G1 X94.437 Y63.196 E0.15833
G1 X94.072 Y63.289 E0.1728
G1 X93.636 Y63.462 E0.19082
G1 X93.236 Y63.715 E0.209
G1 X92.946 Y63.956 E0.22349
G1 X92.622 Y64.3 E0.24164
G1 X92.319 Y64.779 E0.26342
G1 X92.112 Y65.299 E0.28492
G1 X92.005 Y65.862 E0.30693
G1 X92.005 Y66.426 E0.3286
G1 X92.113 Y66.986 E0.35051
G1 X92.319 Y67.506 E0.37199
G1 X92.572 Y67.906 E0.39018
G1 X92.813 Y68.196 E0.40466
G1 X93.087 Y68.454 E0.41912
G1 X93.392 Y68.676 E0.43361
G1 X93.722 Y68.857 E0.44807
G1 X94.156 Y69.03 E0.46602
G1 X94.624 Y69.119 E0.48432
G1 X94.9 Y69.137 E0.49494
G1 X94.437 Y69.196 E0.51287
G1 X94.072 Y69.289 E0.52734
G1 X93.636 Y69.462 E0.54536
G1 X93.236 Y69.715 E0.56354
G1 X92.946 Y69.956 E0.57803
G1 X92.622 Y70.3 E0.59618
G1 X92.319 Y70.779 E0.61796
G1 X92.112 Y71.299 E0.63946
G1 X92.005 Y71.862 E0.66147
G1 X92.005 Y72.426 E0.68314
G1 X92.113 Y72.986 E0.70505
G1 X92.319 Y73.506 E0.72653
G1 X92.572 Y73.906 E0.74472
G1 X92.813 Y74.196 E0.7592
G1 X93.087 Y74.454 E0.77366
G1 X93.392 Y74.676 E0.78815
G1 X93.722 Y74.857 E0.80261
G1 X94.156 Y75.03 E0.82056
G1 X94.624 Y75.119 E0.83886
G1 X94.9 Y75.137 E0.84948
G1 X94.437 Y75.196 E0.86741
G1 X94.072 Y75.289 E0.88188
G1 X93.636 Y75.462 E0.8999
G1 X93.236 Y75.715 E0.91809
G1 X92.946 Y75.956 E0.93257
G1 X92.622 Y76.3 E0.95072
G1 X92.319 Y76.779 E0.9725
G1 X92.112 Y77.299 E0.994
G1 X92.005 Y77.862 E1.01601
G1 X92.005 Y78.426 E1.03768
G1 X92.113 Y78.986 E1.05959
G1 X92.319 Y79.506 E1.08108
G1 X92.572 Y79.906 E1.09926
G1 X92.813 Y80.196 E1.11374
G1 X93.087 Y80.454 E1.1282
G1 X93.392 Y80.676 E1.14269
G1 X93.722 Y80.857 E1.15715
G1 X94.156 Y81.03 E1.1751
G1 X94.624 Y81.119 E1.1934
G1 X94.9 Y81.137 E1.20402
G1 X94.437 Y81.196 E1.22195
G1 X94.072 Y81.289 E1.23642
G1 X93.636 Y81.462 E1.25444
G1 X93.236 Y81.715 E1.27263
G1 X92.946 Y81.956 E1.28711
G1 X92.622 Y82.3 E1.30526
G1 X92.319 Y82.779 E1.32704
G1 X92.112 Y83.299 E1.34854
G1 X92.005 Y83.862 E1.37055
G1 X92.005 Y84.426 E1.39222
G1 X92.113 Y84.986 E1.41413
G1 X92.319 Y85.506 E1.43562
G1 X92.572 Y85.906 E1.4538
G1 X92.813 Y86.196 E1.46828
G1 X93.087 Y86.454 E1.48274
G1 X93.392 Y86.676 E1.49723
G1 X93.722 Y86.857 E1.51169
G1 X94.156 Y87.03 E1.52964
G1 X94.624 Y87.119 E1.54794
G1 X94.9 Y87.137 E1.55856
G1 X94.437 Y87.196 E1.57649
G1 X94.072 Y87.289 E1.59096
G1 X93.636 Y87.462 E1.60898
G1 X93.236 Y87.715 E1.62717
G1 X92.946 Y87.956 E1.64165
G1 X92.622 Y88.3 E1.6598
G1 X92.319 Y88.779 E1.68158
G1 X92.112 Y89.299 E1.70308
G1 X92.005 Y89.862 E1.72509
G1 X92.005 Y90.426 E1.74676
G1 X92.113 Y90.986 E1.76867
G1 X92.319 Y91.506 E1.79016
G1 X92.572 Y91.906 E1.80834
G1 X92.813 Y92.196 E1.82282
G1 X93.087 Y92.454 E1.83728
G1 X93.392 Y92.676 E1.85177
G1 X93.722 Y92.857 E1.86623
G1 X94.156 Y93.03 E1.88418
G1 X94.624 Y93.119 E1.90248
G1 X94.9 Y93.137 E1.9131
G1 X94.437 Y93.196 E1.93104
G1 X94.072 Y93.289 E1.9455
G1 X93.636 Y93.462 E1.96352
G1 X93.236 Y93.715 E1.98171
G1 X92.946 Y93.956 E1.99619
G1 X92.622 Y94.3 E2.01434
G1 X92.319 Y94.779 E2.03612
G1 X92.112 Y95.299 E2.05762
G1 X92.005 Y95.862 E2.07963
G1 X92.005 Y96.426 E2.1013
G1 X92.113 Y96.986 E2.12321
G1 X92.319 Y97.506 E2.1447
G1 X92.572 Y97.906 E2.16288
G1 X92.813 Y98.196 E2.17736
G1 X93.087 Y98.454 E2.19182
G1 X93.392 Y98.676 E2.20631
G1 X93.722 Y98.857 E2.22077
G1 X94.156 Y99.03 E2.23872
G1 X94.624 Y99.119 E2.25702
G1 X95.008 Y99.143 E2.2718
G1 X95.012 Y99.609 E2.2897
G1 X94.661 Y99.631 E2.30321
G1 X94.291 Y99.702 E2.31769
G1 X93.843 Y99.847 E2.33577
G1 X93.43 Y100.075 E2.3539
G1 X93.125 Y100.296 E2.36837
G1 X92.85 Y100.554 E2.38285
G1 X92.61 Y100.844 E2.39731
G1 X92.408 Y101.163 E2.41182
G1 X92.248 Y101.503 E2.42625
G1 X92.102 Y101.951 E2.44435
G1 X92.043 Y102.419 E2.46248
G1 X92.043 Y102.796 E2.47696
G1 X92.102 Y103.265 E2.49512
G1 X92.248 Y103.712 E2.51318
G1 X92.408 Y104.053 E2.52765
G1 X92.61 Y104.371 E2.54212
G1 X92.913 Y104.738 E2.56041
G1 X93.274 Y105.035 E2.57836
G1 X93.592 Y105.237 E2.59284
G1 X93.933 Y105.397 E2.60731
G1 X94.291 Y105.514 E2.62178
G1 X94.661 Y105.584 E2.63624
G1 X95 Y105.607 E2.64929
G1 X95 Y105.936 E2.66193
G1 X94.342 Y106.019 E2.68741
G1 X93.895 Y106.165 E2.70547
G1 X93.47 Y106.364 E2.7235
G1 X93.087 Y106.642 E2.74168
G1 X92.813 Y106.9 E2.75614
G1 X92.572 Y107.191 E2.77066
G1 X92.319 Y107.591 E2.78884
G1 X92.113 Y108.111 E2.81032
G1 X92.005 Y108.671 E2.83223
G1 X92.005 Y109.237 E2.85398
G1 X92.113 Y109.797 E2.87588
G1 X92.319 Y110.317 E2.89737
G1 X92.572 Y110.717 E2.91555
G1 X92.813 Y111.008 E2.93007
G1 X93.087 Y111.266 E2.94453
G1 X93.47 Y111.544 E2.96271
G1 X93.895 Y111.743 E2.98073
G1 X94.342 Y111.889 E2.9988
G1 X94.857 Y111.954 E3.01874
G1 X94.342 Y112.019 E3.03868
G1 X93.895 Y112.165 E3.05674
G1 X93.47 Y112.364 E3.07477
G1 X93.087 Y112.642 E3.09295
G1 X92.813 Y112.9 E3.10741
G1 X92.572 Y113.191 E3.12193
G1 X92.319 Y113.591 E3.14011
G1 X92.113 Y114.111 E3.16159
G1 X92.005 Y114.671 E3.1835
G1 X92.005 Y115.237 E3.20525
G1 X92.113 Y115.797 E3.22715
G1 X92.319 Y116.317 E3.24864
G1 X92.572 Y116.717 E3.26682
G1 X92.813 Y117.008 E3.28134
G1 X93.087 Y117.266 E3.2958
G1 X93.47 Y117.544 E3.31398
G1 X93.895 Y117.743 E3.332
G1 X94.342 Y117.889 E3.35007
G1 X94.857 Y117.954 E3.37001
G1 X94.342 Y118.019 E3.38995
G1 X93.895 Y118.165 E3.40801
G1 X93.47 Y118.364 E3.42604
G1 X93.087 Y118.642 E3.44422
G1 X92.813 Y118.9 E3.45868
G1 X92.572 Y119.191 E3.4732
G1 X92.319 Y119.591 E3.49138
G1 X92.113 Y120.111 E3.51286
G1 X92.005 Y120.671 E3.53477
G1 X92.005 Y121.237 E3.55652
G1 X92.113 Y121.797 E3.57842
G1 X92.319 Y122.317 E3.59991
G1 X92.572 Y122.717 E3.61809
G1 X92.813 Y123.008 E3.63261
G1 X93.087 Y123.266 E3.64707
G1 X93.47 Y123.544 E3.66525
G1 X93.895 Y123.743 E3.68327
G1 X94.342 Y123.889 E3.70134
G1 X94.857 Y123.954 E3.72128
G1 X94.342 Y124.019 E3.74122
G1 X93.895 Y124.165 E3.75928
G1 X93.47 Y124.364 E3.77731
G1 X93.087 Y124.642 E3.79549
G1 X92.813 Y124.9 E3.80995
G1 X92.572 Y125.191 E3.82447
G1 X92.319 Y125.591 E3.84265
G1 X92.113 Y126.111 E3.86413
G1 X92.005 Y126.671 E3.88604
G1 X92.005 Y127.237 E3.90779
G1 X92.113 Y127.797 E3.92969
G1 X92.319 Y128.317 E3.95118
G1 X92.572 Y128.717 E3.96936
G1 X92.813 Y129.008 E3.98388
G1 X93.087 Y129.266 E3.99834
G1 X93.47 Y129.544 E4.01652
G1 X93.895 Y129.743 E4.03454
G1 X94.342 Y129.889 E4.05261
G1 X94.857 Y129.954 E4.07255
G1 X94.342 Y130.019 E4.09249
G1 X93.895 Y130.165 E4.11055
G1 X93.47 Y130.364 E4.12858
G1 X93.087 Y130.642 E4.14676
G1 X92.813 Y130.9 E4.16122
G1 X92.572 Y131.191 E4.17573
G1 X92.319 Y131.591 E4.19392
G1 X92.113 Y132.111 E4.2154
G1 X92.005 Y132.671 E4.23731
G1 X92.005 Y133.237 E4.25906
G1 X92.113 Y133.797 E4.28096
G1 X92.319 Y134.317 E4.30245
G1 X92.572 Y134.717 E4.32063
G1 X92.813 Y135.008 E4.33515
G1 X93.087 Y135.266 E4.34961
G1 X93.47 Y135.544 E4.36779
G1 X93.895 Y135.743 E4.38581
G1 X94.342 Y135.889 E4.40388
G1 X94.857 Y135.954 E4.42382
G1 X94.342 Y136.019 E4.44376
G1 X93.895 Y136.165 E4.46182
G1 X93.47 Y136.364 E4.47985
G1 X93.087 Y136.642 E4.49803
G1 X92.813 Y136.9 E4.51249
G1 X92.572 Y137.191 E4.527
G1 X92.319 Y137.591 E4.54519
G1 X92.113 Y138.111 E4.56667
G1 X92.005 Y138.671 E4.58858
G1 X92.005 Y139.237 E4.61033
G1 X92.113 Y139.797 E4.63223
G1 X92.319 Y140.317 E4.65372
G1 X92.572 Y140.717 E4.6719
G1 X92.813 Y141.008 E4.68642
G1 X93.087 Y141.266 E4.70088
G1 X93.47 Y141.544 E4.71906
G1 X93.895 Y141.743 E4.73708
G1 X94.342 Y141.889 E4.75515
G1 X94.811 Y141.948 E4.77331
G1 X95.188 Y141.948 E4.78779
G1 X95.657 Y141.889 E4.80595
G1 X96.104 Y141.743 E4.82401
G1 X96.313 Y141.65 E4.8328
G1 X96.593 Y141.65 E4.84356
G1 X96.622 Y142.117 E4.86153
G1 X96.739 Y142.576 E4.87973
G1 X96.878 Y142.927 E4.89423
G1 X97.06 Y143.257 E4.90871
G1 X97.334 Y143.635 E4.92664
G1 X97.68 Y143.961 E4.9449
G1 X97.985 Y144.182 E4.95937
G1 X98.315 Y144.364 E4.97385
G1 X98.666 Y144.503 E4.98835
G1 X99.126 Y144.62 E5.00659
G1 X99.593 Y144.649 E5.02456
G1 X99.969 Y144.626 E5.03903
G1 X100.436 Y144.536 E5.0573
G1 X100.87 Y144.364 E5.07524
G1 X101.2 Y144.182 E5.08971
G1 X101.505 Y143.961 E5.10418
G1 X101.78 Y143.703 E5.11867
G1 X102.02 Y143.413 E5.13313
G1 X102.222 Y143.095 E5.1476
G1 X102.423 Y142.667 E5.16577
G1 X102.539 Y142.212 E5.18381
G1 X102.599 Y141.746 E5.20185
G1 X102.616 Y142.025 E5.21259
G1 X102.705 Y142.491 E5.23082
G1 X102.878 Y142.927 E5.24884
G1 X103.106 Y143.341 E5.26699
G1 X103.406 Y143.703 E5.28505
G1 X103.68 Y143.961 E5.29951
G1 X103.985 Y144.182 E5.31398
G1 X104.399 Y144.41 E5.33214
G1 X104.847 Y144.555 E5.35023
G1 X105.217 Y144.626 E5.3647
G1 X105.593 Y144.649 E5.37917
G1 X105.969 Y144.626 E5.39364
G1 X106.339 Y144.555 E5.40812
G1 X106.787 Y144.41 E5.4262
G1 X107.2 Y144.182 E5.44433
G1 X107.505 Y143.961 E5.4588
G1 X107.78 Y143.703 E5.47328
G1 X108.02 Y143.413 E5.48774
G1 X108.222 Y143.094 E5.50225
G1 X108.382 Y142.754 E5.51668
G1 X108.498 Y142.395 E5.53118
G1 X108.569 Y142.025 E5.54565
G1 X108.593 Y141.65 E5.56008
G1 X108.616 Y142.025 E5.57452
G1 X108.706 Y142.492 E5.59279
G1 X108.878 Y142.926 E5.61072
G1 X109.06 Y143.256 E5.6252
G1 X109.336 Y143.637 E5.64327
G1 X109.68 Y143.961 E5.66143
G1 X110.063 Y144.239 E5.67961
G1 X110.488 Y144.438 E5.69763
G1 X110.937 Y144.584 E5.71577
G1 X111.404 Y144.643 E5.73385
G1 X111.781 Y144.643 E5.74834
G1 X112.25 Y144.584 E5.7665
G1 X112.697 Y144.438 E5.78456
G1 X113.122 Y144.239 E5.80259
G1 X113.505 Y143.961 E5.82077
G1 X113.78 Y143.703 E5.83525
G1 X114.02 Y143.412 E5.84974
G1 X114.222 Y143.094 E5.86422
G1 X114.382 Y142.753 E5.87869
G1 X114.498 Y142.395 E5.89314
G1 X114.569 Y142.025 E5.90762
G1 X114.593 Y141.649 E5.92209
G1 X114.616 Y142.025 E5.93656
G1 X114.706 Y142.492 E5.95483
G1 X114.878 Y142.926 E5.97276
G1 X115.06 Y143.256 E5.98724
G1 X115.281 Y143.561 E6.00171
G1 X115.539 Y143.836 E6.0162
G1 X115.829 Y144.076 E6.03066
G1 X116.147 Y144.278 E6.04513
G1 X116.488 Y144.438 E6.0596
G1 X116.937 Y144.584 E6.07774
G1 X117.404 Y144.643 E6.09582
G1 X117.781 Y144.643 E6.1103
G1 X118.25 Y144.584 E6.12846
G1 X118.697 Y144.438 E6.14653
G1 X119.038 Y144.278 E6.161
G1 X119.356 Y144.076 E6.17547
G1 X119.719 Y143.775 E6.19358
G1 X120.02 Y143.412 E6.2117
G1 X120.222 Y143.094 E6.22617
G1 X120.382 Y142.753 E6.24064
G1 X120.498 Y142.395 E6.2551
G1 X120.569 Y142.025 E6.26957
G1 X120.593 Y141.649 E6.28404
G1 X120.616 Y142.025 E6.29852
G1 X120.706 Y142.492 E6.31679
G1 X120.878 Y142.926 E6.33472
G1 X121.06 Y143.256 E6.3492
G1 X121.334 Y143.634 E6.36713
G1 X121.68 Y143.96 E6.38539
G1 X121.985 Y144.182 E6.39989
G1 X122.315 Y144.363 E6.41434
G1 X122.666 Y144.502 E6.42885
G1 X123.03 Y144.595 E6.44328
G1 X123.498 Y144.655 E6.46141
G1 X123.969 Y144.625 E6.47954
G1 X124.436 Y144.535 E6.49781
G1 X124.87 Y144.363 E6.51574
G1 X125.2 Y144.182 E6.5302
G1 X125.505 Y143.96 E6.54469
G1 X125.78 Y143.702 E6.55918
G1 X126.02 Y143.412 E6.57364
G1 X126.222 Y143.094 E6.58811
G1 X126.382 Y142.753 E6.60258
G1 X126.498 Y142.395 E6.61704
G1 X126.569 Y142.025 E6.63151
G1 X126.593 Y141.66 E6.64556
G1 X126.621 Y142.107 E6.66277
G1 X126.738 Y142.567 E6.681
G1 X126.877 Y142.917 E6.69547
G1 X127.059 Y143.247 E6.70994
G1 X127.333 Y143.625 E6.72788
G1 X127.749 Y144.017 E6.74984
G1 X128.228 Y144.32 E6.77161
G1 X128.75 Y144.527 E6.79318
G1 X129.31 Y144.634 E6.81508
G1 X129.875 Y144.634 E6.83679
G1 X130.435 Y144.526 E6.8587
G1 X130.955 Y144.32 E6.88018
G1 X131.433 Y144.018 E6.9019
G1 X131.779 Y143.693 E6.92014
G1 X132.019 Y143.403 E6.9346
G1 X132.221 Y143.085 E6.94907
G1 X132.422 Y142.657 E6.96724
G1 X132.539 Y142.202 E6.98529
G1 X132.591 Y141.784 E7.00147
G1 X132.657 Y142.307 E7.02172
G1 X132.803 Y142.754 E7.03978
G1 X132.963 Y143.095 E7.05425
G1 X133.165 Y143.413 E7.06873
