;FLAVOR:Marlin
;TIME:1933.06
;Filament used:2.31612m
;Material Diameter:1.75
;Material Density:1.24
;Filament Cost:0.138159
;Filament Weight:6.907936
;Filament Length:2.316118
;Layer height:0.2
;MINX:2.326
;MINY:2.196
;MINZ:0.2
;MAXX:127.973
;MAXY:131.629
;MAXZ:30.4
;OuterWall Time:642.866
;InnerWall Time:482.208
;Skin Time:259.225
;Support Time:335.613
;SkirtBrim Time:9.09343
;Infill Time:2.36182
;Support Infills Time:0
;Combing Time:41.0398
;Retraction Time:104.79
;PrimeTower Time:55.8595
;;;;;;;;;;;;;;;;;;;;;;;;;;;;;;;;;;;;;;;;;;;;;;;;;;;;;;;;;;;;;;
;Creality Print GCode Generated by CXEngine
;CRSLICE_GIT_HASH:58ee74d
;Creality Print Version : V4.3.8.6984
;CXEngine Release Time:2023-12-04 18:16:29
;Gcode Generated Time:2024-06-25 11:27:22
;----------Machine Config--------------
;Machine Name:Ender-3 V3 SE
;Machine Height:250
;Machine Width:220
;Machine Depth:220
;Material Type:PLA
;Material Name:CR-PLA_1.75
;Number of Extruders:1
;ExtruderParams[0] Nozzle Diameter:1000
;----------Profile Config---------------
;Wall Thickness:0.8
;Top/Bottom Thickness:0.8
;Out Wall Line Width:0.42
;Inner Wall Line Width:0.45
;Inital Height:200
;Wall Line Count:2
;Infill Line Distance:18
;Infill Pattern:grid
;Infill Sparse Density:5
;Infill Wipe Distance:0
;Print Temperature:195
;Bed Temperature:60
;Support Enable:false
;Support Density:15
;Support Angle:60
;Adhesion Type:lace
;machine is belt:false
;machine belt offset:10
;machine belt offset Y:0
;Raft Base Line Spacing:1.6
;Wait Heatup Sync:true
;Enable Ironing:false
;Material Type:PLA
;Max volumetric speed:20
;Preview Img Type:png
;Screen Size:Sermoon D3
;----------Shell Config----------------
;Outer Wall Wipe Distance:2000
;Outer Inset First:false
;Infill Before Walls:false
;Infill Overlap:0.14
;Fill Gaps Between Walls:everywhere
;Minimum Infill Area:30
;Top Surface Skin Layer:0
;Top Layers:4
;Z Seam Alignment:sharpest_corner
;Seam Corner Preference:z_seam_corner_inner
;Z Seam X:110
;Z Seam Y:220
;Horizontal Expansion:0
;Top/Bottom Pattern:zigzag
;Ironing Pattern:zigzag
;Vase Model:false
;----------Support Config----------------
;Support Type:everywhere
;Support Pattern:zigzag
;Support Infill Layer Thickness:0.2
;Minimum Support Area:1
;Enable Support Roof:true
;Support Roof Thickness:0.8
;Support Roof Pattern:lines
;Connect Support Lines:0
;Connect Support ZigZags:1
;Minimum Support X/Y Distance:0.2
;Support Line Distance:2.67
; ---------PrintSpeed & Travel----------
;Enable Print Cool:true
;Avoid Printed Parts Traveling:true
;Enable Retraction:true
;Retraction Distance:1.2
;Retraction Speed:30
;Retraction Prime Speed:30
;Maximum Retraction Count:100
;Minimum Extrusion Distance Window:0.8
;Z Hop When Retracted:true
;Z Hop Height:0.4
;Retract Before Outer Wall:true

;Outer Wall Speed:60
;Inner Wall Speed:90
;Infill Speed:180
;Top/Bottom Speed:50
;Travel Speed:150
;Initial Layer Speed:20
;Skirt/Brim Speed:25
;Prime Tower Speed:60
;Outer Wall Acceleration:1000
;Inner Wall Acceleration:2000
;Infill Acceleration:2500
;Top/Bottom Acceleration:2500
;Travel Acceleration:2500
;Initial Layer Print Acceleration:500
;Initial Layer Travel Acceleration:500
;Skirt/Brim Acceleration:500
;Combing Mode:off
; --------SpecialModel&Mesh Fixes--------
;Union Overlapping Volum:true
;Remove All Holes:false
;Maximum Travel Resolution:0.25
;Maximum Deviation:0.05
;Maximum Model Angle:0.872665
;IS Mold Print:false
;Make Overhang Printable:false
;Enable Coasting:false
;Coasting Volumes:0.064
;Coasting Speed:0.9
;Raft AirGap:0.25
;Layer0 ZOverLap:0.13
;Adaptive Layers:0
;---------------------End of Head--------------------------
M140 S60
M105
M190 S60
M104 S195
M82 ;absolute extrusion mode
M220 S100 ;Reset Feedrate
M221 S100 ;Reset Flowrate

G28 ;Home

G92 E0 ;Reset Extruder
G1 Z2.0 F3000 ;Move Z Axis up
G1 X-2.1 Y20 Z0.28 F5000.0 ;Move to start position
M109 S195.000000
G1 X-2.1 Y145.0 Z0.28 F1500.0 E15 ;Draw the first line
G1 X-2.4 Y145.0 Z0.28 F5000.0 ;Move to side a little
G1 X-2.4 Y20 Z0.28 F1500.0 E30 ;Draw the second line
G92 E0  ;Reset Extruder
G1 E-1.0000 F1800 ;Retract a bit
G1 Z2.0 F3000 ;Move Z Axis up
G1 E0.0000 F1800 

G92 E0
G92 E0
G1 F1800 E-1.2
;LAYER_COUNT:150

;LAYER:0
M106 S0
M204 S500
;;retract;;
G1 F1800 E0
G1 F1800 E-1.2
G0 F4800 X2.326 Y2.196 Z20.401
G0 X94.75 Y89.458 Z0.6
;TYPE:SKIRT
G1 F600 Z0.2
G1 F1800 E0
G1 F1500 X94.529 Y89.763 E0.01447
G1 X94.347 Y90.093 E0.02895
G1 X94.209 Y90.443 E0.0434
G1 X94.115 Y90.808 E0.05788
G1 X94.068 Y91.182 E0.07236
G1 X94.068 Y91.559 E0.08684
G1 X94.115 Y91.933 E0.10132
G1 X94.209 Y92.298 E0.1158
G1 X94.347 Y92.648 E0.13025
G1 X94.529 Y92.978 E0.14473
G1 X94.801 Y93.353 E0.16253
G1 X95.079 Y93.619 E0.17731
G1 X95.134 Y93.961 E0.19061
G1 X94.82 Y94.022 E0.2029
G1 X94.462 Y94.139 E0.21737
G1 X94.121 Y94.299 E0.23184
G1 X93.803 Y94.501 E0.24631
G1 X93.436 Y94.804 E0.2646
G1 X93.139 Y95.165 E0.28255
G1 X92.937 Y95.483 E0.29703
G1 X92.777 Y95.824 E0.3115
G1 X92.631 Y96.271 E0.32956
G1 X92.572 Y96.74 E0.34772
G1 X92.572 Y97.116 E0.36216
G1 X92.631 Y97.585 E0.38032
G1 X92.777 Y98.032 E0.39839
G1 X92.937 Y98.373 E0.41286
G1 X93.139 Y98.691 E0.42733
G1 X93.379 Y98.982 E0.44182
G1 X93.654 Y99.24 E0.45631
G1 X93.959 Y99.461 E0.47078
G1 X94.289 Y99.643 E0.48525
G1 X94.639 Y99.781 E0.49971
G1 X95.004 Y99.875 E0.51418
G1 X95.471 Y99.934 E0.53227
G1 X95.915 Y99.907 E0.54936
G1 X95.938 Y100.11 E0.5572
G1 X95.625 Y100.151 E0.56933
G1 X95.261 Y100.245 E0.58377
G1 X94.91 Y100.383 E0.59826
G1 X94.58 Y100.565 E0.61274
G1 X94.275 Y100.786 E0.62721
G1 X93.932 Y101.109 E0.64531
G1 X93.655 Y101.49 E0.6634
G1 X93.473 Y101.821 E0.67791
G1 X93.301 Y102.255 E0.69585
G1 X93.211 Y102.722 E0.71412
G1 X93.188 Y103.098 E0.72859
G1 X93.211 Y103.474 E0.74306
G1 X93.301 Y103.941 E0.76133
G1 X93.473 Y104.375 E0.77926
G1 X93.655 Y104.705 E0.79374
G1 X93.876 Y105.01 E0.80821
G1 X94.134 Y105.285 E0.8227
G1 X94.424 Y105.525 E0.83716
G1 X94.742 Y105.727 E0.85163
G1 X95.083 Y105.887 E0.8661
G1 X95.532 Y106.033 E0.88424
G1 X95.999 Y106.092 E0.90232
G1 X96.348 Y106.093 E0.91573
G1 X96.366 Y106.734 E0.94036
G1 X96.041 Y106.755 E0.95287
G1 X95.575 Y106.844 E0.9711
G1 X95.139 Y107.017 E0.98912
G1 X94.809 Y107.199 E1.00359
G1 X94.431 Y107.473 E1.02153
G1 X94.105 Y107.819 E1.03979
G1 X93.884 Y108.124 E1.05426
G1 X93.656 Y108.538 E1.07242
G1 X93.511 Y108.986 E1.0905
G1 X93.44 Y109.356 E1.10498
G1 X93.417 Y109.732 E1.11945
G1 X93.44 Y110.108 E1.13392
G1 X93.511 Y110.478 E1.14839
G1 X93.656 Y110.926 E1.16648
G1 X93.884 Y111.339 E1.1846
G1 X94.105 Y111.644 E1.19907
G1 X94.363 Y111.919 E1.21356
G1 X94.653 Y112.159 E1.22802
G1 X94.971 Y112.361 E1.24249
G1 X95.312 Y112.521 E1.25696
G1 X95.671 Y112.637 E1.27146
G1 X96.041 Y112.708 E1.28593
G1 X96.379 Y112.731 E1.29894
G1 X96.354 Y113.583 E1.33169
G1 X95.913 Y113.584 E1.34863
G1 X95.359 Y113.691 E1.3703
G1 X94.925 Y113.863 E1.38824
G1 X94.595 Y114.045 E1.40272
G1 X94.29 Y114.266 E1.41718
G1 X94.015 Y114.524 E1.43167
G1 X93.775 Y114.814 E1.44613
G1 X93.573 Y115.132 E1.4606
G1 X93.413 Y115.473 E1.47507
G1 X93.297 Y115.832 E1.48957
G1 X93.226 Y116.202 E1.50404
G1 X93.202 Y116.578 E1.51851
G1 X93.226 Y116.954 E1.53299
G1 X93.297 Y117.324 E1.54746
G1 X93.413 Y117.682 E1.56192
G1 X93.573 Y118.023 E1.57639
G1 X93.775 Y118.341 E1.59086
G1 X94.076 Y118.704 E1.60897
G1 X94.439 Y119.005 E1.62709
G1 X94.757 Y119.207 E1.64156
G1 X95.185 Y119.408 E1.65973
G1 X95.64 Y119.525 E1.67777
G1 X95.963 Y119.567 E1.69029
G1 X95.939 Y119.844 E1.70097
G1 X95.502 Y119.817 E1.71779
G1 X94.94 Y119.888 E1.73955
G1 X94.492 Y120.034 E1.75765
G1 X94.151 Y120.194 E1.77212
G1 X93.833 Y120.396 E1.78659
G1 X93.543 Y120.636 E1.80105
G1 X93.285 Y120.911 E1.81554
G1 X93.064 Y121.216 E1.83001
G1 X92.836 Y121.629 E1.84813
G1 X92.691 Y122.077 E1.86622
G1 X92.62 Y122.447 E1.88069
G1 X92.597 Y122.823 E1.89516
G1 X92.62 Y123.199 E1.90963
G1 X92.691 Y123.569 E1.92411
G1 X92.836 Y124.016 E1.94216
G1 X93.064 Y124.431 E1.96035
G1 X93.341 Y124.812 E1.97845
G1 X93.684 Y125.135 E1.99655
G1 X93.989 Y125.356 E2.01101
G1 X94.319 Y125.538 E2.02549
G1 X94.759 Y125.711 E2.04365
G1 X95.169 Y125.791 E2.0597
G1 X95.096 Y126.26 E2.07794
G1 X94.667 Y126.716 E2.10199
G1 X94.446 Y127.021 E2.11646
G1 X94.218 Y127.434 E2.13458
G1 X94.073 Y127.882 E2.15267
G1 X94.002 Y128.252 E2.16714
G1 X93.979 Y128.629 E2.18165
G1 X94.002 Y129.005 E2.19612
G1 X94.073 Y129.375 E2.21059
G1 X94.218 Y129.823 E2.22868
G1 X94.446 Y130.236 E2.24681
G1 X94.72 Y130.614 E2.26474
G1 X95.136 Y131.006 E2.2867
G1 X95.615 Y131.309 E2.30847
G1 X96.137 Y131.516 E2.33004
G1 X96.603 Y131.605 E2.34827
G1 X96.979 Y131.629 E2.36274
G1 X97.355 Y131.605 E2.37722
G1 X97.822 Y131.515 E2.39549
G1 X98.342 Y131.309 E2.41697
G1 X98.82 Y131.007 E2.43869
G1 X99.166 Y130.682 E2.45693
G1 X99.406 Y130.392 E2.47139
G1 X99.608 Y130.074 E2.48586
G1 X99.809 Y129.646 E2.50403
G1 X99.926 Y129.191 E2.52208
G1 X99.985 Y128.723 E2.5402
G1 X100.002 Y129.005 E2.55105
G1 X100.073 Y129.375 E2.56552
G1 X100.218 Y129.823 E2.58361
G1 X100.446 Y130.236 E2.60173
G1 X100.72 Y130.614 E2.61967
G1 X101.136 Y131.006 E2.64163
G1 X101.615 Y131.309 E2.6634
G1 X102.137 Y131.516 E2.68497
G1 X102.603 Y131.605 E2.7032
G1 X102.979 Y131.629 E2.71767
G1 X103.355 Y131.605 E2.73214
G1 X103.822 Y131.515 E2.75041
G1 X104.342 Y131.309 E2.7719
G1 X104.82 Y131.007 E2.79362
G1 X105.166 Y130.682 E2.81186
G1 X105.406 Y130.392 E2.82632
G1 X105.608 Y130.074 E2.84079
G1 X105.809 Y129.646 E2.85896
G1 X105.926 Y129.191 E2.877
G1 X105.985 Y128.723 E2.89512
G1 X106.002 Y129.005 E2.90598
G1 X106.073 Y129.375 E2.92045
G1 X106.218 Y129.823 E2.93854
G1 X106.446 Y130.236 E2.95666
G1 X106.72 Y130.614 E2.9746
G1 X107.136 Y131.006 E2.99655
G1 X107.615 Y131.309 E3.01833
G1 X108.137 Y131.516 E3.0399
G1 X108.603 Y131.605 E3.05812
G1 X108.979 Y131.629 E3.0726
G1 X109.355 Y131.605 E3.08707
G1 X109.822 Y131.515 E3.10534
G1 X110.342 Y131.309 E3.12683
G1 X110.82 Y131.007 E3.14855
G1 X111.166 Y130.682 E3.16678
G1 X111.406 Y130.392 E3.18125
G1 X111.608 Y130.074 E3.19572
G1 X111.809 Y129.646 E3.21388
G1 X111.926 Y129.191 E3.23193
G1 X111.985 Y128.723 E3.25005
G1 X112.002 Y129.005 E3.2609
G1 X112.073 Y129.375 E3.27538
G1 X112.218 Y129.823 E3.29347
G1 X112.446 Y130.236 E3.31159
G1 X112.72 Y130.614 E3.32952
G1 X113.136 Y131.006 E3.35148
G1 X113.615 Y131.309 E3.37325
G1 X114.137 Y131.516 E3.39483
G1 X114.603 Y131.605 E3.41305
G1 X114.979 Y131.629 E3.42753
G1 X115.355 Y131.605 E3.442
G1 X115.822 Y131.515 E3.46027
G1 X116.342 Y131.309 E3.48176
G1 X116.82 Y131.007 E3.50348
G1 X117.166 Y130.682 E3.52171
G1 X117.406 Y130.392 E3.53617
G1 X117.608 Y130.074 E3.55065
G1 X117.809 Y129.646 E3.56881
G1 X117.926 Y129.191 E3.58686
G1 X117.985 Y128.723 E3.60498
G1 X118.002 Y129.005 E3.61583
G1 X118.073 Y129.375 E3.6303
G1 X118.218 Y129.823 E3.64839
G1 X118.446 Y130.236 E3.66652
G1 X118.72 Y130.614 E3.68445
G1 X119.136 Y131.006 E3.70641
G1 X119.615 Y131.309 E3.72818
G1 X120.137 Y131.516 E3.74975
G1 X120.603 Y131.605 E3.76798
G1 X120.979 Y131.629 E3.78245
G1 X121.355 Y131.605 E3.79693
G1 X121.822 Y131.515 E3.8152
G1 X122.342 Y131.309 E3.83668
G1 X122.82 Y131.007 E3.8584
G1 X123.166 Y130.682 E3.87664
G1 X123.406 Y130.392 E3.8911
G1 X123.608 Y130.074 E3.90557
G1 X123.809 Y129.646 E3.92374
G1 X123.926 Y129.191 E3.94178
G1 X123.993 Y128.66 E3.96235
G1 X124.697 Y128.795 E3.98988
G1 X125.167 Y128.795 E4.00794
G1 X125.541 Y128.747 E4.02242
G1 X125.906 Y128.654 E4.03689
G1 X126.342 Y128.481 E4.05491
G1 X126.742 Y128.228 E4.07309
G1 X127.032 Y127.987 E4.08758
G1 X127.356 Y127.643 E4.10573
G1 X127.659 Y127.164 E4.12751
G1 X127.865 Y126.644 E4.14899
G1 X127.973 Y126.084 E4.1709
G1 X127.973 Y125.612 E4.18903
G1 X127.925 Y125.238 E4.20352
G1 X127.832 Y124.873 E4.21799
G1 X127.659 Y124.437 E4.23601
G1 X127.406 Y124.037 E4.25419
G1 X127.165 Y123.747 E4.26868
G1 X126.821 Y123.423 E4.28683
G1 X126.342 Y123.12 E4.3086
G1 X125.822 Y122.913 E4.3301
G1 X125.256 Y122.805 E4.35224
G1 X124.758 Y122.809 E4.37137
G1 X124.725 Y122.342 E4.38935
G1 X125.124 Y122.294 E4.40479
G1 X125.581 Y122.176 E4.42292
G1 X126.008 Y121.976 E4.44104
G1 X126.326 Y121.774 E4.45551
G1 X126.616 Y121.534 E4.46997
G1 X126.874 Y121.259 E4.48446
G1 X127.095 Y120.954 E4.49893
G1 X127.323 Y120.541 E4.51705
G1 X127.468 Y120.093 E4.53514
G1 X127.539 Y119.723 E4.54961
G1 X127.562 Y119.347 E4.56408
G1 X127.539 Y118.971 E4.57855
G1 X127.468 Y118.601 E4.59303
G1 X127.323 Y118.153 E4.61112
G1 X127.095 Y117.739 E4.62927
G1 X126.821 Y117.361 E4.64721
G1 X126.475 Y117.035 E4.66547
G1 X126.17 Y116.814 E4.67994
G1 X125.756 Y116.586 E4.69809
G1 X125.308 Y116.441 E4.71618
G1 X124.858 Y116.355 E4.73378
G1 X124.491 Y116.349 E4.74788
G1 X124.483 Y115.756 E4.77067
G1 X124.854 Y115.733 E4.78495
G1 X125.225 Y115.662 E4.79946
G1 X125.673 Y115.517 E4.81755
G1 X126.086 Y115.289 E4.83567
G1 X126.464 Y115.015 E4.8536
G1 X126.79 Y114.669 E4.87187
G1 X127.011 Y114.364 E4.88633
G1 X127.193 Y114.034 E4.90081
G1 X127.366 Y113.598 E4.91883
G1 X127.455 Y113.132 E4.93706
G1 X127.479 Y112.756 E4.95153
G1 X127.455 Y112.38 E4.966
G1 X127.365 Y111.913 E4.98427
G1 X127.159 Y111.393 E5.00576
G1 X126.857 Y110.915 E5.02748
G1 X126.532 Y110.569 E5.04572
G1 X126.242 Y110.329 E5.06018
G1 X125.924 Y110.127 E5.07465
G1 X125.583 Y109.967 E5.08912
G1 X125.136 Y109.821 E5.10718
G1 X124.573 Y109.75 E5.12898
G1 X124.854 Y109.733 E5.1398
G1 X125.225 Y109.662 E5.15431
G1 X125.673 Y109.517 E5.1724
G1 X126.086 Y109.289 E5.19052
G1 X126.464 Y109.015 E5.20845
G1 X126.79 Y108.669 E5.22672
G1 X127.011 Y108.364 E5.24119
G1 X127.193 Y108.034 E5.25566
G1 X127.366 Y107.598 E5.27368
G1 X127.455 Y107.132 E5.29191
G1 X127.479 Y106.756 E5.30638
G1 X127.455 Y106.38 E5.32086
G1 X127.365 Y105.913 E5.33913
G1 X127.159 Y105.393 E5.36061
G1 X126.857 Y104.915 E5.38233
G1 X126.532 Y104.569 E5.40057
G1 X126.242 Y104.329 E5.41503
G1 X125.924 Y104.127 E5.4295
G1 X125.583 Y103.967 E5.44397
G1 X125.136 Y103.821 E5.46204
G1 X124.493 Y103.74 E5.48693
G1 X124.501 Y103.372 E5.50107
G1 X124.852 Y103.368 E5.51456
G1 X125.407 Y103.261 E5.53627
G1 X125.841 Y103.089 E5.5542
G1 X126.171 Y102.907 E5.56868
G1 X126.476 Y102.686 E5.58315
G1 X126.751 Y102.428 E5.59764
G1 X126.991 Y102.138 E5.6121
G1 X127.193 Y101.82 E5.62657
G1 X127.353 Y101.479 E5.64104
G1 X127.499 Y101.03 E5.65918
G1 X127.558 Y100.563 E5.67726
G1 X127.558 Y100.186 E5.69174
G1 X127.499 Y99.717 E5.7099
G1 X127.353 Y99.27 E5.72797
G1 X127.193 Y98.929 E5.74244
G1 X126.991 Y98.611 E5.75691
G1 X126.751 Y98.321 E5.77137
G1 X126.476 Y98.063 E5.78585
G1 X126.171 Y97.841 E5.80035
G1 X125.841 Y97.66 E5.81481
G1 X125.407 Y97.488 E5.83274
G1 X124.729 Y97.357 E5.85927
G1 X124.734 Y97.295 E5.86166
G1 X125.103 Y97.295 E5.87583
G1 X125.477 Y97.248 E5.89031
G1 X125.932 Y97.131 E5.90836
G1 X126.36 Y96.93 E5.92652
G1 X126.678 Y96.728 E5.941
G1 X126.969 Y96.488 E5.95549
G1 X127.227 Y96.213 E5.96997
G1 X127.448 Y95.908 E5.98444
G1 X127.63 Y95.578 E5.99892
G1 X127.768 Y95.228 E6.01337
G1 X127.862 Y94.863 E6.02785
G1 X127.909 Y94.489 E6.04233
G1 X127.909 Y94.112 E6.05681
G1 X127.862 Y93.739 E6.07126
G1 X127.768 Y93.374 E6.08574
G1 X127.63 Y93.023 E6.10022
G1 X127.448 Y92.693 E6.1147
G1 X127.227 Y92.388 E6.12917
G1 X126.904 Y92.045 E6.14727
G1 X126.523 Y91.768 E6.16537
G1 X126.192 Y91.586 E6.17988
G1 X125.758 Y91.414 E6.19781
G1 X125.291 Y91.324 E6.21608
G1 X124.915 Y91.301 E6.23055
G1 X124.539 Y91.324 E6.24502
G1 X124.084 Y91.405 E6.26278
G1 X123.997 Y90.713 E6.28957
G1 X123.851 Y90.266 E6.30763
G1 X123.691 Y89.925 E6.3221
G1 X123.489 Y89.607 E6.33658
G1 X123.189 Y89.244 E6.35467
G1 X122.825 Y88.943 E6.37281
G1 X122.425 Y88.69 E6.39099
G1 X121.905 Y88.484 E6.41248
G1 X121.345 Y88.376 E6.43439
G1 X120.779 Y88.376 E6.45613
G1 X120.219 Y88.484 E6.47804
G1 X119.785 Y88.656 E6.49598
G1 X119.37 Y88.884 E6.51417
G1 X119.008 Y89.184 E6.53223
G1 X118.75 Y89.458 E6.54668
G1 X118.529 Y89.763 E6.56115
G1 X118.347 Y90.093 E6.57563
G1 X118.209 Y90.443 E6.59008
G1 X118.115 Y90.808 E6.60456
G1 X118.062 Y91.228 E6.62082
G1 X117.997 Y90.713 E6.64077
G1 X117.851 Y90.266 E6.65883
G1 X117.691 Y89.925 E6.6733
G1 X117.489 Y89.607 E6.68777
