;FLAVOR:Marlin
;TIME:5537.58
;Filament used:8.4622m
;Material Diameter:1.75
;Material Density:1.24
;Filament Cost:0.504779
;Filament Weight:25.238935
;Filament Length:8.462201
;Layer height:0.2
;MINX:2.51
;MINY:1.983
;MINZ:0.2
;MAXX:146.32
;MAXY:192.18
;MAXZ:20.401
;OuterWall Time:839.33
;InnerWall Time:657.48
;Skin Time:3656.06
;Support Time:0
;SkirtBrim Time:26.784
;Infill Time:16.5405
;Support Infills Time:0
;Combing Time:74.3242
;Retraction Time:267.056
;PrimeTower Time:0

;;;;;;;;;;;;;;;;;;;;;;;;;;;;;;;;;;;;;;;;;;;;;;;;;;;;;;;;;;;;;;;;;;;;;;;;;;;;
;Creality Print GCode Generated by CXEngine
;CRSLICE_GIT_HASH:58ee74d
;Creality Print Version : V4.3.8.6984
;CXEngine Release Time:2023-12-04 18:16:29
;Gcode Generated Time:2024-06-25 22:43:45
;----------Machine Config--------------
;Machine Name:Ender-3 V3 SE
;Machine Height:250
;Machine Width:220
;Machine Depth:220
;Material Type:PLA
;Material Name:CR-PLA_1.75
;Number of Extruders:1
;ExtruderParams[0] Nozzle Diameter:1000
;----------Profile Config---------------
;Wall Thickness:0.8
;Top/Bottom Thickness:0.8
;Out Wall Line Width:0.42
;Inner Wall Line Width:0.45
;Inital Height:200
;Wall Line Count:2
;Infill Line Distance:18
;Infill Pattern:grid
;Infill Sparse Density:5
;Infill Wipe Distance:0
;Print Temperature:195
;Bed Temperature:60
;Support Enable:false
;Support Density:15
;Support Angle:60
;Adhesion Type:lace
;machine is belt:false
;machine belt offset:10
;machine belt offset Y:0
;Raft Base Line Spacing:1.6
;Wait Heatup Sync:true
;Enable Ironing:false
;Material Type:PLA
;Max volumetric speed:20
;Preview Img Type:png
;Screen Size:Sermoon D3
;----------Shell Config----------------
;Outer Wall Wipe Distance:2000
;Outer Inset First:false
;Infill Before Walls:false
;Infill Overlap:0.14
;Fill Gaps Between Walls:everywhere
;Minimum Infill Area:30
;Top Surface Skin Layer:0
;Top Layers:4
;Z Seam Alignment:sharpest_corner
;Seam Corner Preference:z_seam_corner_inner
;Z Seam X:110
;Z Seam Y:220
;Horizontal Expansion:0
;Top/Bottom Pattern:zigzag
;Ironing Pattern:zigzag
;Vase Model:false
;----------Support Config----------------
;Support Type:everywhere
;Support Pattern:zigzag
;Support Infill Layer Thickness:0.2
;Minimum Support Area:1
;Enable Support Roof:true
;Support Roof Thickness:0.8
;Support Roof Pattern:lines
;Connect Support Lines:0
;Connect Support ZigZags:1
;Minimum Support X/Y Distance:0.2
;Support Line Distance:2.67
; ---------PrintSpeed & Travel----------
;Enable Print Cool:true
;Avoid Printed Parts Traveling:true
;Enable Retraction:true
;Retraction Distance:1.2
;Retraction Speed:30
;Retraction Prime Speed:30
;Maximum Retraction Count:100
;Minimum Extrusion Distance Window:0.8
;Z Hop When Retracted:true
;Z Hop Height:0.4
;Retract Before Outer Wall:true

;Outer Wall Speed:60
;Inner Wall Speed:90
;Infill Speed:180
;Top/Bottom Speed:50
;Travel Speed:150
;Initial Layer Speed:20
;Skirt/Brim Speed:25
;Prime Tower Speed:60
;Outer Wall Acceleration:1000
;Inner Wall Acceleration:2000
;Infill Acceleration:2500
;Top/Bottom Acceleration:2500
;Travel Acceleration:2500
;Initial Layer Print Acceleration:500
;Initial Layer Travel Acceleration:500
;Skirt/Brim Acceleration:500
;Combing Mode:off
; --------SpecialModel&Mesh Fixes--------
;Union Overlapping Volum:true
;Remove All Holes:false
;Maximum Travel Resolution:0.25
;Maximum Deviation:0.05
;Maximum Model Angle:0.872665
;IS Mold Print:false
;Make Overhang Printable:false
;Enable Coasting:false
;Coasting Volumes:0.064
;Coasting Speed:0.9
;Raft AirGap:0.25
;Layer0 ZOverLap:0.13
;Adaptive Layers:0
;---------------------End of Head--------------------------
M140 S60
M105
M190 S60
M104 S195
M82 ;absolute extrusion mode
M220 S100 ;Reset Feedrate
M221 S100 ;Reset Flowrate

G28 ;Home

G92 E0 ;Reset Extruder
G1 Z2.0 F3000 ;Move Z Axis up
G1 X-2.1 Y20 Z0.28 F5000.0 ;Move to start position
M109 S195.000000
G1 X-2.1 Y145.0 Z0.28 F1500.0 E15 ;Draw the first line
G1 X-2.4 Y145.0 Z0.28 F5000.0 ;Move to side a little
G1 X-2.4 Y20 Z0.28 F1500.0 E30 ;Draw the second line
G92 E0  ;Reset Extruder
G1 E-1.0000 F1800 ;Retract a bit
G1 Z2.0 F3000 ;Move Z Axis up
G1 E0.0000 F1800 

G92 E0
G92 E0
G1 F1800 E-1.2
;LAYER_COUNT:59

;LAYER:0
M106 S0
M204 S500
;;retract;;
G1 F1800 E0
G1 F1800 E-1.2
G0 F4800 X2.51 Y1.983 Z20.401
G0 X60.235 Y47.59 Z0.6
;TYPE:SKIRT
G1 F600 Z0.2
G1 F1800 E0
G1 F1500 X60.004 Y48.008 E0.01835
G1 X59.831 Y48.444 E0.03637
G1 X59.724 Y49.004 E0.05827
G1 X59.724 Y49.569 E0.07997
G1 X59.832 Y50.129 E0.10188
G1 X60.038 Y50.649 E0.12337
G1 X60.34 Y51.127 E0.14509
G1 X60.665 Y51.473 E0.16332
G1 X60.955 Y51.713 E0.17779
G1 X61.273 Y51.915 E0.19226
G1 X61.614 Y52.075 E0.20673
G1 X62.061 Y52.221 E0.22479
G1 X62.624 Y52.292 E0.24659
G1 X62.343 Y52.309 E0.25741
G1 X61.972 Y52.38 E0.27192
G1 X61.524 Y52.525 E0.29001
G1 X61.111 Y52.753 E0.30813
G1 X60.806 Y52.974 E0.3226
G1 X60.532 Y53.232 E0.33706
G1 X60.235 Y53.59 E0.35492
G1 X60.004 Y54.008 E0.37327
G1 X59.831 Y54.444 E0.39129
G1 X59.724 Y55.004 E0.41319
G1 X59.724 Y55.569 E0.4349
G1 X59.832 Y56.129 E0.45681
G1 X60.038 Y56.649 E0.47829
G1 X60.34 Y57.127 E0.50001
G1 X60.665 Y57.473 E0.51825
G1 X60.955 Y57.713 E0.53271
G1 X61.273 Y57.915 E0.54718
G1 X61.614 Y58.075 E0.56165
G1 X62.061 Y58.221 E0.57972
G1 X62.624 Y58.292 E0.60152
G1 X62.343 Y58.309 E0.61233
G1 X61.972 Y58.38 E0.62684
G1 X61.524 Y58.525 E0.64493
G1 X61.111 Y58.753 E0.66305
G1 X60.806 Y58.974 E0.67752
G1 X60.532 Y59.232 E0.69198
G1 X60.235 Y59.59 E0.70985
G1 X60.004 Y60.008 E0.7282
G1 X59.831 Y60.444 E0.74621
G1 X59.724 Y61.004 E0.76812
G1 X59.724 Y61.569 E0.78982
G1 X59.832 Y62.129 E0.81173
G1 X60.038 Y62.649 E0.83322
G1 X60.34 Y63.127 E0.85494
G1 X60.665 Y63.473 E0.87317
G1 X60.955 Y63.713 E0.88763
G1 X61.273 Y63.915 E0.90211
G1 X61.614 Y64.075 E0.91658
G1 X62.061 Y64.221 E0.93464
G1 X62.624 Y64.292 E0.95644
G1 X62.343 Y64.309 E0.96725
G1 X61.972 Y64.38 E0.98177
G1 X61.524 Y64.525 E0.99985
G1 X61.111 Y64.753 E1.01798
G1 X60.806 Y64.974 E1.03245
G1 X60.532 Y65.232 E1.0469
G1 X60.235 Y65.59 E1.06477
G1 X60.004 Y66.008 E1.08312
G1 X59.831 Y66.444 E1.10114
G1 X59.724 Y67.004 E1.12304
G1 X59.724 Y67.569 E1.14475
G1 X59.832 Y68.129 E1.16666
G1 X60.038 Y68.649 E1.18814
G1 X60.34 Y69.127 E1.20986
G1 X60.665 Y69.473 E1.2281
G1 X60.955 Y69.713 E1.24256
G1 X61.273 Y69.915 E1.25703
G1 X61.614 Y70.075 E1.2715
G1 X62.061 Y70.221 E1.28957
G1 X62.624 Y70.292 E1.31136
G1 X62.343 Y70.309 E1.32218
G1 X61.972 Y70.38 E1.33669
G1 X61.524 Y70.525 E1.35478
G1 X61.111 Y70.753 E1.3729
G1 X60.806 Y70.974 E1.38737
G1 X60.532 Y71.232 E1.40183
G1 X60.235 Y71.59 E1.4197
G1 X60.004 Y72.008 E1.43804
G1 X59.831 Y72.444 E1.45606
G1 X59.724 Y73.004 E1.47797
G1 X59.724 Y73.569 E1.49967
G1 X59.832 Y74.129 E1.52158
G1 X60.038 Y74.649 E1.54307
G1 X60.34 Y75.127 E1.56479
G1 X60.665 Y75.473 E1.58302
G1 X60.955 Y75.713 E1.59748
G1 X61.273 Y75.915 E1.61196
G1 X61.614 Y76.075 E1.62643
G1 X62.061 Y76.221 E1.64449
G1 X62.624 Y76.292 E1.66629
G1 X62.343 Y76.309 E1.6771
G1 X61.972 Y76.38 E1.69161
G1 X61.524 Y76.525 E1.7097
G1 X61.111 Y76.753 E1.72783
G1 X60.806 Y76.974 E1.7423
G1 X60.532 Y77.232 E1.75675
G1 X60.235 Y77.59 E1.77462
G1 X60.004 Y78.008 E1.79297
G1 X59.831 Y78.444 E1.81099
G1 X59.724 Y79.004 E1.83289
G1 X59.724 Y79.569 E1.85459
G1 X59.832 Y80.129 E1.8765
G1 X60.038 Y80.649 E1.89799
G1 X60.34 Y81.127 E1.91971
G1 X60.665 Y81.473 E1.93795
G1 X60.955 Y81.713 E1.95241
G1 X61.273 Y81.915 E1.96688
G1 X61.614 Y82.075 E1.98135
G1 X62.061 Y82.221 E1.99941
G1 X62.624 Y82.292 E2.02121
G1 X62.343 Y82.309 E2.03203
G1 X61.972 Y82.38 E2.04654
G1 X61.524 Y82.525 E2.06463
G1 X61.111 Y82.753 E2.08275
G1 X60.806 Y82.974 E2.09722
G1 X60.532 Y83.232 E2.11168
G1 X60.235 Y83.59 E2.12955
G1 X60.004 Y84.008 E2.14789
G1 X59.831 Y84.444 E2.16591
G1 X59.724 Y85.004 E2.18781
G1 X59.724 Y85.569 E2.20952
G1 X59.832 Y86.129 E2.23143
G1 X60.038 Y86.649 E2.25291
G1 X60.34 Y87.127 E2.27464
G1 X60.665 Y87.473 E2.29287
G1 X60.955 Y87.713 E2.30733
G1 X61.273 Y87.915 E2.3218
G1 X61.614 Y88.075 E2.33627
G1 X62.061 Y88.221 E2.35434
G1 X62.624 Y88.292 E2.37614
G1 X62.343 Y88.309 E2.38695
G1 X61.972 Y88.38 E2.40146
G1 X61.524 Y88.525 E2.41955
G1 X61.111 Y88.753 E2.43768
G1 X60.806 Y88.974 E2.45214
G1 X60.532 Y89.232 E2.4666
G1 X60.235 Y89.59 E2.48447
G1 X60.004 Y90.008 E2.50282
G1 X59.831 Y90.444 E2.52084
G1 X59.724 Y91.004 E2.54274
G1 X59.724 Y91.569 E2.56444
G1 X59.832 Y92.129 E2.58635
G1 X60.038 Y92.649 E2.60784
G1 X60.34 Y93.127 E2.62956
G1 X60.665 Y93.473 E2.6478
G1 X60.955 Y93.713 E2.66226
G1 X61.273 Y93.915 E2.67673
G1 X61.614 Y94.075 E2.6912
G1 X62.061 Y94.221 E2.70926
G1 X62.624 Y94.292 E2.73106
G1 X62.343 Y94.309 E2.74188
G1 X61.972 Y94.38 E2.75639
G1 X61.524 Y94.525 E2.77448
G1 X61.111 Y94.753 E2.7926
G1 X60.806 Y94.974 E2.80707
G1 X60.532 Y95.232 E2.82153
G1 X60.235 Y95.59 E2.8394
G1 X60.004 Y96.008 E2.85774
G1 X59.831 Y96.444 E2.87576
G1 X59.724 Y97.004 E2.89766
G1 X59.724 Y97.569 E2.91937
G1 X59.832 Y98.129 E2.94128
G1 X60.038 Y98.649 E2.96276
G1 X60.34 Y99.127 E2.98448
G1 X60.665 Y99.473 E3.00272
G1 X60.955 Y99.713 E3.01718
G1 X61.273 Y99.915 E3.03165
G1 X61.614 Y100.075 E3.04612
G1 X62.061 Y100.221 E3.06419
G1 X62.624 Y100.292 E3.08599
G1 X62.343 Y100.309 E3.0968
G1 X61.972 Y100.38 E3.11131
G1 X61.524 Y100.525 E3.1294
G1 X61.111 Y100.753 E3.14752
G1 X60.806 Y100.974 E3.16199
G1 X60.532 Y101.232 E3.17645
G1 X60.235 Y101.59 E3.19432
G1 X60.004 Y102.008 E3.21267
G1 X59.831 Y102.444 E3.23069
G1 X59.724 Y103.004 E3.25259
G1 X59.724 Y103.569 E3.27429
G1 X59.832 Y104.129 E3.2962
G1 X60.038 Y104.649 E3.31769
G1 X60.34 Y105.127 E3.33941
G1 X60.665 Y105.473 E3.35764
G1 X60.955 Y105.713 E3.37211
G1 X61.273 Y105.915 E3.38658
G1 X61.614 Y106.075 E3.40105
G1 X62.061 Y106.221 E3.41911
G1 X62.624 Y106.292 E3.44091
G1 X62.343 Y106.309 E3.45173
G1 X61.972 Y106.38 E3.46624
G1 X61.524 Y106.525 E3.48433
G1 X61.111 Y106.753 E3.50245
G1 X60.806 Y106.974 E3.51692
G1 X60.532 Y107.232 E3.53138
G1 X60.235 Y107.59 E3.54924
G1 X60.004 Y108.008 E3.56759
G1 X59.831 Y108.444 E3.58561
G1 X59.724 Y109.004 E3.60751
G1 X59.724 Y109.569 E3.62922
G1 X59.832 Y110.129 E3.65113
G1 X60.038 Y110.649 E3.67261
G1 X60.34 Y111.127 E3.69433
G1 X60.665 Y111.473 E3.71257
G1 X60.955 Y111.713 E3.72703
G1 X61.273 Y111.915 E3.7415
G1 X61.614 Y112.075 E3.75597
G1 X62.061 Y112.221 E3.77404
G1 X62.624 Y112.292 E3.79584
G1 X62.343 Y112.309 E3.80665
G1 X61.972 Y112.38 E3.82116
G1 X61.524 Y112.525 E3.83925
G1 X61.111 Y112.753 E3.85737
G1 X60.806 Y112.974 E3.87184
G1 X60.532 Y113.232 E3.8863
G1 X60.235 Y113.59 E3.90417
G1 X60.004 Y114.008 E3.92252
G1 X59.831 Y114.444 E3.94054
G1 X59.724 Y115.004 E3.96244
G1 X59.724 Y115.569 E3.98414
G1 X59.832 Y116.129 E4.00605
G1 X60.038 Y116.649 E4.02754
G1 X60.34 Y117.127 E4.04926
G1 X60.665 Y117.473 E4.06749
G1 X60.955 Y117.713 E4.08195
G1 X61.273 Y117.915 E4.09643
G1 X61.614 Y118.075 E4.1109
G1 X62.061 Y118.221 E4.12896
G1 X62.624 Y118.292 E4.15076
G1 X62.343 Y118.309 E4.16157
G1 X61.972 Y118.38 E4.17609
G1 X61.524 Y118.525 E4.19417
G1 X61.111 Y118.753 E4.2123
G1 X60.806 Y118.974 E4.22677
G1 X60.532 Y119.232 E4.24122
G1 X60.235 Y119.59 E4.25909
G1 X60.004 Y120.008 E4.27744
G1 X59.831 Y120.444 E4.29546
G1 X59.724 Y121.004 E4.31736
G1 X59.724 Y121.569 E4.33907
G1 X59.832 Y122.129 E4.36098
G1 X60.038 Y122.649 E4.38246
G1 X60.34 Y123.127 E4.40418
G1 X60.665 Y123.473 E4.42242
G1 X60.955 Y123.713 E4.43688
G1 X61.273 Y123.915 E4.45135
G1 X61.614 Y124.075 E4.46582
G1 X62.061 Y124.221 E4.48389
G1 X62.624 Y124.292 E4.50568
G1 X62.343 Y124.309 E4.5165
G1 X61.972 Y124.38 E4.53101
G1 X61.524 Y124.525 E4.5491
G1 X61.111 Y124.753 E4.56722
G1 X60.806 Y124.974 E4.58169
G1 X60.532 Y125.232 E4.59615
G1 X60.235 Y125.59 E4.61402
G1 X60.004 Y126.008 E4.63236
G1 X59.831 Y126.444 E4.65038
G1 X59.724 Y127.004 E4.67229
G1 X59.724 Y127.569 E4.69399
G1 X59.832 Y128.129 E4.7159
G1 X60.038 Y128.649 E4.73739
G1 X60.34 Y129.127 E4.75911
G1 X60.665 Y129.473 E4.77734
G1 X60.955 Y129.713 E4.7918
G1 X61.273 Y129.915 E4.80628
G1 X61.614 Y130.075 E4.82075
G1 X62.061 Y130.221 E4.83881
G1 X62.53 Y130.28 E4.85697
G1 X62.907 Y130.28 E4.87145
G1 X63.377 Y130.221 E4.88965
G1 X63.827 Y130.073 E4.90785
G1 X64.075 Y130.502 E4.92688
G1 X63.618 Y130.834 E4.94858
G1 X63.343 Y131.092 E4.96307
G1 X63.103 Y131.382 E4.97753
G1 X62.901 Y131.7 E4.992
G1 X62.7 Y132.128 E5.01017
G1 X62.583 Y132.583 E5.02821
G1 X62.536 Y132.957 E5.04269
G1 X62.536 Y133.334 E5.05718
G1 X62.583 Y133.708 E5.07166
G1 X62.7 Y134.163 E5.0897
G1 X62.901 Y134.591 E5.10787
G1 X63.103 Y134.909 E5.12234
G1 X63.343 Y135.199 E5.1368
G1 X63.689 Y135.524 E5.15504
G1 X64.167 Y135.826 E5.17676
G1 X64.687 Y136.032 E5.19824
G1 X65.247 Y136.14 E5.22015
G1 X65.812 Y136.14 E5.24186
G1 X66.276 Y136.051 E5.26001
G1 X66.635 Y135.935 E5.2745
G1 X66.898 Y135.814 E5.28562
G1 X67.028 Y136.071 E5.29669
G1 X66.699 Y136.251 E5.31109
G1 X66.394 Y136.472 E5.32556
G1 X66.05 Y136.796 E5.34372
G1 X65.774 Y137.177 E5.36179
G1 X65.592 Y137.507 E5.37627
G1 X65.42 Y137.941 E5.3942
G1 X65.33 Y138.408 E5.41247
G1 X65.307 Y138.784 E5.42694
G1 X65.33 Y139.16 E5.44141
G1 X65.42 Y139.627 E5.45968
G1 X65.592 Y140.061 E5.47762
G1 X65.774 Y140.392 E5.49213
G1 X66.051 Y140.773 E5.51022
G1 X66.394 Y141.096 E5.52832
G1 X66.699 Y141.317 E5.54279
G1 X67.029 Y141.499 E5.55727
G1 X67.38 Y141.637 E5.57176
G1 X67.744 Y141.731 E5.5862
G1 X68.118 Y141.778 E5.60068
G1 X68.495 Y141.778 E5.61516
G1 X68.869 Y141.731 E5.62964
G1 X69.234 Y141.637 E5.64412
G1 X69.5 Y141.535 E5.65507
G1 X69.64 Y141.882 E5.66944
G1 X69.14 Y142.158 E5.69138
G1 X68.835 Y142.379 E5.70585
G1 X68.561 Y142.637 E5.72031
G1 X68.32 Y142.928 E5.73482
G1 X68.118 Y143.246 E5.74929
G1 X67.958 Y143.587 E5.76376
G1 X67.842 Y143.945 E5.77822
G1 X67.771 Y144.315 E5.79269
G1 X67.747 Y144.691 E5.80717
G1 X67.771 Y145.067 E5.82164
G1 X67.842 Y145.437 E5.83611
G1 X67.958 Y145.795 E5.85057
G1 X68.118 Y146.136 E5.86504
G1 X68.32 Y146.454 E5.87951
G1 X68.621 Y146.818 E5.89766
G1 X68.984 Y147.118 E5.91575
G1 X69.302 Y147.32 E5.93022
G1 X69.643 Y147.48 E5.94469
G1 X70.09 Y147.626 E5.96276
G1 X70.559 Y147.685 E5.98091
G1 X70.936 Y147.685 E5.9954
G1 X71.397 Y147.627 E6.01325
G1 X71.764 Y147.512 E6.02802
G1 X72.015 Y148.255 E6.05815
G1 X71.648 Y148.399 E6.07329
G1 X71.234 Y148.626 E6.09143
G1 X70.872 Y148.927 E6.10952
G1 X70.614 Y149.201 E6.12397
G1 X70.393 Y149.506 E6.13844
G1 X70.165 Y149.919 E6.15657
G1 X70.02 Y150.367 E6.17466
G1 X69.949 Y150.737 E6.18913
G1 X69.926 Y151.113 E6.2036
G1 X69.949 Y151.489 E6.21807
G1 X70.02 Y151.86 E6.23258
G1 X70.165 Y152.308 E6.25067
G1 X70.393 Y152.721 E6.26879
G1 X70.614 Y153.026 E6.28326
G1 X70.872 Y153.3 E6.29772
G1 X71.234 Y153.6 E6.31578
G1 X71.648 Y153.828 E6.33394
G1 X72.084 Y154.001 E6.35196
G1 X72.644 Y154.108 E6.37386
G1 X73.114 Y154.108 E6.39191
G1 X73.488 Y154.06 E6.4064
G1 X73.751 Y153.996 E6.4168
G1 X73.887 Y154.489 E6.43644
G1 X73.42 Y154.638 E6.45527
G1 X73.005 Y154.867 E6.47348
G1 X72.7 Y155.088 E6.48795
G1 X72.425 Y155.346 E6.50244
G1 X72.185 Y155.636 E6.5169
G1 X71.983 Y155.954 E6.53137
G1 X71.823 Y156.295 E6.54584
G1 X71.677 Y156.743 E6.56394
G1 X71.618 Y157.211 E6.58206
G1 X71.618 Y157.588 E6.59655
G1 X71.677 Y158.057 E6.6147
G1 X71.823 Y158.504 E6.63277
G1 X71.983 Y158.845 E6.64724
G1 X72.185 Y159.163 E6.66171
G1 X72.486 Y159.526 E6.67983
G1 X72.849 Y159.827 E6.69794
G1 X73.167 Y160.029 E6.71241
G1 X73.595 Y160.23 E6.73058
G1 X74.05 Y160.347 E6.74863
G1 X74.424 Y160.394 E6.76311
G1 X74.885 Y160.394 E6.78082
G1 X75.245 Y160.331 E6.79486
G1 X75.255 Y160.383 E6.79689
G1 X74.871 Y160.479 E6.8121
G1 X74.52 Y160.618 E6.8266
G1 X74.106 Y160.846 E6.84475
G1 X73.744 Y161.146 E6.86282
G1 X73.486 Y161.42 E6.87727
G1 X73.265 Y161.725 E6.89174
G1 X73.037 Y162.139 E6.9099
G1 X72.892 Y162.587 E6.92799
G1 X72.821 Y162.957 E6.94246
G1 X72.798 Y163.333 E6.95693
G1 X72.821 Y163.709 E6.9714
G1 X72.892 Y164.079 E6.98588
G1 X73.037 Y164.527 E7.00397
G1 X73.265 Y164.94 E7.02209
G1 X73.486 Y165.245 E7.03656
G1 X73.744 Y165.519 E7.05102
G1 X74.106 Y165.82 E7.0691
G1 X74.52 Y166.047 E7.08724
G1 X74.956 Y166.22 E7.10526
