;FLAVOR:Marlin
;TIME:7200.87
;Filament used:11.4371m
;Material Diameter:1.75
;Material Density:1.24
;Filament Cost:0.682237
;Filament Weight:34.111843
;Filament Length:11.437141
;Layer height:0.2
;MINX:1.854
;MINY:2.608
;MINZ:0.2
;MAXX:180
;MAXY:165.006
;MAXZ:20.401
;OuterWall Time:867.6
;InnerWall Time:728.77
;Skin Time:5368.13
;Support Time:0
;SkirtBrim Time:29.9265
;Infill Time:22.9055
;Support Infills Time:0
;Combing Time:44.7646
;Retraction Time:138.773
;PrimeTower Time:0
;;;;;;;;;;;;;;;;;;;;;;;;;;;;;;;;;;;;;;;;;;;;;;;;;;;;;;;;;;;;;;;;;;;;;;;;;;;;
;Creality Print GCode Generated by CXEngine
;CRSLICE_GIT_HASH:58ee74d
;Creality Print Version : V4.3.8.6984
;CXEngine Release Time:2023-12-04 18:16:29
;Gcode Generated Time:2024-06-26 00:05:41
;----------Machine Config--------------
;Machine Name:Ender-3 V3 SE
;Machine Height:250
;Machine Width:220
;Machine Depth:220
;Material Type:PLA
;Material Name:CR-PLA_1.75
;Number of Extruders:1
;ExtruderParams[0] Nozzle Diameter:1000
;----------Profile Config---------------
;Wall Thickness:0.8
;Top/Bottom Thickness:0.8
;Out Wall Line Width:0.42
;Inner Wall Line Width:0.45
;Inital Height:200
;Wall Line Count:2
;Infill Line Distance:18
;Infill Pattern:grid
;Infill Sparse Density:5
;Infill Wipe Distance:0
;Print Temperature:195
;Bed Temperature:60
;Support Enable:false
;Support Density:15
;Support Angle:60
;Adhesion Type:lace
;machine is belt:false
;machine belt offset:10
;machine belt offset Y:0
;Raft Base Line Spacing:1.6
;Wait Heatup Sync:true
;Enable Ironing:false
;Material Type:PLA
;Max volumetric speed:20
;Preview Img Type:png
;Screen Size:Sermoon D3
;----------Shell Config----------------
;Outer Wall Wipe Distance:2000
;Outer Inset First:false
;Infill Before Walls:false
;Infill Overlap:0.14
;Fill Gaps Between Walls:everywhere
;Minimum Infill Area:30
;Top Surface Skin Layer:0
;Top Layers:4
;Z Seam Alignment:sharpest_corner
;Seam Corner Preference:z_seam_corner_inner
;Z Seam X:110
;Z Seam Y:220
;Horizontal Expansion:0
;Top/Bottom Pattern:zigzag
;Ironing Pattern:zigzag
;Vase Model:false
;----------Support Config----------------
;Support Type:everywhere
;Support Pattern:zigzag
;Support Infill Layer Thickness:0.2
;Minimum Support Area:1
;Enable Support Roof:true
;Support Roof Thickness:0.8
;Support Roof Pattern:lines
;Connect Support Lines:0
;Connect Support ZigZags:1
;Minimum Support X/Y Distance:0.2
;Support Line Distance:2.67
; ---------PrintSpeed & Travel----------
;Enable Print Cool:true
;Avoid Printed Parts Traveling:true
;Enable Retraction:true
;Retraction Distance:1.2
;Retraction Speed:30
;Retraction Prime Speed:30
;Maximum Retraction Count:100
;Minimum Extrusion Distance Window:0.8
;Z Hop When Retracted:true
;Z Hop Height:0.4
;Retract Before Outer Wall:true

;Outer Wall Speed:60
;Inner Wall Speed:90
;Infill Speed:180
;Top/Bottom Speed:50
;Travel Speed:150
;Initial Layer Speed:20
;Skirt/Brim Speed:25
;Prime Tower Speed:60
;Outer Wall Acceleration:1000
;Inner Wall Acceleration:2000
;Infill Acceleration:2500
;Top/Bottom Acceleration:2500
;Travel Acceleration:2500
;Initial Layer Print Acceleration:500
;Initial Layer Travel Acceleration:500
;Skirt/Brim Acceleration:500
;Combing Mode:off
; --------SpecialModel&Mesh Fixes--------
;Union Overlapping Volum:true
;Remove All Holes:false
;Maximum Travel Resolution:0.25
;Maximum Deviation:0.05
;Maximum Model Angle:0.872665
;IS Mold Print:false
;Make Overhang Printable:false
;Enable Coasting:false
;Coasting Volumes:0.064
;Coasting Speed:0.9
;Raft AirGap:0.25
;Layer0 ZOverLap:0.13
;Adaptive Layers:0
;---------------------End of Head--------------------------
M140 S60
M105
M190 S60
M104 S195
M82 ;absolute extrusion mode
M220 S100 ;Reset Feedrate
M221 S100 ;Reset Flowrate

G28 ;Home

G92 E0 ;Reset Extruder
G1 Z2.0 F3000 ;Move Z Axis up
G1 X-2.1 Y20 Z0.28 F5000.0 ;Move to start position
M109 S195.000000
G1 X-2.1 Y145.0 Z0.28 F1500.0 E15 ;Draw the first line
G1 X-2.4 Y145.0 Z0.28 F5000.0 ;Move to side a little
G1 X-2.4 Y20 Z0.28 F1500.0 E30 ;Draw the second line
G92 E0  ;Reset Extruder
G1 E-1.0000 F1800 ;Retract a bit
G1 Z2.0 F3000 ;Move Z Axis up
G1 E0.0000 F1800 

G92 E0
G92 E0
G1 F1800 E-1.2
;LAYER_COUNT:59

;LAYER:0
M106 S0
M204 S500
;;retract;;
G1 F1800 E0
G1 F1800 E-1.2
G0 F4800 X1.854 Y2.608 Z20.401
G0 X41.392 Y58.227 Z0.6
;TYPE:SKIRT
G1 F600 Z0.2
G1 F1800 E0
G1 F1500 X41.087 Y58.448 E0.01447
G1 X40.813 Y58.706 E0.02893
G1 X40.513 Y59.068 E0.04699
G1 X40.285 Y59.483 E0.06518
G1 X40.113 Y59.917 E0.08311
G1 X40.005 Y60.477 E0.10502
G1 X40.005 Y61.043 E0.12676
G1 X40.113 Y61.603 E0.14867
G1 X40.319 Y62.123 E0.17016
G1 X40.572 Y62.523 E0.18834
G1 X40.873 Y62.887 E0.20649
G1 X41.236 Y63.187 E0.22458
G1 X41.554 Y63.389 E0.23905
G1 X41.895 Y63.549 E0.25352
G1 X42.342 Y63.695 E0.27158
G1 X42.857 Y63.76 E0.29152
G1 X42.437 Y63.813 E0.30779
G1 X42.072 Y63.907 E0.32227
G1 X41.722 Y64.045 E0.33672
G1 X41.392 Y64.227 E0.3512
G1 X41.087 Y64.448 E0.36567
G1 X40.813 Y64.706 E0.38012
G1 X40.513 Y65.068 E0.39818
G1 X40.285 Y65.483 E0.41637
G1 X40.113 Y65.917 E0.43431
G1 X40.005 Y66.477 E0.45622
G1 X40.005 Y67.043 E0.47796
G1 X40.113 Y67.603 E0.49987
G1 X40.319 Y68.123 E0.52136
G1 X40.572 Y68.523 E0.53954
G1 X40.873 Y68.887 E0.55768
G1 X41.236 Y69.187 E0.57577
G1 X41.554 Y69.389 E0.59025
G1 X41.895 Y69.549 E0.60472
G1 X42.342 Y69.695 E0.62278
G1 X42.857 Y69.76 E0.64272
G1 X42.437 Y69.813 E0.65898
G1 X42.072 Y69.907 E0.67346
G1 X41.722 Y70.045 E0.68792
G1 X41.392 Y70.227 E0.70239
G1 X41.087 Y70.448 E0.71686
G1 X40.813 Y70.706 E0.73132
G1 X40.513 Y71.068 E0.74938
G1 X40.285 Y71.483 E0.76757
G1 X40.113 Y71.917 E0.78551
G1 X40.005 Y72.477 E0.80741
G1 X40.005 Y73.043 E0.82916
G1 X40.113 Y73.603 E0.85107
G1 X40.319 Y74.123 E0.87255
G1 X40.572 Y74.523 E0.89073
G1 X40.873 Y74.887 E0.90888
G1 X41.236 Y75.187 E0.92697
G1 X41.554 Y75.389 E0.94144
G1 X41.895 Y75.549 E0.95591
G1 X42.342 Y75.695 E0.97398
G1 X42.857 Y75.76 E0.99392
G1 X42.437 Y75.813 E1.01018
G1 X42.072 Y75.907 E1.02466
G1 X41.722 Y76.045 E1.03911
G1 X41.392 Y76.227 E1.05359
G1 X41.087 Y76.448 E1.06806
G1 X40.813 Y76.706 E1.08252
G1 X40.513 Y77.068 E1.10058
G1 X40.285 Y77.483 E1.11877
G1 X40.113 Y77.917 E1.1367
G1 X40.005 Y78.477 E1.15861
G1 X40.005 Y79.043 E1.18035
G1 X40.113 Y79.603 E1.20226
G1 X40.319 Y80.123 E1.22375
G1 X40.572 Y80.523 E1.24193
G1 X40.873 Y80.887 E1.26008
G1 X41.236 Y81.187 E1.27817
G1 X41.554 Y81.389 E1.29264
G1 X41.895 Y81.549 E1.30711
G1 X42.342 Y81.695 E1.32517
G1 X42.857 Y81.76 E1.34511
G1 X42.437 Y81.813 E1.36138
G1 X42.072 Y81.907 E1.37586
G1 X41.722 Y82.045 E1.39031
G1 X41.392 Y82.227 E1.40479
G1 X41.087 Y82.448 E1.41926
G1 X40.813 Y82.706 E1.43371
G1 X40.513 Y83.068 E1.45177
G1 X40.285 Y83.483 E1.46996
G1 X40.113 Y83.917 E1.4879
G1 X40.005 Y84.477 E1.50981
G1 X40.005 Y85.043 E1.53155
G1 X40.113 Y85.603 E1.55346
G1 X40.319 Y86.123 E1.57495
G1 X40.572 Y86.523 E1.59313
G1 X40.873 Y86.887 E1.61127
G1 X41.236 Y87.187 E1.62936
G1 X41.554 Y87.389 E1.64384
G1 X41.895 Y87.549 E1.65831
G1 X42.342 Y87.695 E1.67637
G1 X42.857 Y87.76 E1.69631
G1 X42.437 Y87.813 E1.71257
G1 X42.072 Y87.907 E1.72705
G1 X41.722 Y88.045 E1.74151
G1 X41.392 Y88.227 E1.75598
G1 X41.087 Y88.448 E1.77045
G1 X40.813 Y88.706 E1.78491
G1 X40.513 Y89.068 E1.80297
G1 X40.285 Y89.483 E1.82116
G1 X40.113 Y89.917 E1.83909
G1 X40.005 Y90.477 E1.861
G1 X40.005 Y91.043 E1.88275
G1 X40.113 Y91.603 E1.90466
G1 X40.319 Y92.123 E1.92614
G1 X40.572 Y92.523 E1.94432
G1 X40.873 Y92.887 E1.96247
G1 X41.236 Y93.187 E1.98056
G1 X41.554 Y93.389 E1.99503
G1 X41.895 Y93.549 E2.0095
G1 X42.342 Y93.695 E2.02757
G1 X42.857 Y93.76 E2.04751
G1 X42.437 Y93.813 E2.06377
G1 X42.072 Y93.907 E2.07825
G1 X41.722 Y94.045 E2.0927
G1 X41.392 Y94.227 E2.10718
G1 X41.087 Y94.448 E2.12165
G1 X40.813 Y94.706 E2.13611
G1 X40.513 Y95.068 E2.15417
G1 X40.285 Y95.483 E2.17236
G1 X40.113 Y95.917 E2.19029
G1 X40.005 Y96.477 E2.2122
G1 X40.005 Y97.043 E2.23394
G1 X40.113 Y97.603 E2.25585
G1 X40.319 Y98.123 E2.27734
G1 X40.572 Y98.523 E2.29552
G1 X40.873 Y98.887 E2.31367
G1 X41.236 Y99.187 E2.33176
G1 X41.554 Y99.389 E2.34623
G1 X41.895 Y99.549 E2.3607
G1 X42.342 Y99.695 E2.37876
G1 X42.857 Y99.76 E2.3987
G1 X42.437 Y99.813 E2.41497
G1 X42.072 Y99.907 E2.42945
G1 X41.722 Y100.045 E2.4439
G1 X41.392 Y100.227 E2.45838
G1 X41.087 Y100.448 E2.47284
G1 X40.813 Y100.706 E2.4873
G1 X40.513 Y101.068 E2.50536
G1 X40.285 Y101.483 E2.52355
G1 X40.113 Y101.917 E2.54149
G1 X40.005 Y102.477 E2.5634
G1 X40.005 Y103.043 E2.58514
G1 X40.113 Y103.603 E2.60705
G1 X40.319 Y104.123 E2.62854
G1 X40.572 Y104.523 E2.64672
G1 X40.873 Y104.887 E2.66486
G1 X41.236 Y105.187 E2.68295
G1 X41.554 Y105.389 E2.69743
G1 X41.895 Y105.549 E2.7119
G1 X42.342 Y105.695 E2.72996
G1 X42.857 Y105.76 E2.7499
G1 X42.437 Y105.813 E2.76616
G1 X42.072 Y105.907 E2.78064
G1 X41.722 Y106.045 E2.7951
G1 X41.392 Y106.227 E2.80957
G1 X41.087 Y106.448 E2.82404
G1 X40.813 Y106.706 E2.8385
G1 X40.513 Y107.068 E2.85656
G1 X40.285 Y107.483 E2.87475
G1 X40.113 Y107.917 E2.89268
G1 X40.005 Y108.477 E2.91459
G1 X40.005 Y109.043 E2.93634
G1 X40.113 Y109.603 E2.95825
G1 X40.319 Y110.123 E2.97973
G1 X40.572 Y110.523 E2.99791
G1 X40.873 Y110.887 E3.01606
G1 X41.236 Y111.187 E3.03415
G1 X41.554 Y111.389 E3.04862
G1 X41.895 Y111.549 E3.06309
G1 X42.342 Y111.695 E3.08116
G1 X42.857 Y111.76 E3.1011
G1 X42.437 Y111.813 E3.11736
G1 X42.072 Y111.907 E3.13184
G1 X41.722 Y112.045 E3.14629
G1 X41.392 Y112.227 E3.16077
G1 X41.087 Y112.448 E3.17524
G1 X40.813 Y112.706 E3.1897
G1 X40.513 Y113.068 E3.20776
G1 X40.285 Y113.483 E3.22595
G1 X40.113 Y113.917 E3.24388
G1 X40.005 Y114.477 E3.26579
G1 X40.005 Y115.043 E3.28753
G1 X40.113 Y115.603 E3.30944
G1 X40.319 Y116.123 E3.33093
G1 X40.572 Y116.523 E3.34911
G1 X40.873 Y116.887 E3.36726
G1 X41.236 Y117.187 E3.38535
G1 X41.554 Y117.389 E3.39982
G1 X41.895 Y117.549 E3.41429
G1 X42.342 Y117.695 E3.43235
G1 X42.857 Y117.76 E3.45229
G1 X42.437 Y117.813 E3.46856
G1 X42.072 Y117.907 E3.48304
G1 X41.722 Y118.045 E3.49749
G1 X41.392 Y118.227 E3.51197
G1 X41.087 Y118.448 E3.52643
G1 X40.813 Y118.706 E3.54089
G1 X40.513 Y119.068 E3.55895
G1 X40.285 Y119.483 E3.57714
G1 X40.113 Y119.917 E3.59508
G1 X40.005 Y120.477 E3.61699
G1 X40.005 Y121.043 E3.63873
G1 X40.113 Y121.603 E3.66064
G1 X40.319 Y122.123 E3.68213
G1 X40.572 Y122.523 E3.70031
G1 X40.873 Y122.887 E3.71845
G1 X41.236 Y123.187 E3.73654
G1 X41.554 Y123.389 E3.75101
G1 X41.895 Y123.549 E3.76548
G1 X42.342 Y123.695 E3.78355
G1 X42.857 Y123.76 E3.80349
G1 X42.437 Y123.813 E3.81975
G1 X42.072 Y123.907 E3.83423
G1 X41.722 Y124.045 E3.84868
G1 X41.392 Y124.227 E3.86316
G1 X41.087 Y124.448 E3.87763
G1 X40.813 Y124.706 E3.89209
G1 X40.513 Y125.068 E3.91015
G1 X40.285 Y125.483 E3.92834
G1 X40.113 Y125.917 E3.94627
G1 X40.005 Y126.477 E3.96818
G1 X40.005 Y127.043 E3.98993
G1 X40.113 Y127.603 E4.01184
G1 X40.319 Y128.123 E4.03332
G1 X40.572 Y128.523 E4.0515
G1 X40.873 Y128.887 E4.06965
G1 X41.236 Y129.187 E4.08774
G1 X41.554 Y129.389 E4.10221
G1 X41.895 Y129.549 E4.11668
G1 X42.342 Y129.695 E4.13475
G1 X42.857 Y129.76 E4.15469
G1 X42.437 Y129.813 E4.17095
G1 X42.072 Y129.907 E4.18543
G1 X41.722 Y130.045 E4.19988
G1 X41.392 Y130.227 E4.21436
G1 X41.087 Y130.448 E4.22883
G1 X40.813 Y130.706 E4.24329
G1 X40.513 Y131.068 E4.26135
G1 X40.285 Y131.483 E4.27954
G1 X40.113 Y131.917 E4.29747
G1 X40.005 Y132.477 E4.31938
G1 X40.005 Y133.043 E4.34112
G1 X40.113 Y133.603 E4.36303
G1 X40.319 Y134.123 E4.38452
G1 X40.572 Y134.523 E4.4027
G1 X40.873 Y134.887 E4.42084
G1 X41.236 Y135.187 E4.43894
G1 X41.554 Y135.389 E4.45341
G1 X41.895 Y135.549 E4.46788
G1 X42.342 Y135.695 E4.48594
G1 X42.857 Y135.76 E4.50588
G1 X42.437 Y135.813 E4.52215
G1 X42.072 Y135.907 E4.53662
G1 X41.722 Y136.045 E4.55108
G1 X41.392 Y136.227 E4.56555
G1 X41.087 Y136.448 E4.58002
G1 X40.813 Y136.706 E4.59448
G1 X40.513 Y137.068 E4.61254
G1 X40.285 Y137.483 E4.63073
G1 X40.113 Y137.917 E4.64867
G1 X40.005 Y138.477 E4.67058
G1 X40.005 Y139.043 E4.69232
G1 X40.113 Y139.603 E4.71423
G1 X40.319 Y140.123 E4.73571
G1 X40.572 Y140.523 E4.7539
G1 X40.873 Y140.887 E4.77204
G1 X41.236 Y141.187 E4.79013
G1 X41.554 Y141.389 E4.8046
G1 X41.895 Y141.549 E4.81907
G1 X42.342 Y141.695 E4.83714
G1 X42.857 Y141.76 E4.85708
G1 X42.437 Y141.813 E4.87334
G1 X42.072 Y141.907 E4.88782
G1 X41.722 Y142.045 E4.90227
G1 X41.392 Y142.227 E4.91675
G1 X41.087 Y142.448 E4.93122
G1 X40.813 Y142.706 E4.94568
G1 X40.513 Y143.068 E4.96374
G1 X40.285 Y143.483 E4.98193
G1 X40.113 Y143.917 E4.99986
G1 X40.005 Y144.477 E5.02177
G1 X40.005 Y145.043 E5.04352
G1 X40.113 Y145.603 E5.06542
G1 X40.319 Y146.123 E5.08691
G1 X40.572 Y146.523 E5.10509
G1 X40.873 Y146.887 E5.12324
G1 X41.236 Y147.187 E5.14133
G1 X41.554 Y147.389 E5.1558
G1 X41.895 Y147.549 E5.17027
G1 X42.342 Y147.695 E5.18834
G1 X42.857 Y147.76 E5.20828
G1 X42.437 Y147.813 E5.22454
G1 X42.072 Y147.907 E5.23902
G1 X41.722 Y148.045 E5.25347
G1 X41.392 Y148.227 E5.26795
G1 X41.087 Y148.448 E5.28242
G1 X40.813 Y148.706 E5.29687
G1 X40.513 Y149.068 E5.31494
G1 X40.285 Y149.483 E5.33313
G1 X40.113 Y149.917 E5.35106
G1 X40.005 Y150.477 E5.37297
G1 X40.005 Y151.043 E5.39471
G1 X40.113 Y151.603 E5.41662
G1 X40.319 Y152.123 E5.43811
G1 X40.572 Y152.523 E5.45629
G1 X40.873 Y152.887 E5.47443
G1 X41.236 Y153.187 E5.49253
G1 X41.554 Y153.389 E5.507
G1 X41.895 Y153.549 E5.52147
G1 X42.342 Y153.695 E5.53953
G1 X42.857 Y153.76 E5.55947
G1 X42.437 Y153.813 E5.57574
G1 X42.072 Y153.907 E5.59021
G1 X41.722 Y154.045 E5.60467
G1 X41.392 Y154.227 E5.61914
G1 X41.087 Y154.448 E5.63361
G1 X40.813 Y154.706 E5.64807
G1 X40.513 Y155.068 E5.66613
G1 X40.285 Y155.483 E5.68432
G1 X40.113 Y155.917 E5.70226
G1 X40.005 Y156.477 E5.72417
G1 X40.005 Y157.043 E5.74591
G1 X40.113 Y157.603 E5.76782
G1 X40.319 Y158.123 E5.7893
G1 X40.572 Y158.523 E5.80749
G1 X40.873 Y158.887 E5.82563
G1 X41.236 Y159.187 E5.84372
G1 X41.554 Y159.389 E5.85819
G1 X41.895 Y159.549 E5.87266
G1 X42.342 Y159.695 E5.89073
G1 X43 Y159.778 E5.91621
G1 X43 Y159.868 E5.91966
G1 X42.62 Y160.392 E5.94453
G1 X42.438 Y160.722 E5.95901
G1 X42.265 Y161.156 E5.97695
G1 X42.176 Y161.624 E5.99526
G1 X42.153 Y162 E6.00973
G1 X42.176 Y162.376 E6.0242
G1 X42.266 Y162.843 E6.04247
G1 X42.438 Y163.277 E6.0604
G1 X42.62 Y163.607 E6.07488
G1 X42.894 Y163.985 E6.09281
G1 X43.31 Y164.377 E6.11477
G1 X43.789 Y164.68 E6.13655
G1 X44.226 Y164.853 E6.1546
G1 X44.59 Y164.946 E6.16903
G1 X45.058 Y165.006 E6.18716
G1 X45.529 Y164.976 E6.20529
G1 X45.996 Y164.886 E6.22356
G1 X46.516 Y164.68 E6.24505
G1 X46.994 Y164.378 E6.26677
G1 X47.34 Y164.053 E6.285
G1 X47.58 Y163.763 E6.29946
G1 X47.782 Y163.445 E6.31393
G1 X47.942 Y163.104 E6.3284
G1 X48.058 Y162.746 E6.34286
G1 X48.129 Y162.376 E6.35733
G1 X48.153 Y162 E6.37181
G1 X48.176 Y162.376 E6.38628
G1 X48.266 Y162.843 E6.40455
G1 X48.438 Y163.277 E6.42248
G1 X48.62 Y163.607 E6.43696
G1 X48.894 Y163.985 E6.4549
G1 X49.31 Y164.377 E6.47685
G1 X49.789 Y164.68 E6.49863
G1 X50.226 Y164.853 E6.51668
G1 X50.59 Y164.946 E6.53111
G1 X51.058 Y165.006 E6.54924
G1 X51.529 Y164.976 E6.56737
G1 X51.996 Y164.886 E6.58564
G1 X52.516 Y164.68 E6.60713
G1 X52.994 Y164.378 E6.62885
G1 X53.34 Y164.053 E6.64708
G1 X53.58 Y163.763 E6.66154
G1 X53.782 Y163.445 E6.67602
G1 X53.942 Y163.104 E6.69049
G1 X54.058 Y162.746 E6.70494
G1 X54.129 Y162.376 E6.71942
G1 X54.153 Y162 E6.73389
G1 X54.176 Y162.376 E6.74836
G1 X54.266 Y162.843 E6.76663
G1 X54.438 Y163.277 E6.78456
G1 X54.62 Y163.607 E6.79904
G1 X54.894 Y163.985 E6.81698
G1 X55.31 Y164.377 E6.83893
G1 X55.789 Y164.68 E6.86071
G1 X56.226 Y164.853 E6.87876
G1 X56.59 Y164.946 E6.8932
G1 X57.058 Y165.006 E6.91132
G1 X57.529 Y164.976 E6.92945
G1 X57.996 Y164.886 E6.94772
G1 X58.516 Y164.68 E6.96921
G1 X58.994 Y164.378 E6.99093
G1 X59.34 Y164.053 E7.00916
G1 X59.58 Y163.763 E7.02363
G1 X59.782 Y163.445 E7.0381
G1 X59.942 Y163.104 E7.05257
G1 X60.058 Y162.746 E7.06702
G1 X60.129 Y162.376 E7.0815
G1 X60.153 Y162 E7.09597
G1 X60.176 Y162.376 E7.11044
G1 X60.266 Y162.843 E7.12871
G1 X60.438 Y163.277 E7.14665
G1 X60.62 Y163.607 E7.16112
G1 X60.894 Y163.985 E7.17906
