;FLAVOR:Marlin
;TIME:6513.92
;Filament used:4.86363m
;Material Diameter:1.75
;Material Density:1.24
;Filament Cost:0.290121
;Filament Weight:14.506029
;Filament Length:4.863634
;Layer height:0.2
;MINX:2.212
;MINY:2.312
;MINZ:0.2
;MAXX:145.984
;MAXY:145.966
;MAXZ:94.8
;OuterWall Time:2122.72
;InnerWall Time:1389.59
;Skin Time:2030.08
;Support Time:0
;SkirtBrim Time:14.3981
;Infill Time:82.8387
;Support Infills Time:0
;Combing Time:154.096
;Retraction Time:720.199
;PrimeTower Time:0
;;;;;;;;;;;;;;;;;;;;;;;;;;;;;;;;;;;;;;;;;;;;;;;;;;;;;;;;;;;;;;;;;;;;;;;;
;Creality Print GCode Generated by CXEngine
;CRSLICE_GIT_HASH:58ee74d
;Creality Print Version : V4.3.8.6984
;CXEngine Release Time:2023-12-04 18:16:29
;Gcode Generated Time:2024-09-10 21:44:13
;----------Machine Config--------------
;Machine Name:Ender-3 V3 SE
;Machine Height:250
;Machine Width:220
;Machine Depth:220
;Material Type:PLA
;Material Name:CR-PLA_1.75
;Number of Extruders:1
;ExtruderParams[0] Nozzle Diameter:1000
;----------Profile Config---------------
;Wall Thickness:0.8
;Top/Bottom Thickness:0.8
;Out Wall Line Width:0.42
;Inner Wall Line Width:0.45
;Inital Height:200
;Wall Line Count:2
;Infill Line Distance:8
;Infill Pattern:grid
;Infill Sparse Density:10
;Infill Wipe Distance:0
;Print Temperature:195
;Bed Temperature:60
;Support Enable:false
;Support Density:15
;Support Angle:60
;Adhesion Type:lace
;machine is belt:false
;machine belt offset:10
;machine belt offset Y:0
;Raft Base Line Spacing:1.6
;Wait Heatup Sync:true
;Enable Ironing:false
;Material Type:PLA
;Max volumetric speed:20
;Preview Img Type:png
;Screen Size:Sermoon D3
;----------Shell Config----------------
;Outer Wall Wipe Distance:2000
;Outer Inset First:false
;Infill Before Walls:false
;Infill Overlap:0.09
;Fill Gaps Between Walls:everywhere
;Minimum Infill Area:30
;Top Surface Skin Layer:0
;Top Layers:5
;Z Seam Alignment:sharpest_corner
;Seam Corner Preference:z_seam_corner_inner
;Z Seam X:110
;Z Seam Y:220
;Horizontal Expansion:0
;Top/Bottom Pattern:zigzag
;Ironing Pattern:zigzag
;Vase Model:false
;----------Support Config----------------
;Support Type:everywhere
;Support Pattern:zigzag
;Support Infill Layer Thickness:0.2
;Minimum Support Area:1
;Enable Support Roof:true
;Support Roof Thickness:0.8
;Support Roof Pattern:lines
;Connect Support Lines:0
;Connect Support ZigZags:1
;Minimum Support X/Y Distance:0.2
;Support Line Distance:2.67
; ---------PrintSpeed & Travel----------
;Enable Print Cool:true
;Avoid Printed Parts Traveling:true
;Enable Retraction:true
;Retraction Distance:1.2
;Retraction Speed:30
;Retraction Prime Speed:30
;Maximum Retraction Count:100
;Minimum Extrusion Distance Window:0.8
;Z Hop When Retracted:true
;Z Hop Height:0.4
;Retract Before Outer Wall:true

;Outer Wall Speed:60
;Inner Wall Speed:90
;Infill Speed:180
;Top/Bottom Speed:50
;Travel Speed:150
;Initial Layer Speed:20
;Skirt/Brim Speed:25
;Prime Tower Speed:60
;Outer Wall Acceleration:1000
;Inner Wall Acceleration:2000
;Infill Acceleration:2500
;Top/Bottom Acceleration:2500
;Travel Acceleration:2500
;Initial Layer Print Acceleration:500
;Initial Layer Travel Acceleration:500
;Skirt/Brim Acceleration:500
;Combing Mode:off
; --------SpecialModel&Mesh Fixes--------
;Union Overlapping Volum:true
;Remove All Holes:false
;Maximum Travel Resolution:0.25
;Maximum Deviation:0.05
;Maximum Model Angle:0.872665
;IS Mold Print:false
;Make Overhang Printable:false
;Enable Coasting:false
;Coasting Volumes:0.064
;Coasting Speed:0.9
;Raft AirGap:0.25
;Layer0 ZOverLap:0.13
;Adaptive Layers:0
;---------------------End of Head--------------------------
M140 S60
M105
M190 S60
M104 S195
M82 ;absolute extrusion mode
M220 S100 ;Reset Feedrate
M221 S100 ;Reset Flowrate

G28 ;Home

G92 E0 ;Reset Extruder
G1 Z2.0 F3000 ;Move Z Axis up
G1 X-2.1 Y20 Z0.28 F5000.0 ;Move to start position
M109 S195.000000
G1 X-2.1 Y145.0 Z0.28 F1500.0 E15 ;Draw the first line
G1 X-2.4 Y145.0 Z0.28 F5000.0 ;Move to side a little
G1 X-2.4 Y20 Z0.28 F1500.0 E30 ;Draw the second line
G92 E0  ;Reset Extruder
G1 E-1.0000 F1800 ;Retract a bit
G1 Z2.0 F3000 ;Move Z Axis up
G1 E0.0000 F1800 

G92 E0
G92 E0
G1 F1800 E-1.2
;LAYER_COUNT:473

;LAYER:0
M106 S0
M204 S500
;;retract;;
G1 F1800 E0
G1 F1800 E-1.2
G0 F4800 X2.212 Y2.312 Z20.401
G0 X82.762 Y86.506 Z0.6
;TYPE:SKIRT
G1 F600 Z0.2
G1 F1800 E0
G1 F1500 X82.504 Y86.781 E0.01449
G1 X82.283 Y87.085 E0.02892
G1 X82.055 Y87.5 E0.04711
G1 X81.91 Y87.947 E0.06517
G1 X81.839 Y88.317 E0.07964
G1 X81.816 Y88.693 E0.09411
G1 X81.839 Y89.069 E0.10858
G1 X81.91 Y89.439 E0.12305
G1 X82.055 Y89.887 E0.14114
G1 X82.283 Y90.3 E0.15927
G1 X82.504 Y90.605 E0.17374
G1 X82.762 Y90.88 E0.18822
G1 X82.982 Y91.065 E0.19926
G1 X82.881 Y91.21 E0.20605
G1 X82.382 Y90.976 E0.22722
G1 X81.935 Y90.83 E0.24529
G1 X81.466 Y90.771 E0.26345
G1 X81.09 Y90.771 E0.27789
G1 X80.621 Y90.83 E0.29605
G1 X80.174 Y90.976 E0.31412
G1 X79.833 Y91.136 E0.32859
G1 X79.515 Y91.338 E0.34306
G1 X79.224 Y91.578 E0.35755
G1 X78.966 Y91.853 E0.37203
G1 X78.688 Y92.236 E0.39021
G1 X78.489 Y92.661 E0.40824
G1 X78.343 Y93.108 E0.42631
G1 X78.284 Y93.577 E0.44447
G1 X78.284 Y93.954 E0.45895
G1 X78.343 Y94.422 E0.47707
G1 X78.518 Y94.959 E0.49877
G1 X78.79 Y95.456 E0.52053
G1 X79.091 Y95.819 E0.53865
G1 X79.366 Y96.077 E0.55313
G1 X79.671 Y96.298 E0.5676
G1 X79.927 Y96.442 E0.57888
G1 X79.862 Y96.58 E0.58474
G1 X79.425 Y96.439 E0.60238
G1 X78.959 Y96.38 E0.62043
G1 X78.582 Y96.38 E0.63491
G1 X78.113 Y96.439 E0.65307
G1 X77.666 Y96.585 E0.67113
G1 X77.241 Y96.784 E0.68916
G1 X76.858 Y97.062 E0.70734
G1 X76.584 Y97.32 E0.7218
G1 X76.343 Y97.611 E0.73631
G1 X76.141 Y97.929 E0.75079
G1 X75.981 Y98.27 E0.76526
G1 X75.865 Y98.628 E0.77971
G1 X75.794 Y98.998 E0.79419
G1 X75.77 Y99.374 E0.80866
G1 X75.794 Y99.75 E0.82313
G1 X75.865 Y100.12 E0.83761
G1 X75.981 Y100.478 E0.85206
G1 X76.141 Y100.819 E0.86653
G1 X76.343 Y101.137 E0.88101
G1 X76.584 Y101.428 E0.89552
G1 X76.858 Y101.686 E0.90998
G1 X77.241 Y101.964 E0.92816
G1 X77.666 Y102.163 E0.94619
G1 X77.93 Y102.253 E0.9569
G1 X77.846 Y102.603 E0.97073
G1 X77.304 Y102.57 E0.99159
G1 X76.928 Y102.593 E1.00606
G1 X76.462 Y102.682 E1.02428
G1 X76.026 Y102.855 E1.0423
G1 X75.612 Y103.083 E1.06046
G1 X75.25 Y103.383 E1.07852
G1 X74.992 Y103.657 E1.09298
G1 X74.771 Y103.962 E1.10745
G1 X74.543 Y104.376 E1.12561
G1 X74.398 Y104.824 E1.14369
G1 X74.327 Y105.194 E1.15817
G1 X74.304 Y105.57 E1.17264
G1 X74.327 Y105.946 E1.18711
G1 X74.398 Y106.316 E1.20158
G1 X74.543 Y106.764 E1.21967
G1 X74.771 Y107.177 E1.23779
G1 X74.992 Y107.482 E1.25226
G1 X75.25 Y107.756 E1.26672
G1 X75.54 Y107.997 E1.28121
G1 X75.859 Y108.199 E1.29571
G1 X76.285 Y108.4 E1.31381
G1 X76.742 Y108.516 E1.33192
G1 X77.041 Y108.557 E1.34351
G1 X77.03 Y108.82 E1.35363
G1 X76.586 Y108.85 E1.37072
G1 X76.044 Y108.989 E1.39222
G1 X75.616 Y109.19 E1.41038
G1 X75.298 Y109.392 E1.42485
G1 X75.007 Y109.632 E1.43934
G1 X74.749 Y109.907 E1.45383
G1 X74.528 Y110.212 E1.4683
G1 X74.346 Y110.542 E1.48278
G1 X74.208 Y110.892 E1.49723
G1 X74.114 Y111.257 E1.51171
G1 X74.067 Y111.631 E1.52619
G1 X74.067 Y112.008 E1.54067
G1 X74.114 Y112.381 E1.55511
G1 X74.208 Y112.746 E1.56959
G1 X74.346 Y113.097 E1.58408
G1 X74.528 Y113.427 E1.59856
G1 X74.749 Y113.732 E1.61303
G1 X75.072 Y114.075 E1.63113
G1 X75.453 Y114.352 E1.64922
G1 X75.868 Y114.58 E1.66741
G1 X76.315 Y114.725 E1.68546
G1 X76.685 Y114.796 E1.69994
G1 X77.061 Y114.819 E1.71441
G1 X77.358 Y114.803 E1.72583
G1 X77.017 Y114.895 E1.7394
G1 X76.666 Y115.034 E1.7539
G1 X76.253 Y115.26 E1.77199
G1 X75.89 Y115.561 E1.79011
G1 X75.632 Y115.836 E1.80459
G1 X75.411 Y116.141 E1.81906
G1 X75.183 Y116.554 E1.83718
G1 X75.038 Y117.002 E1.85527
G1 X74.967 Y117.372 E1.86975
G1 X74.944 Y117.748 E1.88422
G1 X74.967 Y118.124 E1.89869
G1 X75.038 Y118.494 E1.91316
G1 X75.183 Y118.941 E1.93121
G1 X75.411 Y119.356 E1.9494
G1 X75.688 Y119.737 E1.9675
G1 X76.031 Y120.06 E1.9856
G1 X76.336 Y120.281 E2.00007
G1 X76.666 Y120.463 E2.01454
G1 X77.017 Y120.601 E2.02903
G1 X77.382 Y120.695 E2.04351
G1 X77.755 Y120.742 E2.05795
G1 X78.132 Y120.742 E2.07244
G1 X78.506 Y120.695 E2.08692
G1 X78.772 Y120.63 E2.09744
G1 X78.785 Y120.667 E2.09894
G1 X78.285 Y120.943 E2.12088
G1 X77.98 Y121.164 E2.13535
G1 X77.706 Y121.422 E2.14981
G1 X77.406 Y121.785 E2.1679
G1 X77.131 Y122.285 E2.18982
G1 X76.987 Y122.73 E2.20779
G1 X76.916 Y123.1 E2.22226
G1 X76.893 Y123.476 E2.23673
G1 X76.916 Y123.852 E2.25121
G1 X77.006 Y124.319 E2.26948
G1 X77.178 Y124.753 E2.28741
G1 X77.36 Y125.083 E2.30189
G1 X77.581 Y125.388 E2.31636
G1 X77.839 Y125.663 E2.33084
G1 X78.129 Y125.903 E2.3453
G1 X78.447 Y126.105 E2.35977
G1 X78.788 Y126.265 E2.37424
G1 X79.236 Y126.411 E2.39235
G1 X79.704 Y126.47 E2.41047
G1 X80.081 Y126.47 E2.42495
G1 X80.55 Y126.411 E2.44311
G1 X80.997 Y126.265 E2.46117
G1 X81.235 Y126.157 E2.47121
G1 X80.91 Y126.393 E2.48664
G1 X80.567 Y126.716 E2.50474
G1 X80.29 Y127.097 E2.52284
G1 X80.062 Y127.512 E2.54103
G1 X79.917 Y127.959 E2.55908
G1 X79.846 Y128.329 E2.57355
G1 X79.823 Y128.705 E2.58802
G1 X79.846 Y129.081 E2.6025
G1 X79.917 Y129.451 E2.61697
G1 X80.062 Y129.899 E2.63506
G1 X80.29 Y130.312 E2.65318
G1 X80.511 Y130.617 E2.66765
G1 X80.769 Y130.892 E2.68213
G1 X81.059 Y131.132 E2.6966
G1 X81.377 Y131.334 E2.71107
G1 X81.718 Y131.494 E2.72554
G1 X82.166 Y131.64 E2.74364
G1 X82.634 Y131.699 E2.76176
G1 X83.011 Y131.699 E2.77624
G1 X83.48 Y131.64 E2.7944
G1 X83.927 Y131.494 E2.81247
G1 X84.346 Y131.297 E2.83025
G1 X84.638 Y131.091 E2.84398
G1 X84.757 Y131.237 E2.85122
G1 X84.481 Y131.527 E2.86659
G1 X84.26 Y131.832 E2.88106
G1 X84.078 Y132.162 E2.89554
G1 X83.94 Y132.513 E2.91003
G1 X83.846 Y132.877 E2.92447
G1 X83.799 Y133.251 E2.93895
G1 X83.799 Y133.628 E2.95343
G1 X83.846 Y134.002 E2.96792
G1 X83.94 Y134.367 E2.98239
G1 X84.078 Y134.717 E2.99685
G1 X84.26 Y135.047 E3.01132
G1 X84.481 Y135.352 E3.02579
G1 X84.739 Y135.627 E3.04028
G1 X85.03 Y135.867 E3.05477
G1 X85.348 Y136.069 E3.06924
G1 X85.689 Y136.229 E3.08371
G1 X86.047 Y136.345 E3.09817
G1 X86.417 Y136.416 E3.11264
G1 X86.793 Y136.44 E3.12712
G1 X87.169 Y136.416 E3.14159
G1 X87.539 Y136.345 E3.15606
G1 X87.897 Y136.229 E3.17052
G1 X88.238 Y136.069 E3.18499
G1 X88.556 Y135.867 E3.19946
G1 X89.039 Y135.469 E3.2235
G1 X89.173 Y135.577 E3.23012
G1 X88.95 Y135.922 E3.2459
G1 X88.79 Y136.263 E3.26037
G1 X88.644 Y136.711 E3.27847
G1 X88.585 Y137.179 E3.29659
G1 X88.585 Y137.556 E3.31107
G1 X88.644 Y138.025 E3.32923
G1 X88.79 Y138.472 E3.34729
G1 X88.989 Y138.897 E3.36532
G1 X89.267 Y139.28 E3.3835
G1 X89.525 Y139.555 E3.39799
G1 X89.816 Y139.795 E3.41248
G1 X90.134 Y139.997 E3.42695
G1 X90.562 Y140.198 E3.44511
G1 X91.017 Y140.315 E3.46316
G1 X91.391 Y140.362 E3.47764
G1 X91.767 Y140.362 E3.49209
G1 X92.141 Y140.315 E3.50657
G1 X92.596 Y140.198 E3.52462
G1 X93.024 Y139.997 E3.54278
G1 X93.342 Y139.795 E3.55725
G1 X93.633 Y139.555 E3.57174
G1 X93.891 Y139.28 E3.58623
G1 X94.14 Y138.928 E3.60279
G1 X94.241 Y138.984 E3.60723
G1 X94.025 Y139.646 E3.63398
G1 X93.966 Y140.115 E3.65214
G1 X93.966 Y140.492 E3.66662
G1 X94.025 Y140.96 E3.68474
G1 X94.2 Y141.497 E3.70644
G1 X94.472 Y141.994 E3.7282
G1 X94.773 Y142.357 E3.74632
G1 X95.048 Y142.615 E3.7608
G1 X95.353 Y142.836 E3.77527
G1 X95.766 Y143.064 E3.7934
G1 X96.214 Y143.209 E3.81148
G1 X96.584 Y143.28 E3.82596
G1 X96.96 Y143.303 E3.84043
G1 X97.336 Y143.28 E3.8549
G1 X97.706 Y143.209 E3.86937
G1 X98.151 Y143.065 E3.88734
G1 X98.651 Y142.791 E3.90924
G1 X99.087 Y142.43 E3.93099
G1 X99.447 Y141.995 E3.95268
G1 X99.792 Y141.365 E3.98027
G1 X99.713 Y141.988 E4.0044
G1 X99.713 Y142.365 E4.01888
G1 X99.772 Y142.834 E4.03704
G1 X99.918 Y143.281 E4.0551
G1 X100.078 Y143.622 E4.06957
G1 X100.28 Y143.94 E4.08405
G1 X100.581 Y144.303 E4.10216
G1 X100.944 Y144.604 E4.12028
G1 X101.262 Y144.806 E4.13475
G1 X101.603 Y144.966 E4.14922
G1 X102.05 Y145.112 E4.16728
G1 X102.519 Y145.171 E4.18544
G1 X102.896 Y145.171 E4.19992
G1 X103.364 Y145.112 E4.21805
G1 X103.901 Y144.937 E4.23974
G1 X104.398 Y144.665 E4.26151
G1 X104.761 Y144.364 E4.27962
G1 X105.019 Y144.089 E4.29411
G1 X105.24 Y143.784 E4.30858
G1 X105.468 Y143.371 E4.3267
G1 X105.665 Y142.761 E4.35132
G1 X105.65 Y143.067 E4.36309
G1 X105.708 Y143.528 E4.38094
G1 X105.802 Y143.893 E4.39542
G1 X105.941 Y144.244 E4.40992
G1 X106.167 Y144.657 E4.42801
G1 X106.468 Y145.02 E4.44613
G1 X106.743 Y145.278 E4.46061
G1 X107.048 Y145.499 E4.47508
G1 X107.461 Y145.727 E4.4932
G1 X107.909 Y145.872 E4.51129
G1 X108.279 Y145.943 E4.52577
G1 X108.655 Y145.966 E4.54024
G1 X109.031 Y145.943 E4.55471
G1 X109.401 Y145.872 E4.56918
G1 X109.849 Y145.727 E4.58727
G1 X110.263 Y145.499 E4.60543
G1 X110.568 Y145.278 E4.6199
G1 X110.842 Y145.02 E4.63435
G1 X111.142 Y144.658 E4.65241
G1 X111.416 Y144.16 E4.67425
G1 X111.561 Y143.712 E4.69234
G1 X111.632 Y143.342 E4.70681
G1 X111.654 Y142.947 E4.72201
G1 X111.696 Y143.225 E4.73281
G1 X111.789 Y143.59 E4.74728
G1 X111.962 Y144.026 E4.7653
G1 X112.215 Y144.426 E4.78348
G1 X112.456 Y144.716 E4.79797
G1 X112.8 Y145.04 E4.81612
G1 X113.197 Y145.292 E4.83418
G1 X113.538 Y145.452 E4.84865
G1 X113.896 Y145.568 E4.86311
G1 X114.267 Y145.639 E4.87762
G1 X114.643 Y145.663 E4.8921
G1 X115.019 Y145.639 E4.90657
G1 X115.389 Y145.568 E4.92104
G1 X115.747 Y145.452 E4.9355
G1 X116.088 Y145.292 E4.94997
G1 X116.406 Y145.09 E4.96444
G1 X116.696 Y144.849 E4.97893
G1 X117.02 Y144.505 E4.99708
G1 X117.323 Y144.026 E5.01885
G1 X117.529 Y143.506 E5.04034
G1 X117.637 Y142.946 E5.06225
G1 X117.637 Y142.474 E5.08038
G1 X117.59 Y142.107 E5.09459
G1 X117.606 Y142.103 E5.09523
G1 X117.699 Y142.379 E5.10642
G1 X117.86 Y142.72 E5.1209
G1 X118.061 Y143.038 E5.13535
G1 X118.302 Y143.328 E5.14984
G1 X118.646 Y143.652 E5.16799
G1 X119.125 Y143.955 E5.18977
G1 X119.645 Y144.161 E5.21125
G1 X120.205 Y144.269 E5.23316
G1 X120.677 Y144.269 E5.25129
G1 X121.051 Y144.221 E5.26578
G1 X121.416 Y144.128 E5.28025
G1 X121.852 Y143.955 E5.29827
G1 X122.252 Y143.702 E5.31645
G1 X122.542 Y143.461 E5.33094
G1 X122.866 Y143.117 E5.34909
G1 X123.169 Y142.638 E5.37086
G1 X123.376 Y142.118 E5.39236
G1 X123.483 Y141.555 E5.41438
G1 X123.483 Y140.992 E5.43601
G1 X123.394 Y140.528 E5.45416
G1 X123.288 Y140.198 E5.46747
G1 X123.301 Y140.193 E5.46801
G1 X123.497 Y140.546 E5.48352
G1 X123.798 Y140.911 E5.50169
G1 X124.073 Y141.169 E5.51618
G1 X124.378 Y141.39 E5.53065
G1 X124.708 Y141.572 E5.54512
G1 X125.058 Y141.71 E5.55958
G1 X125.423 Y141.804 E5.57406
G1 X125.797 Y141.851 E5.58854
G1 X126.174 Y141.851 E5.60302
G1 X126.547 Y141.804 E5.61746
G1 X126.912 Y141.71 E5.63194
G1 X127.263 Y141.572 E5.64643
G1 X127.677 Y141.344 E5.66459
G1 X128.039 Y141.044 E5.68265
G1 X128.297 Y140.769 E5.69713
G1 X128.518 Y140.465 E5.71157
G1 X128.7 Y140.134 E5.72608
G1 X128.874 Y139.694 E5.74426
G1 X128.962 Y139.233 E5.76229
G1 X128.985 Y138.857 E5.77676
G1 X128.962 Y138.481 E5.79123
G1 X128.874 Y138.02 E5.80926
G1 X128.7 Y137.58 E5.82743
G1 X128.539 Y137.285 E5.84035
G1 X128.675 Y137.19 E5.84672
G1 X128.884 Y137.44 E5.85924
G1 X129.158 Y137.698 E5.87369
G1 X129.463 Y137.919 E5.88816
G1 X129.871 Y138.144 E5.90606
G1 X130.413 Y138.321 E5.92797
G1 X130.882 Y138.38 E5.94612
G1 X131.259 Y138.38 E5.96061
G1 X131.633 Y138.333 E5.97509
G1 X131.998 Y138.239 E5.98957
G1 X132.348 Y138.101 E6.00402
G1 X132.678 Y137.919 E6.0185
G1 X132.983 Y137.698 E6.03297
G1 X133.257 Y137.44 E6.04742
G1 X133.561 Y137.074 E6.0657
G1 X133.785 Y136.663 E6.08368
G1 X133.957 Y136.229 E6.10162
G1 X134.047 Y135.762 E6.11989
G1 X134.071 Y135.386 E6.13436
G1 X134.047 Y135.01 E6.14883
G1 X133.957 Y134.543 E6.1671
G1 X133.785 Y134.109 E6.18504
G1 X133.559 Y133.697 E6.20309
G1 X133.284 Y133.363 E6.21971
G1 X133.384 Y133.263 E6.22514
G1 X133.638 Y133.471 E6.23775
G1 X133.956 Y133.673 E6.25223
G1 X134.297 Y133.833 E6.2667
G1 X134.744 Y133.979 E6.28476
G1 X135.213 Y134.038 E6.30292
G1 X135.589 Y134.038 E6.31736
G1 X136.058 Y133.979 E6.33552
G1 X136.505 Y133.833 E6.35359
G1 X136.846 Y133.673 E6.36806
G1 X137.164 Y133.471 E6.38253
G1 X137.525 Y133.174 E6.40049
G1 X137.828 Y132.807 E6.41877
