;FLAVOR:Marlin
;TIME:2329.79
;Filament used:3.05656m
;Material Diameter:1.75
;Material Density:1.24
;Filament Cost:0.182327
;Filament Weight:9.116339
;Filament Length:3.056559
;Layer height:0.2
;MINX:3.182
;MINY:0.337
;MINZ:0.2
;MAXX:122.994
;MAXY:213.006
;MAXZ:20.401
;OuterWall Time:185.733
;InnerWall Time:128.261
;Skin Time:1788.55
;Support Time:0
;SkirtBrim Time:29.5016
;Infill Time:25.0966
;Support Infills Time:0
;Combing Time:31.7679
;Retraction Time:140.883
;PrimeTower Time:0
;;;;;;;;;;;;;;;;;;;;;;;;;;;;;;;;;;;;;;;;;;;;;;;;;;;;;;;;;;;;;;;;;;;;;;;
;Creality Print GCode Generated by CXEngine
;CRSLICE_GIT_HASH:58ee74d
;Creality Print Version : V4.3.8.6984
;CXEngine Release Time:2023-12-04 18:16:29
;Gcode Generated Time:2024-08-02 17:36:52
;----------Machine Config--------------
;Machine Name:Ender-3 V3 SE
;Machine Height:250
;Machine Width:220
;Machine Depth:220
;Material Type:PLA
;Material Name:CR-PLA_1.75
;Number of Extruders:1
;ExtruderParams[0] Nozzle Diameter:1000
;----------Profile Config---------------
;Wall Thickness:0.8
;Top/Bottom Thickness:0.8
;Out Wall Line Width:0.42
;Inner Wall Line Width:0.45
;Inital Height:200
;Wall Line Count:2
;Infill Line Distance:18
;Infill Pattern:grid
;Infill Sparse Density:5
;Infill Wipe Distance:0
;Print Temperature:195
;Bed Temperature:60
;Support Enable:false
;Support Density:15
;Support Angle:60
;Adhesion Type:lace
;machine is belt:false
;machine belt offset:10
;machine belt offset Y:0
;Raft Base Line Spacing:1.6
;Wait Heatup Sync:true
;Enable Ironing:false
;Material Type:PLA
;Max volumetric speed:20
;Preview Img Type:png
;Screen Size:Sermoon D3
;----------Shell Config----------------
;Outer Wall Wipe Distance:2000
;Outer Inset First:false
;Infill Before Walls:false
;Infill Overlap:0.14
;Fill Gaps Between Walls:everywhere
;Minimum Infill Area:30
;Top Surface Skin Layer:0
;Top Layers:4
;Z Seam Alignment:sharpest_corner
;Seam Corner Preference:z_seam_corner_inner
;Z Seam X:110
;Z Seam Y:220
;Horizontal Expansion:0
;Top/Bottom Pattern:zigzag
;Ironing Pattern:zigzag
;Vase Model:false
;----------Support Config----------------
;Support Type:everywhere
;Support Pattern:zigzag
;Support Infill Layer Thickness:0.2
;Minimum Support Area:1
;Enable Support Roof:true
;Support Roof Thickness:0.8
;Support Roof Pattern:lines
;Connect Support Lines:0
;Connect Support ZigZags:1
;Minimum Support X/Y Distance:0.2
;Support Line Distance:2.67
; ---------PrintSpeed & Travel----------
;Enable Print Cool:true
;Avoid Printed Parts Traveling:true
;Enable Retraction:true
;Retraction Distance:1.2
;Retraction Speed:30
;Retraction Prime Speed:30
;Maximum Retraction Count:100
;Minimum Extrusion Distance Window:0.8
;Z Hop When Retracted:true
;Z Hop Height:0.4
;Retract Before Outer Wall:true

;Outer Wall Speed:60
;Inner Wall Speed:90
;Infill Speed:180
;Top/Bottom Speed:50
;Travel Speed:150
;Initial Layer Speed:20
;Skirt/Brim Speed:25
;Prime Tower Speed:60
;Outer Wall Acceleration:1000
;Inner Wall Acceleration:2000
;Infill Acceleration:2500
;Top/Bottom Acceleration:2500
;Travel Acceleration:2500
;Initial Layer Print Acceleration:500
;Initial Layer Travel Acceleration:500
;Skirt/Brim Acceleration:500
;Combing Mode:off
; --------SpecialModel&Mesh Fixes--------
;Union Overlapping Volum:true
;Remove All Holes:false
;Maximum Travel Resolution:0.25
;Maximum Deviation:0.05
;Maximum Model Angle:0.872665
;IS Mold Print:false
;Make Overhang Printable:false
;Enable Coasting:false
;Coasting Volumes:0.064
;Coasting Speed:0.9
;Raft AirGap:0.25
;Layer0 ZOverLap:0.13
;Adaptive Layers:0
;---------------------End of Head--------------------------
M140 S60
M105
M190 S60
M104 S195
M82 ;absolute extrusion mode
M220 S100 ;Reset Feedrate
M221 S100 ;Reset Flowrate

G28 ;Home

G92 E0 ;Reset Extruder
G1 Z2.0 F3000 ;Move Z Axis up
G1 X-2.1 Y20 Z0.28 F5000.0 ;Move to start position
M109 S195.000000
G1 X-2.1 Y145.0 Z0.28 F1500.0 E15 ;Draw the first line
G1 X-2.4 Y145.0 Z0.28 F5000.0 ;Move to side a little
G1 X-2.4 Y20 Z0.28 F1500.0 E30 ;Draw the second line
G92 E0  ;Reset Extruder
G1 E-1.0000 F1800 ;Retract a bit
G1 Z2.0 F3000 ;Move Z Axis up
G1 E0.0000 F1800 

G92 E0
G92 E0
G1 F1800 E-1.2
;LAYER_COUNT:35

;LAYER:0
M106 S0
M204 S500
;;retract;;
G1 F1800 E0
G1 F1800 E-1.2
G0 F4800 X3.182 Y0.337 Z20.401
G0 X97.008 Y10.294 Z0.6
;TYPE:SKIRT
G1 F600 Z0.2
G1 F1800 E0
G1 F1500 X97.008 Y10.67 E0.01444
G1 X97.067 Y11.139 E0.0326
G1 X97.213 Y11.586 E0.05067
G1 X97.373 Y11.927 E0.06514
G1 X97.575 Y12.245 E0.07961
G1 X97.815 Y12.536 E0.0941
G1 X98.09 Y12.794 E0.10859
G1 X98.395 Y13.015 E0.12306
G1 X98.725 Y13.197 E0.13753
G1 X99.075 Y13.335 E0.15199
G1 X99.44 Y13.429 E0.16646
G1 X100 Y13.499 E0.18814
G1 X100 Y13.555 E0.1903
G1 X99.342 Y13.638 E0.21577
G1 X98.895 Y13.784 E0.23384
G1 X98.554 Y13.944 E0.24831
G1 X98.236 Y14.146 E0.26278
G1 X97.873 Y14.446 E0.28087
G1 X97.572 Y14.81 E0.29902
G1 X97.319 Y15.21 E0.3172
G1 X97.113 Y15.73 E0.33868
G1 X97.005 Y16.29 E0.36059
G1 X97.005 Y16.856 E0.38234
G1 X97.113 Y17.416 E0.40425
G1 X97.285 Y17.85 E0.42218
G1 X97.513 Y18.265 E0.44037
G1 X97.813 Y18.627 E0.45843
G1 X98.087 Y18.885 E0.47289
G1 X98.392 Y19.106 E0.48736
G1 X98.722 Y19.288 E0.50183
G1 X99.072 Y19.426 E0.51629
G1 X99.437 Y19.52 E0.53077
G1 X99.857 Y19.573 E0.54703
G1 X99.342 Y19.638 E0.56697
G1 X98.895 Y19.784 E0.58503
G1 X98.554 Y19.944 E0.5995
G1 X98.236 Y20.146 E0.61398
G1 X97.873 Y20.446 E0.63207
G1 X97.572 Y20.81 E0.65021
G1 X97.319 Y21.21 E0.66839
G1 X97.113 Y21.73 E0.68988
G1 X97.005 Y22.29 E0.71179
G1 X97.005 Y22.856 E0.73353
G1 X97.113 Y23.416 E0.75544
G1 X97.285 Y23.85 E0.77338
G1 X97.513 Y24.265 E0.79157
G1 X97.813 Y24.627 E0.80963
G1 X98.087 Y24.885 E0.82408
G1 X98.392 Y25.106 E0.83855
G1 X98.722 Y25.288 E0.85303
G1 X99.072 Y25.426 E0.86748
G1 X99.437 Y25.52 E0.88196
G1 X99.857 Y25.573 E0.89823
G1 X99.342 Y25.638 E0.91817
G1 X98.895 Y25.784 E0.93623
G1 X98.554 Y25.944 E0.9507
G1 X98.236 Y26.146 E0.96517
G1 X97.873 Y26.446 E0.98326
G1 X97.572 Y26.81 E1.00141
G1 X97.319 Y27.21 E1.01959
G1 X97.113 Y27.73 E1.04108
G1 X97.005 Y28.29 E1.06299
G1 X97.005 Y28.856 E1.08473
G1 X97.113 Y29.416 E1.10664
G1 X97.285 Y29.85 E1.12457
G1 X97.513 Y30.265 E1.14276
G1 X97.813 Y30.627 E1.16082
G1 X98.087 Y30.885 E1.17528
G1 X98.392 Y31.106 E1.18975
G1 X98.722 Y31.288 E1.20423
G1 X99.072 Y31.426 E1.21868
G1 X99.437 Y31.52 E1.23316
G1 X99.857 Y31.573 E1.24942
G1 X99.342 Y31.638 E1.26936
G1 X98.895 Y31.784 E1.28743
G1 X98.554 Y31.944 E1.3019
G1 X98.236 Y32.146 E1.31637
G1 X97.873 Y32.446 E1.33446
G1 X97.572 Y32.81 E1.35261
G1 X97.319 Y33.21 E1.37079
G1 X97.113 Y33.73 E1.39227
G1 X97.005 Y34.29 E1.41418
G1 X97.005 Y34.856 E1.43593
G1 X97.113 Y35.416 E1.45784
G1 X97.285 Y35.85 E1.47577
G1 X97.513 Y36.265 E1.49396
G1 X97.813 Y36.627 E1.51202
G1 X98.087 Y36.885 E1.52648
G1 X98.392 Y37.106 E1.54095
G1 X98.722 Y37.288 E1.55542
G1 X99.072 Y37.426 E1.56988
G1 X99.437 Y37.52 E1.58436
G1 X99.857 Y37.573 E1.60062
G1 X99.342 Y37.638 E1.62056
G1 X98.895 Y37.784 E1.63862
G1 X98.554 Y37.944 E1.65309
G1 X98.236 Y38.146 E1.66757
G1 X97.873 Y38.446 E1.68566
G1 X97.572 Y38.81 E1.7038
G1 X97.319 Y39.21 E1.72198
G1 X97.113 Y39.73 E1.74347
G1 X97.005 Y40.29 E1.76538
G1 X97.005 Y40.856 E1.78712
G1 X97.113 Y41.416 E1.80903
G1 X97.285 Y41.85 E1.82697
G1 X97.513 Y42.265 E1.84516
G1 X97.813 Y42.627 E1.86322
G1 X98.087 Y42.885 E1.87767
G1 X98.392 Y43.106 E1.89214
G1 X98.722 Y43.288 E1.90662
G1 X99.072 Y43.426 E1.92107
G1 X99.437 Y43.52 E1.93555
G1 X99.857 Y43.573 E1.95182
G1 X99.342 Y43.638 E1.97176
G1 X98.895 Y43.784 E1.98982
G1 X98.554 Y43.944 E2.00429
G1 X98.236 Y44.146 E2.01876
G1 X97.873 Y44.446 E2.03685
G1 X97.572 Y44.81 E2.055
G1 X97.319 Y45.21 E2.07318
G1 X97.113 Y45.73 E2.09467
G1 X97.005 Y46.29 E2.11658
G1 X97.005 Y46.856 E2.13832
G1 X97.113 Y47.416 E2.16023
G1 X97.285 Y47.85 E2.17816
G1 X97.513 Y48.265 E2.19635
G1 X97.813 Y48.627 E2.21441
G1 X98.087 Y48.885 E2.22887
G1 X98.392 Y49.106 E2.24334
G1 X98.722 Y49.288 E2.25782
G1 X99.072 Y49.426 E2.27227
G1 X99.437 Y49.52 E2.28675
G1 X99.857 Y49.573 E2.30301
G1 X99.342 Y49.638 E2.32295
G1 X98.895 Y49.784 E2.34102
G1 X98.554 Y49.944 E2.35549
G1 X98.236 Y50.146 E2.36996
G1 X97.873 Y50.446 E2.38805
G1 X97.572 Y50.81 E2.4062
G1 X97.319 Y51.21 E2.42438
G1 X97.113 Y51.73 E2.44586
G1 X97.005 Y52.29 E2.46777
G1 X97.005 Y52.856 E2.48952
G1 X97.113 Y53.416 E2.51142
G1 X97.285 Y53.85 E2.52936
G1 X97.513 Y54.265 E2.54755
G1 X97.813 Y54.627 E2.56561
G1 X98.087 Y54.885 E2.58007
G1 X98.392 Y55.106 E2.59454
G1 X98.722 Y55.288 E2.60901
G1 X99.072 Y55.426 E2.62347
G1 X99.437 Y55.52 E2.63795
G1 X99.857 Y55.573 E2.65421
G1 X99.342 Y55.638 E2.67415
G1 X98.895 Y55.784 E2.69221
G1 X98.554 Y55.944 E2.70668
G1 X98.236 Y56.146 E2.72116
G1 X97.873 Y56.446 E2.73925
G1 X97.572 Y56.81 E2.75739
G1 X97.319 Y57.21 E2.77557
G1 X97.113 Y57.73 E2.79706
G1 X97.005 Y58.29 E2.81897
G1 X97.005 Y58.856 E2.84071
G1 X97.113 Y59.416 E2.86262
G1 X97.285 Y59.85 E2.88056
G1 X97.513 Y60.265 E2.89875
G1 X97.813 Y60.627 E2.91681
G1 X98.087 Y60.885 E2.93126
G1 X98.392 Y61.106 E2.94573
G1 X98.722 Y61.288 E2.96021
G1 X99.072 Y61.426 E2.97466
G1 X99.437 Y61.52 E2.98914
G1 X99.857 Y61.573 E3.0054
G1 X99.342 Y61.638 E3.02535
G1 X98.895 Y61.784 E3.04341
G1 X98.554 Y61.944 E3.05788
G1 X98.236 Y62.146 E3.07235
G1 X97.873 Y62.446 E3.09044
G1 X97.572 Y62.81 E3.10859
G1 X97.319 Y63.21 E3.12677
G1 X97.113 Y63.73 E3.14826
G1 X97.005 Y64.29 E3.17017
G1 X97.005 Y64.856 E3.19191
G1 X97.113 Y65.416 E3.21382
G1 X97.285 Y65.85 E3.23175
G1 X97.513 Y66.265 E3.24994
G1 X97.813 Y66.627 E3.268
G1 X98.087 Y66.885 E3.28246
G1 X98.392 Y67.106 E3.29693
G1 X98.722 Y67.288 E3.31141
G1 X99.072 Y67.426 E3.32586
G1 X99.437 Y67.52 E3.34034
G1 X99.857 Y67.573 E3.3566
G1 X99.342 Y67.638 E3.37654
G1 X98.895 Y67.784 E3.39461
G1 X98.554 Y67.944 E3.40908
G1 X98.236 Y68.146 E3.42355
G1 X97.873 Y68.446 E3.44164
G1 X97.572 Y68.81 E3.45978
G1 X97.319 Y69.21 E3.47797
G1 X97.113 Y69.73 E3.49945
G1 X97.005 Y70.29 E3.52136
G1 X97.005 Y70.856 E3.54311
G1 X97.113 Y71.416 E3.56501
G1 X97.285 Y71.85 E3.58295
G1 X97.513 Y72.265 E3.60114
G1 X97.813 Y72.627 E3.6192
G1 X98.087 Y72.885 E3.63366
G1 X98.392 Y73.106 E3.64813
G1 X98.722 Y73.288 E3.6626
G1 X99.072 Y73.426 E3.67706
G1 X99.437 Y73.52 E3.69154
G1 X99.857 Y73.573 E3.7078
G1 X99.342 Y73.638 E3.72774
G1 X98.895 Y73.784 E3.7458
G1 X98.554 Y73.944 E3.76027
G1 X98.236 Y74.146 E3.77475
G1 X97.873 Y74.446 E3.79284
G1 X97.572 Y74.81 E3.81098
G1 X97.319 Y75.21 E3.82916
G1 X97.113 Y75.73 E3.85065
G1 X97.005 Y76.29 E3.87256
G1 X97.005 Y76.856 E3.8943
G1 X97.113 Y77.416 E3.91621
G1 X97.285 Y77.85 E3.93414
G1 X97.513 Y78.265 E3.95233
G1 X97.813 Y78.627 E3.9704
G1 X98.087 Y78.885 E3.98485
G1 X98.392 Y79.106 E3.99932
G1 X98.722 Y79.288 E4.0138
G1 X99.072 Y79.426 E4.02825
G1 X99.437 Y79.52 E4.04273
G1 X99.857 Y79.573 E4.05899
G1 X99.342 Y79.638 E4.07894
G1 X98.895 Y79.784 E4.097
G1 X98.554 Y79.944 E4.11147
G1 X98.236 Y80.146 E4.12594
G1 X97.873 Y80.446 E4.14403
G1 X97.572 Y80.81 E4.16218
G1 X97.319 Y81.21 E4.18036
G1 X97.113 Y81.73 E4.20185
G1 X97.005 Y82.29 E4.22376
G1 X97.005 Y82.856 E4.2455
G1 X97.113 Y83.416 E4.26741
G1 X97.285 Y83.85 E4.28534
G1 X97.513 Y84.265 E4.30353
G1 X97.813 Y84.627 E4.32159
G1 X98.087 Y84.885 E4.33605
G1 X98.392 Y85.106 E4.35052
G1 X98.722 Y85.288 E4.365
G1 X99.072 Y85.426 E4.37945
G1 X99.437 Y85.52 E4.39393
G1 X99.857 Y85.573 E4.41019
G1 X99.342 Y85.638 E4.43013
G1 X98.895 Y85.784 E4.4482
G1 X98.554 Y85.944 E4.46267
G1 X98.236 Y86.146 E4.47714
G1 X97.873 Y86.446 E4.49523
G1 X97.572 Y86.81 E4.51337
G1 X97.319 Y87.21 E4.53156
G1 X97.113 Y87.73 E4.55304
G1 X97.005 Y88.29 E4.57495
G1 X97.005 Y88.856 E4.59669
G1 X97.113 Y89.416 E4.6186
G1 X97.285 Y89.85 E4.63654
G1 X97.513 Y90.265 E4.65473
G1 X97.813 Y90.627 E4.67279
G1 X98.087 Y90.885 E4.68725
G1 X98.392 Y91.106 E4.70172
G1 X98.722 Y91.288 E4.71619
G1 X99.072 Y91.426 E4.73065
G1 X99.437 Y91.52 E4.74513
G1 X99.857 Y91.573 E4.76139
G1 X99.342 Y91.638 E4.78133
G1 X98.895 Y91.784 E4.79939
G1 X98.554 Y91.944 E4.81386
G1 X98.236 Y92.146 E4.82834
G1 X97.873 Y92.446 E4.84643
G1 X97.572 Y92.81 E4.86457
G1 X97.319 Y93.21 E4.88275
G1 X97.113 Y93.73 E4.90424
G1 X97.005 Y94.29 E4.92615
G1 X97.005 Y94.856 E4.94789
G1 X97.113 Y95.416 E4.9698
G1 X97.285 Y95.85 E4.98773
G1 X97.513 Y96.265 E5.00592
G1 X97.813 Y96.627 E5.02399
G1 X98.087 Y96.885 E5.03844
G1 X98.392 Y97.106 E5.05291
G1 X98.722 Y97.288 E5.06739
G1 X99.072 Y97.426 E5.08184
G1 X99.437 Y97.52 E5.09632
G1 X99.857 Y97.573 E5.11258
G1 X99.342 Y97.638 E5.13252
G1 X98.895 Y97.784 E5.15059
G1 X98.554 Y97.944 E5.16506
G1 X98.236 Y98.146 E5.17953
G1 X97.873 Y98.446 E5.19762
G1 X97.572 Y98.81 E5.21577
G1 X97.319 Y99.21 E5.23395
G1 X97.113 Y99.73 E5.25544
G1 X97.005 Y100.29 E5.27734
G1 X97.005 Y100.856 E5.29909
G1 X97.113 Y101.416 E5.321
G1 X97.285 Y101.85 E5.33893
G1 X97.513 Y102.265 E5.35712
G1 X97.813 Y102.627 E5.37518
G1 X98.087 Y102.885 E5.38964
G1 X98.392 Y103.106 E5.40411
G1 X98.722 Y103.288 E5.41859
G1 X99.072 Y103.426 E5.43304
G1 X99.437 Y103.52 E5.44752
G1 X99.857 Y103.573 E5.46378
G1 X99.342 Y103.638 E5.48372
G1 X98.895 Y103.784 E5.50179
G1 X98.554 Y103.944 E5.51626
G1 X98.236 Y104.146 E5.53073
G1 X97.873 Y104.446 E5.54882
G1 X97.572 Y104.81 E5.56696
G1 X97.319 Y105.21 E5.58515
G1 X97.113 Y105.73 E5.60663
G1 X97.005 Y106.29 E5.62854
G1 X97.005 Y106.856 E5.65028
G1 X97.113 Y107.416 E5.67219
G1 X97.285 Y107.85 E5.69013
G1 X97.513 Y108.265 E5.70832
G1 X97.813 Y108.627 E5.72638
G1 X98.087 Y108.885 E5.74084
G1 X98.392 Y109.106 E5.75531
G1 X98.722 Y109.288 E5.76978
G1 X99.072 Y109.426 E5.78424
G1 X99.437 Y109.52 E5.79871
G1 X99.857 Y109.573 E5.81498
G1 X99.342 Y109.638 E5.83492
G1 X98.895 Y109.784 E5.85298
G1 X98.554 Y109.944 E5.86745
G1 X98.236 Y110.146 E5.88192
G1 X97.873 Y110.446 E5.90002
G1 X97.572 Y110.81 E5.91816
G1 X97.319 Y111.21 E5.93634
G1 X97.113 Y111.73 E5.95783
G1 X97.005 Y112.29 E5.97974
G1 X97.005 Y112.856 E6.00148
G1 X97.113 Y113.416 E6.02339
G1 X97.285 Y113.85 E6.04132
G1 X97.513 Y114.265 E6.05951
G1 X97.813 Y114.627 E6.07758
G1 X98.087 Y114.885 E6.09203
G1 X98.392 Y115.106 E6.1065
G1 X98.722 Y115.288 E6.12098
G1 X99.072 Y115.426 E6.13543
G1 X99.437 Y115.52 E6.14991
G1 X99.857 Y115.573 E6.16617
G1 X99.342 Y115.638 E6.18611
G1 X98.895 Y115.784 E6.20418
G1 X98.554 Y115.944 E6.21865
G1 X98.236 Y116.146 E6.23312
G1 X97.873 Y116.446 E6.25121
G1 X97.572 Y116.81 E6.26936
G1 X97.319 Y117.21 E6.28754
G1 X97.113 Y117.73 E6.30903
G1 X97.005 Y118.29 E6.33093
G1 X97.005 Y118.856 E6.35268
G1 X97.113 Y119.416 E6.37459
G1 X97.285 Y119.85 E6.39252
G1 X97.513 Y120.265 E6.41071
G1 X97.813 Y120.627 E6.42877
G1 X98.087 Y120.885 E6.44323
G1 X98.392 Y121.106 E6.4577
G1 X98.722 Y121.288 E6.47218
G1 X99.072 Y121.426 E6.48663
G1 X99.437 Y121.52 E6.50111
G1 X99.857 Y121.573 E6.51737
G1 X99.342 Y121.638 E6.53731
G1 X98.895 Y121.784 E6.55538
G1 X98.554 Y121.944 E6.56985
G1 X98.236 Y122.146 E6.58432
G1 X97.873 Y122.446 E6.60241
G1 X97.572 Y122.81 E6.62055
G1 X97.319 Y123.21 E6.63874
G1 X97.113 Y123.73 E6.66022
G1 X97.005 Y124.29 E6.68213
G1 X97.005 Y124.856 E6.70387
G1 X97.113 Y125.416 E6.72578
G1 X97.285 Y125.85 E6.74372
G1 X97.513 Y126.265 E6.76191
G1 X97.813 Y126.627 E6.77997
G1 X98.087 Y126.885 E6.79443
G1 X98.392 Y127.106 E6.80889
G1 X98.722 Y127.288 E6.82337
G1 X99.072 Y127.426 E6.83783
G1 X99.437 Y127.52 E6.8523
G1 X99.857 Y127.573 E6.86857
G1 X99.342 Y127.638 E6.88851
G1 X98.895 Y127.784 E6.90657
G1 X98.554 Y127.944 E6.92104
G1 X98.236 Y128.146 E6.93551
G1 X97.873 Y128.446 E6.95361
G1 X97.572 Y128.81 E6.97175
G1 X97.319 Y129.21 E6.98993
G1 X97.113 Y129.73 E7.01142
G1 X97.005 Y130.29 E7.03333
G1 X97.005 Y130.856 E7.05507
G1 X97.113 Y131.416 E7.07698
G1 X97.285 Y131.85 E7.09491
G1 X97.513 Y132.265 E7.1131
G1 X97.813 Y132.627 E7.13116
G1 X98.087 Y132.885 E7.14562
G1 X98.392 Y133.106 E7.16009
G1 X98.722 Y133.288 E7.17457
G1 X99.072 Y133.426 E7.18902
G1 X99.437 Y133.52 E7.2035
G1 X99.857 Y133.573 E7.21976
G1 X99.342 Y133.638 E7.2397
G1 X98.895 Y133.784 E7.25777
G1 X98.554 Y133.944 E7.27224
G1 X98.236 Y134.146 E7.28671
G1 X97.873 Y134.446 E7.3048
