;FLAVOR:Marlin
;TIME:2390.43
;Filament used:3.26716m
;Material Diameter:1.75
;Material Density:1.24
;Filament Cost:0.194889
;Filament Weight:9.744471
;Filament Length:3.267161
;Layer height:0.2
;MINX:2.297
;MINY:2.227
;MINZ:0.2
;MAXX:188.757
;MAXY:189.529
;MAXZ:20.401
;OuterWall Time:183.697
;InnerWall Time:127.216
;Skin Time:1805
;Support Time:0
;SkirtBrim Time:30.2332
;Infill Time:54.8126
;Support Infills Time:0
;Combing Time:31.6033
;Retraction Time:157.875
;PrimeTower Time:0
;;;;;;;;;;;;;;;;;;;;;;;;;;;;;;;;;;;;;;;;;;;;;;;;;;;;;;;;;;;;;;;;;;;;;;;;;;
;Creality Print GCode Generated by CXEngine
;CRSLICE_GIT_HASH:58ee74d
;Creality Print Version : V4.3.8.6984
;CXEngine Release Time:2023-12-04 18:16:29
;Gcode Generated Time:2024-08-09 17:54:03
;----------Machine Config--------------
;Machine Name:Ender-3 V3 SE
;Machine Height:250
;Machine Width:220
;Machine Depth:220
;Material Type:PLA
;Material Name:CR-PLA_1.75
;Number of Extruders:1
;ExtruderParams[0] Nozzle Diameter:1000
;----------Profile Config---------------
;Wall Thickness:0.8
;Top/Bottom Thickness:0.8
;Out Wall Line Width:0.42
;Inner Wall Line Width:0.45
;Inital Height:200
;Wall Line Count:2
;Infill Line Distance:8
;Infill Pattern:grid
;Infill Sparse Density:10
;Infill Wipe Distance:0
;Print Temperature:195
;Bed Temperature:60
;Support Enable:false
;Support Density:15
;Support Angle:60
;Adhesion Type:lace
;machine is belt:false
;machine belt offset:10
;machine belt offset Y:0
;Raft Base Line Spacing:1.6
;Wait Heatup Sync:true
;Enable Ironing:false
;Material Type:PLA
;Max volumetric speed:20
;Preview Img Type:png
;Screen Size:Sermoon D3
;----------Shell Config----------------
;Outer Wall Wipe Distance:2000
;Outer Inset First:false
;Infill Before Walls:false
;Infill Overlap:0.09
;Fill Gaps Between Walls:everywhere
;Minimum Infill Area:30
;Top Surface Skin Layer:0
;Top Layers:4
;Z Seam Alignment:sharpest_corner
;Seam Corner Preference:z_seam_corner_inner
;Z Seam X:110
;Z Seam Y:220
;Horizontal Expansion:0
;Top/Bottom Pattern:zigzag
;Ironing Pattern:zigzag
;Vase Model:false
;----------Support Config----------------
;Support Type:everywhere
;Support Pattern:zigzag
;Support Infill Layer Thickness:0.2
;Minimum Support Area:1
;Enable Support Roof:true
;Support Roof Thickness:0.8
;Support Roof Pattern:lines
;Connect Support Lines:0
;Connect Support ZigZags:1
;Minimum Support X/Y Distance:0.2
;Support Line Distance:2.67
; ---------PrintSpeed & Travel----------
;Enable Print Cool:true
;Avoid Printed Parts Traveling:true
;Enable Retraction:true
;Retraction Distance:1.2
;Retraction Speed:30
;Retraction Prime Speed:30
;Maximum Retraction Count:100
;Minimum Extrusion Distance Window:0.8
;Z Hop When Retracted:true
;Z Hop Height:0.4
;Retract Before Outer Wall:true

;Outer Wall Speed:60
;Inner Wall Speed:90
;Infill Speed:180
;Top/Bottom Speed:50
;Travel Speed:150
;Initial Layer Speed:20
;Skirt/Brim Speed:25
;Prime Tower Speed:60
;Outer Wall Acceleration:1000
;Inner Wall Acceleration:2000
;Infill Acceleration:2500
;Top/Bottom Acceleration:2500
;Travel Acceleration:2500
;Initial Layer Print Acceleration:500
;Initial Layer Travel Acceleration:500
;Skirt/Brim Acceleration:500
;Combing Mode:off
; --------SpecialModel&Mesh Fixes--------
;Union Overlapping Volum:true
;Remove All Holes:false
;Maximum Travel Resolution:0.25
;Maximum Deviation:0.05
;Maximum Model Angle:0.872665
;IS Mold Print:false
;Make Overhang Printable:false
;Enable Coasting:false
;Coasting Volumes:0.064
;Coasting Speed:0.9
;Raft AirGap:0.25
;Layer0 ZOverLap:0.13
;Adaptive Layers:0
;---------------------End of Head--------------------------
M140 S60
M105
M190 S60
M104 S195
M82 ;absolute extrusion mode
M220 S100 ;Reset Feedrate
M221 S100 ;Reset Flowrate

G28 ;Home

G92 E0 ;Reset Extruder
G1 Z2.0 F3000 ;Move Z Axis up
G1 X-2.1 Y20 Z0.28 F5000.0 ;Move to start position
M109 S195.000000
G1 X-2.1 Y145.0 Z0.28 F1500.0 E15 ;Draw the first line
G1 X-2.4 Y145.0 Z0.28 F5000.0 ;Move to side a little
G1 X-2.4 Y20 Z0.28 F1500.0 E30 ;Draw the second line
G92 E0  ;Reset Extruder
G1 E-1.0000 F1800 ;Retract a bit
G1 Z2.0 F3000 ;Move Z Axis up
G1 E0.0000 F1800 

G92 E0
G92 E0
G1 F1800 E-1.2
;LAYER_COUNT:35

;LAYER:0
M106 S0
M204 S500
;;retract;;
G1 F1800 E0
G1 F1800 E-1.2
G0 F4800 X2.297 Y2.227 Z20.401
G0 X102.362 Y99.255 Z0.6
;TYPE:SKIRT
G1 F600 Z0.2
G1 F1800 E0
G1 F1500 X102.038 Y99.599 E0.01815
G1 X101.735 Y100.078 E0.03993
G1 X101.529 Y100.598 E0.06141
G1 X101.421 Y101.158 E0.08332
G1 X101.421 Y101.63 E0.10145
G1 X101.469 Y102.004 E0.11594
G1 X101.562 Y102.369 E0.13041
G1 X101.735 Y102.805 E0.14843
G1 X102.035 Y103.279 E0.16998
G1 X102.296 Y103.562 E0.18477
G1 X102.003 Y103.3 E0.19987
G1 X101.618 Y103.055 E0.2174
G1 X101.277 Y102.895 E0.23187
G1 X100.83 Y102.749 E0.24993
G1 X100.361 Y102.69 E0.26809
G1 X99.984 Y102.69 E0.28257
G1 X99.516 Y102.749 E0.30069
G1 X99.068 Y102.895 E0.3188
G1 X98.728 Y103.055 E0.33323
G1 X98.409 Y103.257 E0.34774
G1 X98.119 Y103.497 E0.3622
G1 X97.861 Y103.772 E0.37668
G1 X97.64 Y104.077 E0.39115
G1 X97.458 Y104.407 E0.40563
G1 X97.32 Y104.757 E0.42008
G1 X97.226 Y105.122 E0.43456
G1 X97.179 Y105.496 E0.44904
G1 X97.179 Y105.872 E0.46348
G1 X97.226 Y106.246 E0.47797
G1 X97.32 Y106.611 E0.49244
G1 X97.458 Y106.961 E0.5069
G1 X97.64 Y107.292 E0.52141
G1 X97.861 Y107.596 E0.53585
G1 X98.053 Y107.805 E0.54675
G1 X97.842 Y107.615 E0.55766
G1 X97.538 Y107.394 E0.57209
G1 X97.124 Y107.166 E0.59025
G1 X96.676 Y107.021 E0.60834
G1 X96.306 Y106.95 E0.62281
G1 X95.93 Y106.927 E0.63728
G1 X95.554 Y106.95 E0.65176
G1 X95.184 Y107.021 E0.66623
G1 X94.736 Y107.166 E0.68432
G1 X94.323 Y107.394 E0.70244
G1 X94.018 Y107.615 E0.71691
G1 X93.743 Y107.873 E0.7314
G1 X93.503 Y108.163 E0.74586
G1 X93.301 Y108.482 E0.76036
G1 X93.141 Y108.822 E0.7748
G1 X92.995 Y109.27 E0.7929
G1 X92.936 Y109.738 E0.81102
G1 X92.936 Y110.115 E0.8255
G1 X92.995 Y110.584 E0.84366
G1 X93.141 Y111.031 E0.86172
G1 X93.301 Y111.372 E0.87619
G1 X93.55 Y111.764 E0.89403
G1 X93.811 Y112.048 E0.90885
G1 X93.52 Y111.786 E0.92389
G1 X93.133 Y111.54 E0.94151
G1 X92.792 Y111.38 E0.95598
G1 X92.434 Y111.264 E0.97044
G1 X91.97 Y111.175 E0.98859
G1 X91.406 Y111.175 E1.01025
G1 X90.941 Y111.264 E1.02844
G1 X90.583 Y111.38 E1.0429
G1 X90.242 Y111.54 E1.05737
G1 X89.924 Y111.742 E1.07184
G1 X89.634 Y111.983 E1.08632
G1 X89.376 Y112.257 E1.10078
G1 X89.155 Y112.562 E1.11525
G1 X88.973 Y112.892 E1.12973
G1 X88.801 Y113.326 E1.14766
G1 X88.693 Y113.886 E1.16957
G1 X88.693 Y114.358 E1.1877
G1 X88.741 Y114.732 E1.20219
G1 X88.834 Y115.096 E1.21662
G1 X88.973 Y115.447 E1.23112
G1 X89.155 Y115.777 E1.2456
G1 X89.376 Y116.082 E1.26007
G1 X89.568 Y116.29 E1.27094
G1 X89.275 Y116.028 E1.28604
G1 X88.89 Y115.783 E1.30357
G1 X88.549 Y115.623 E1.31804
G1 X88.102 Y115.477 E1.33611
G1 X87.633 Y115.418 E1.35427
G1 X87.257 Y115.418 E1.36871
G1 X86.788 Y115.477 E1.38687
G1 X86.341 Y115.623 E1.40494
G1 X86 Y115.783 E1.41941
G1 X85.682 Y115.985 E1.43388
G1 X85.391 Y116.225 E1.44837
G1 X85.133 Y116.5 E1.46285
G1 X84.912 Y116.805 E1.47732
G1 X84.73 Y117.135 E1.4918
G1 X84.592 Y117.485 E1.50625
G1 X84.498 Y117.85 E1.52073
G1 X84.451 Y118.224 E1.53521
G1 X84.451 Y118.6 E1.54966
G1 X84.498 Y118.974 E1.56414
G1 X84.592 Y119.339 E1.57862
G1 X84.73 Y119.689 E1.59307
G1 X84.912 Y120.02 E1.60758
G1 X85.133 Y120.324 E1.62202
G1 X85.325 Y120.533 E1.63292
G1 X85.115 Y120.343 E1.6438
G1 X84.81 Y120.122 E1.65827
G1 X84.396 Y119.894 E1.67643
G1 X83.948 Y119.749 E1.69451
G1 X83.578 Y119.678 E1.70899
G1 X83.202 Y119.655 E1.72346
G1 X82.826 Y119.678 E1.73793
G1 X82.456 Y119.749 E1.7524
G1 X82.008 Y119.894 E1.77049
G1 X81.595 Y120.122 E1.78861
G1 X81.29 Y120.343 E1.80308
G1 X81.015 Y120.601 E1.81757
G1 X80.775 Y120.891 E1.83203
G1 X80.573 Y121.209 E1.8465
G1 X80.373 Y121.636 E1.86462
G1 X80.255 Y122.093 E1.88275
G1 X80.208 Y122.466 E1.89719
G1 X80.208 Y122.843 E1.91167
G1 X80.255 Y123.217 E1.92615
G1 X80.372 Y123.672 E1.9442
G1 X80.573 Y124.1 E1.96237
G1 X80.822 Y124.492 E1.98021
G1 X81.083 Y124.776 E1.99502
G1 X80.792 Y124.514 E2.01007
G1 X80.405 Y124.268 E2.02768
G1 X79.977 Y124.067 E2.04585
G1 X79.522 Y123.95 E2.06389
G1 X79.148 Y123.903 E2.07837
G1 X78.771 Y123.903 E2.09286
G1 X78.397 Y123.95 E2.10734
G1 X77.94 Y124.068 E2.12547
G1 X77.514 Y124.268 E2.14355
G1 X77.196 Y124.47 E2.15802
G1 X76.906 Y124.71 E2.17248
G1 X76.648 Y124.985 E2.18697
G1 X76.427 Y125.29 E2.20144
G1 X76.245 Y125.62 E2.21591
G1 X76.073 Y126.054 E2.23385
G1 X75.983 Y126.521 E2.25212
G1 X75.96 Y126.897 E2.26659
G1 X75.983 Y127.273 E2.28106
G1 X76.072 Y127.739 E2.29928
G1 X76.245 Y128.175 E2.3173
G1 X76.427 Y128.505 E2.33178
G1 X76.648 Y128.81 E2.34625
G1 X76.84 Y129.018 E2.35712
G1 X76.629 Y128.828 E2.36803
G1 X76.246 Y128.55 E2.38621
G1 X75.821 Y128.351 E2.40424
G1 X75.374 Y128.205 E2.4223
G1 X74.905 Y128.146 E2.44046
G1 X74.529 Y128.146 E2.45491
G1 X74.06 Y128.205 E2.47307
G1 X73.613 Y128.351 E2.49113
G1 X73.184 Y128.552 E2.50933
G1 X72.727 Y128.885 E2.53105
G1 X72.405 Y129.228 E2.54913
G1 X72.184 Y129.533 E2.56359
G1 X72.002 Y129.863 E2.57807
G1 X71.864 Y130.213 E2.59252
G1 X71.77 Y130.578 E2.607
G1 X71.723 Y130.952 E2.62148
G1 X71.723 Y131.328 E2.63593
G1 X71.77 Y131.702 E2.65041
G1 X71.864 Y132.067 E2.66489
G1 X72.002 Y132.417 E2.67934
G1 X72.184 Y132.747 E2.69382
G1 X72.405 Y133.052 E2.70829
G1 X72.597 Y133.261 E2.71919
G1 X72.387 Y133.071 E2.73007
G1 X72.082 Y132.85 E2.74454
G1 X71.752 Y132.668 E2.75902
G1 X71.316 Y132.495 E2.77704
G1 X70.85 Y132.406 E2.79526
G1 X70.474 Y132.383 E2.80973
G1 X70.098 Y132.406 E2.8242
G1 X69.631 Y132.496 E2.84247
G1 X69.197 Y132.668 E2.86041
G1 X68.867 Y132.85 E2.87488
G1 X68.562 Y133.071 E2.88935
G1 X68.287 Y133.329 E2.90384
G1 X68.047 Y133.619 E2.9183
G1 X67.845 Y133.937 E2.93277
G1 X67.645 Y134.363 E2.95085
G1 X67.527 Y134.82 E2.96898
G1 X67.48 Y135.194 E2.98346
G1 X67.48 Y135.571 E2.99795
G1 X67.527 Y135.945 E3.01243
G1 X67.644 Y136.4 E3.03047
G1 X67.845 Y136.828 E3.04864
G1 X68.094 Y137.22 E3.06648
G1 X68.355 Y137.504 E3.0813
G1 X68.064 Y137.242 E3.09634
G1 X67.677 Y136.996 E3.11395
G1 X67.249 Y136.795 E3.13212
G1 X66.794 Y136.678 E3.15017
G1 X66.42 Y136.631 E3.16465
G1 X66.043 Y136.631 E3.17913
G1 X65.67 Y136.678 E3.19357
G1 X65.213 Y136.796 E3.2117
G1 X64.786 Y136.996 E3.22982
G1 X64.468 Y137.198 E3.24429
G1 X64.178 Y137.438 E3.25875
G1 X63.92 Y137.713 E3.27324
G1 X63.699 Y138.018 E3.2877
G1 X63.471 Y138.431 E3.30583
G1 X63.326 Y138.879 E3.32392
G1 X63.255 Y139.249 E3.33839
G1 X63.232 Y139.625 E3.35286
G1 X63.255 Y140.001 E3.36733
G1 X63.326 Y140.371 E3.38181
G1 X63.471 Y140.819 E3.39989
G1 X63.699 Y141.233 E3.41805
G1 X63.92 Y141.538 E3.43252
G1 X64.112 Y141.746 E3.44339
G1 X63.901 Y141.556 E3.4543
G1 X63.597 Y141.335 E3.46874
G1 X63.266 Y141.153 E3.48325
G1 X62.916 Y141.015 E3.4977
G1 X62.551 Y140.921 E3.51218
G1 X62.177 Y140.874 E3.52666
G1 X61.801 Y140.874 E3.54111
G1 X61.427 Y140.921 E3.55559
G1 X61.062 Y141.015 E3.57007
G1 X60.712 Y141.153 E3.58452
G1 X60.382 Y141.335 E3.599
G1 X60 Y141.612 E3.61712
G1 X59.677 Y141.956 E3.63525
G1 X59.401 Y142.336 E3.65329
G1 X59.2 Y142.764 E3.67146
G1 X59.054 Y143.211 E3.68952
G1 X58.995 Y143.68 E3.70768
G1 X58.995 Y144.056 E3.72213
G1 X59.054 Y144.525 E3.74028
G1 X59.2 Y144.972 E3.75835
G1 X59.399 Y145.397 E3.77638
G1 X59.677 Y145.78 E3.79456
G1 X59.869 Y145.989 E3.80546
G1 X59.659 Y145.799 E3.81634
G1 X59.354 Y145.578 E3.83081
G1 X59.024 Y145.396 E3.84528
G1 X58.673 Y145.257 E3.85979
G1 X58.309 Y145.164 E3.87422
G1 X57.935 Y145.116 E3.8887
G1 X57.463 Y145.116 E3.90684
G1 X56.903 Y145.224 E3.92875
G1 X56.469 Y145.396 E3.94668
G1 X56.139 Y145.578 E3.96116
G1 X55.834 Y145.799 E3.97563
G1 X55.559 Y146.057 E3.99011
G1 X55.319 Y146.347 E4.00457
G1 X55.117 Y146.665 E4.01905
G1 X54.916 Y147.093 E4.03721
G1 X54.8 Y147.548 E4.05525
G1 X54.74 Y148.016 E4.07337
G1 X54.77 Y148.487 E4.0915
G1 X54.841 Y148.857 E4.10598
G1 X54.957 Y149.215 E4.12043
G1 X55.117 Y149.556 E4.1349
G1 X55.367 Y149.949 E4.1528
G1 X55.627 Y150.231 E4.16753
G1 X55.334 Y149.969 E4.18263
G1 X54.949 Y149.724 E4.20016
G1 X54.608 Y149.564 E4.21463
G1 X54.161 Y149.418 E4.2327
G1 X53.692 Y149.359 E4.25086
G1 X53.315 Y149.359 E4.26534
G1 X52.847 Y149.418 E4.28346
G1 X52.399 Y149.564 E4.30156
G1 X52.058 Y149.724 E4.31603
G1 X51.74 Y149.926 E4.3305
G1 X51.45 Y150.166 E4.34496
G1 X51.192 Y150.441 E4.35945
G1 X50.971 Y150.746 E4.37392
G1 X50.743 Y151.159 E4.39204
G1 X50.598 Y151.607 E4.41013
G1 X50.527 Y151.977 E4.4246
G1 X50.504 Y152.353 E4.43907
G1 X50.527 Y152.729 E4.45354
G1 X50.598 Y153.099 E4.46802
G1 X50.743 Y153.547 E4.48611
G1 X50.971 Y153.961 E4.50426
G1 X51.192 Y154.265 E4.5187
G1 X51.384 Y154.474 E4.5296
G1 X51.173 Y154.284 E4.54051
G1 X50.869 Y154.063 E4.55495
G1 X50.538 Y153.881 E4.56946
G1 X50.188 Y153.743 E4.58391
G1 X49.823 Y153.649 E4.59839
G1 X49.449 Y153.602 E4.61287
G1 X49.073 Y153.602 E4.62732
G1 X48.699 Y153.649 E4.6418
G1 X48.334 Y153.743 E4.65628
G1 X47.984 Y153.881 E4.67073
G1 X47.654 Y154.063 E4.68521
G1 X47.349 Y154.284 E4.69968
G1 X47.074 Y154.542 E4.71416
G1 X46.834 Y154.833 E4.72865
G1 X46.632 Y155.151 E4.74312
G1 X46.472 Y155.491 E4.75756
G1 X46.326 Y155.939 E4.77566
G1 X46.267 Y156.407 E4.79378
G1 X46.267 Y156.784 E4.80826
G1 X46.326 Y157.253 E4.82642
G1 X46.472 Y157.7 E4.84449
G1 X46.632 Y158.041 E4.85896
G1 X46.88 Y158.431 E4.87671
G1 X47.141 Y158.717 E4.89159
G1 X46.851 Y158.455 E4.9066
G1 X46.383 Y158.159 E4.92787
G1 X45.862 Y157.951 E4.94942
G1 X45.299 Y157.844 E4.97144
G1 X44.735 Y157.844 E4.9931
G1 X44.175 Y157.952 E5.01501
G1 X43.655 Y158.158 E5.0365
G1 X43.255 Y158.411 E5.05468
G1 X42.965 Y158.652 E5.06917
G1 X42.707 Y158.926 E5.08362
G1 X42.485 Y159.231 E5.09812
G1 X42.304 Y159.561 E5.11258
G1 X42.131 Y159.995 E5.13052
G1 X42.042 Y160.463 E5.14882
G1 X42.018 Y160.839 E5.1633
G1 X42.042 Y161.215 E5.17777
G1 X42.132 Y161.682 E5.19604
G1 X42.304 Y162.116 E5.21397
G1 X42.485 Y162.446 E5.22843
G1 X42.707 Y162.751 E5.24293
G1 X42.899 Y162.959 E5.2538
G1 X42.606 Y162.697 E5.2689
G1 X42.221 Y162.452 E5.28643
G1 X41.88 Y162.292 E5.3009
G1 X41.433 Y162.146 E5.31896
G1 X40.964 Y162.087 E5.33712
G1 X40.587 Y162.087 E5.35161
G1 X40.119 Y162.146 E5.36973
G1 X39.671 Y162.292 E5.38783
G1 X39.331 Y162.452 E5.40226
G1 X39.012 Y162.654 E5.41677
G1 X38.722 Y162.894 E5.43123
G1 X38.464 Y163.169 E5.44571
G1 X38.243 Y163.474 E5.46018
G1 X38.061 Y163.804 E5.47466
G1 X37.887 Y164.244 E5.49284
G1 X37.799 Y164.705 E5.51087
G1 X37.776 Y165.081 E5.52534
G1 X37.799 Y165.457 E5.53981
G1 X37.887 Y165.917 E5.5578
G1 X38.061 Y166.359 E5.57605
G1 X38.243 Y166.689 E5.59053
G1 X38.464 Y166.993 E5.60496
G1 X38.656 Y167.202 E5.61587
G1 X38.445 Y167.012 E5.62677
G1 X38.141 Y166.791 E5.64121
G1 X37.727 Y166.563 E5.65937
G1 X37.279 Y166.418 E5.67746
G1 X36.909 Y166.347 E5.69193
G1 X36.533 Y166.324 E5.7064
G1 X36.157 Y166.347 E5.72087
G1 X35.787 Y166.418 E5.73535
G1 X35.339 Y166.563 E5.75343
G1 X34.926 Y166.791 E5.77156
G1 X34.621 Y167.012 E5.78603
G1 X34.346 Y167.27 E5.80051
G1 X34.106 Y167.56 E5.81497
G1 X33.904 Y167.879 E5.82948
G1 X33.744 Y168.219 E5.84391
G1 X33.598 Y168.667 E5.86201
G1 X33.539 Y169.135 E5.88013
G1 X33.539 Y169.512 E5.89462
G1 X33.598 Y169.981 E5.91278
G1 X33.744 Y170.428 E5.93084
G1 X33.904 Y170.769 E5.94531
G1 X34.153 Y171.161 E5.96315
G1 X34.414 Y171.445 E5.97797
G1 X34.343 Y171.515 E5.9818
G1 X34.07 Y171.29 E5.99539
G1 X33.752 Y171.088 E6.00986
G1 X33.326 Y170.888 E6.02794
G1 X32.869 Y170.77 E6.04607
G1 X32.495 Y170.723 E6.06055
G1 X32.118 Y170.723 E6.07503
G1 X31.744 Y170.77 E6.08952
G1 X31.289 Y170.887 E6.10756
G1 X30.861 Y171.088 E6.12573
G1 X30.543 Y171.29 E6.1402
G1 X30.18 Y171.591 E6.15832
G1 X29.879 Y171.954 E6.17643
G1 X29.677 Y172.272 E6.1909
G1 X29.517 Y172.613 E6.20537
G1 X29.401 Y172.971 E6.21983
G1 X29.312 Y173.435 E6.23798
G1 X29.312 Y173.999 E6.25965
G1 X29.401 Y174.463 E6.2778
G1 X29.517 Y174.822 E6.29229
G1 X29.677 Y175.163 E6.30676
G1 X29.879 Y175.481 E6.32123
G1 X30.119 Y175.771 E6.33569
G1 X30.394 Y176.029 E6.35018
G1 X30.699 Y176.25 E6.36465
G1 X31.112 Y176.478 E6.38277
G1 X31.56 Y176.623 E6.40086
G1 X31.93 Y176.694 E6.41533
